;Project 0102
;Created by Estlcam version 11 build 11.116
;Machining time about 00:01:12 hours

G90
M03 S24000
G00 X0.0000 Y0.0000 Z0.0000 F2100
G00 Z2.0000 F480


;No. 1: Engraving 5
G00 X55.0889 Y20.6689 F2100
G00 Z0.5000 F480
G01 Z-0.5000 F600 S24000
G02 X79.9246 Y19.3042 I3.4877 J-163.2052 F1200
G02 X93.8175 Y16.5504 I-13.9636 J-106.8658 F1200
G01 X93.2707 Y14.6982 F1200
G03 X77.3582 Y17.6700 I-28.2821 J-107.3489 F1200
G03 X52.1496 Y18.6371 I-19.1360 J-169.7854 F1200
G03 X30.8096 Y16.4245 I3.9600 J-142.2121 F1200
G03 X23.1738 Y14.6982 I17.0024 J-92.9573 F1200
G01 X22.6270 Y16.5504 F1200
G02 X38.8095 Y19.5963 I28.8709 J-108.8746 F1200
G02 X55.0889 Y20.6689 I18.8507 J-162.0389 F1200
G00 Z2.0000 F480


;No. 2: Engraving 3
G00 X54.7321 Y60.2449 Z2.0000 F2100
G00 Z0.5000 F480
G01 Z-0.5000 F600
G02 X56.3702 Y57.9312 I-17.9589 J-14.4510 F1200
G02 X53.8478 Y55.6381 I-36.9021 J38.0585 F1200
G03 X52.8034 Y53.3077 I2.2468 J-2.4061 F1200
G01 X52.8256 Y52.9591 F1200
G03 X54.1586 Y51.0645 I2.6143 J0.4230 F1200
G01 X54.3813 Y50.9398 F1200
G01 X54.6239 Y50.8227 F1200
G03 X53.5510 Y50.5410 I-0.0171 J-2.1190 F1200
G03 X53.2097 Y49.8768 I0.6135 J-0.7351 F1200
G01 X53.1952 Y49.5174 F1200
G03 X52.4449 Y50.5108 I-7.7720 J-5.0901 F1200
G02 X51.7840 Y51.9163 I2.9997 J2.2685 F1200
G03 X49.8212 Y52.8184 I-2.0907 J-1.9627 F1200
G02 X48.6090 Y53.1157 I0.3066 J3.8690 F1200
G02 X49.0099 Y51.3285 I-11.0247 J-3.4113 F1200
G03 X50.0378 Y49.6232 I2.7841 J0.5158 F1200
G02 X51.9957 Y48.4238 I-0.4599 J-2.9485 F1200
G03 X50.8358 Y48.0354 I0.2818 J-2.7676 F1200
G03 X50.2580 Y47.0289 I0.6794 J-1.0592 F1200
G01 X50.2495 Y46.6776 F1200
G03 X49.4187 Y48.4502 I-6.5306 J-1.9797 F1200
G01 X49.2617 Y48.6531 F1200
G03 X47.0314 Y48.9784 I-1.5369 J-2.7290 F1200
G03 X45.0107 Y47.8770 I0.5340 J-3.3841 F1200
G02 X42.7603 Y44.3809 I-19.4988 J10.0790 F1200
G01 X42.3143 Y43.8632 F1200
G01 X41.8533 Y43.3967 F1200
G02 X43.7154 Y41.4388 I-5.4939 J-7.0891 F1200
G03 X45.1165 Y39.4809 I21.2434 J13.7226 F1200
G03 X46.5802 Y38.7207 I1.9020 J1.8731 F1200
G03 X49.3852 Y39.0399 I0.9253 J4.3529 F1200
G01 X50.3112 Y40.7332 F1200
G01 X51.2372 Y42.4266 F1200
G03 X51.4039 Y41.6534 I1.9073 J0.0065 F1200
G03 X52.1001 Y41.2145 I0.7094 J0.3538 F1200
G01 X52.4474 Y41.2007 F1200
G01 X52.8777 Y41.2272 F1200
G02 X51.2372 Y39.3574 I-11.0478 J8.0384 F1200
G03 X50.1562 Y37.7774 I0.8852 J-1.7654 F1200
G01 X50.1315 Y37.3321 F1200
G01 X50.1636 Y36.8419 F1200
G01 X50.2495 Y36.3059 F1200
G03 X51.9078 Y36.8159 I-0.3285 J4.0193 F1200
G03 X52.7834 Y38.0725 I-1.0208 J1.6446 F1200
G02 X53.6836 Y40.5955 I9.0297 J-1.7999 F1200
G02 X54.0894 Y40.9696 I0.6365 J-0.2834 F1200
G01 X54.1899 Y40.9571 F1200
G01 X54.2888 Y40.8920 F1200
G03 X54.4689 Y40.1428 I2.1005 J0.1088 F1200
G03 X54.8155 Y40.0255 I0.2507 J0.1699 F1200
G01 X55.2765 Y40.1335 F1200
G02 X54.1385 Y36.0515 I-8.5714 J0.1900 F1200
G02 X51.4489 Y32.6017 I-11.5593 J6.2388 F1200
G02 X42.2006 Y31.6673 I-5.4334 J7.5412 F1200
G02 X38.3608 Y34.3480 I4.8001 J10.9656 F1200
G01 X36.8502 Y35.9041 F1200
G01 X35.7327 Y37.0644 F1200
G03 X39.2120 Y38.9998 I1.0194 J2.2626 F1200
G03 X36.4666 Y41.7548 I-2.5112 J0.2429 F1200
G03 X35.7327 Y41.5447 I0.5352 J-3.2563 F1200
G03 X32.7012 Y44.5077 I-2.2822 J0.6974 F1200
G03 X30.9348 Y42.1973 I0.6461 J-2.3244 F1200
G01 X30.9439 Y41.9782 F1200
G03 X31.4817 Y40.6804 I2.2864 J0.1870 F1200
G03 X29.3052 Y38.3965 I0.3040 J-2.4687 F1200
G01 X29.2945 Y38.1580 F1200
G01 X29.3064 Y37.9050 F1200
G03 X32.2286 Y35.7196 I2.3913 J0.1511 F1200
G03 X33.5454 Y36.5352 I-0.6951 J2.5933 F1200
G02 X32.8894 Y32.4027 I-59.3582 J7.3048 F1200
G02 X28.7805 Y26.7982 I-8.7346 J2.0952 F1200
G02 X22.4863 Y24.7981 I-7.3569 J12.2478 F1200
G02 X20.3541 Y24.7479 I-1.3057 J10.1429 F1200
G02 X16.2660 Y26.3227 I0.6515 J7.7847 F1200
G02 X15.3359 Y27.4667 I1.8170 J2.4274 F1200
G02 X15.1945 Y27.9859 I1.5431 J0.6992 F1200
G01 X15.1872 Y28.1597 F1200
G01 X15.2010 Y28.3331 F1200
G02 X16.0717 Y28.9179 I0.6852 J-0.0795 F1200
G02 X17.5799 Y28.2235 I-0.9345 J-4.0145 F1200
G01 X18.0408 Y27.9098 F1200
G03 X21.2158 Y27.6805 I2.0195 J5.8668 F1200
G03 X18.2415 Y30.2275 I-2.9255 J-0.4061 F1200
G02 X16.7501 Y30.1466 I-2.4955 J32.1872 F1200
G02 X16.0804 Y30.4258 I-0.0858 J0.7369 F1200
G01 X16.0148 Y30.5615 F1200
G01 X15.9771 Y30.7320 F1200
G01 X15.9723 Y31.0384 F1200
G01 X15.9922 Y31.3107 F1200
G02 X16.5604 Y32.3229 I1.2337 J-0.0269 F1200
G02 X17.6980 Y32.5309 I0.9076 J-1.7494 F1200
G02 X20.1086 Y32.0735 I-1.5738 J-14.8729 F1200
G03 X21.5946 Y31.9196 I1.2135 J4.4679 F1200
G03 X24.0321 Y34.3283 I-0.6086 J3.0536 F1200
G02 X24.4053 Y36.0442 I50.1450 J-10.0058 F1200
G02 X25.5727 Y37.9463 I3.1231 J-0.6075 F1200
G02 X24.3218 Y37.8318 I-0.7957 J1.8031 F1200
G02 X22.8411 Y38.3204 I2.2344 J9.2586 F1200
G03 X20.7370 Y39.0540 I-4.5089 J-9.5483 F1200
G03 X18.7698 Y38.8056 I-0.6869 J-2.4732 F1200
G03 X17.9350 Y37.9463 I1.5245 J-2.3161 F1200
G01 X17.2145 Y36.6358 F1200
G02 X16.3280 Y35.4603 I-4.1141 J2.1806 F1200
G01 X15.6420 Y34.7713 F1200
G02 X13.7898 I-0.9261 J1.1845 F1200
G01 X13.7883 Y35.1623 F1200
G02 X13.8957 Y36.6410 I15.6658 J-0.3949 F1200
G03 X16.3783 Y38.1262 I0.0529 J2.7290 F1200
G03 X17.0707 Y40.5745 I-4.8340 J2.6893 F1200
G03 X14.6369 Y39.7599 I-0.0909 J-3.7717 F1200
G03 X14.0015 Y39.0399 I1.9931 J-2.3991 F1200
G03 X14.4315 Y45.1283 I-91.4615 J9.5178 F1200
G01 X14.4425 Y46.0249 F1200
G01 X14.4721 Y47.1909 F1200
G02 X45.7498 Y67.0094 I22.6502 J-1.1561 F1200
G02 X54.7321 Y60.2449 I-8.8169 J-21.0536 F1200
G00 Z2.0000 F480


;No. 3: Engraving 2
G00 X59.4956 Y63.4807 Z2.0000 F2100
G00 Z0.5000 F480
G01 Z-0.5000 F600
G02 X58.2222 Y63.1876 I-1.7037 J4.4880 F1200
G02 X53.9713 Y67.7560 I0.3573 J4.5944 F1200
G01 X53.9929 Y68.2061 F1200
G02 X58.2222 Y72.4127 I4.6823 J-0.4782 F1200
G02 X61.5106 Y64.9586 I-0.4104 J-4.6334 F1200
G02 X59.4956 Y63.4807 I-3.6740 J2.8965 F1200
G00 Z2.0000 F480


;No. 4: Engraving 4
G00 X62.6332 Y61.3200 Z2.0000 F2100
G00 Z0.5000 F480
G01 Z-0.5000 F600
G02 X96.0958 Y61.2787 I16.7127 J-15.1332 F1200
G02 X102.0020 Y46.0249 I-16.7016 J-15.2371 F1200
G03 X102.4429 Y39.0399 I81.1115 J1.6139 F1200
G03 X100.2147 Y40.4864 I-2.7476 J-1.7931 F1200
G01 X99.7919 Y40.5491 F1200
G01 X99.3738 Y40.5745 F1200
G03 X100.4655 Y37.5677 I4.9995 J0.1137 F1200
G03 X102.5488 Y36.6410 I1.9646 J1.6116 F1200
G02 X102.6546 Y34.7713 I-9.6091 J-1.4817 F1200
G02 X100.8025 I-0.9260 J1.1844 F1200
G01 X100.1165 Y35.4603 F1200
G02 X99.2300 Y36.6358 I3.2276 J3.3561 F1200
G01 X98.5095 Y37.9463 F1200
G03 X96.7277 Y39.1259 I-2.0416 J-1.1483 F1200
G03 X94.6530 Y38.7366 I-0.1752 J-4.7895 F1200
G02 X92.5972 Y37.9521 I-9.4189 J21.5967 F1200
G02 X91.2551 Y37.8106 I-0.9347 J2.4293 F1200
G01 X91.0588 Y37.8644 F1200
G01 X90.8718 Y37.9463 F1200
G02 X92.0392 Y36.0442 I-1.9551 J-2.5092 F1200
G03 X92.4123 Y34.3283 I32.1845 J6.1002 F1200
G03 X94.3735 Y32.0640 I3.0100 J0.6255 F1200
G03 X95.4306 Y31.9219 I0.7598 J1.6496 F1200
G03 X97.3158 Y32.2966 I-2.2860 J16.4317 F1200
G02 X99.1718 Y32.5286 I1.7510 J-6.4665 F1200
G02 X100.3432 Y31.7598 I0.0306 J-1.2302 F1200
G02 X100.4297 Y30.5615 I-2.1559 J-0.7579 F1200
G02 X99.8665 Y30.1610 I-0.5867 J0.2288 F1200
G02 X98.6582 Y30.2073 I-0.2767 J8.5634 F1200
G03 X96.5811 Y29.7788 I-0.4545 J-3.0450 F1200
G03 X95.2286 Y27.6805 I1.6208 J-2.5298 F1200
G03 X98.4036 Y27.9098 I1.1555 J6.0962 F1200
G02 X99.9797 Y28.8127 I4.2353 J-5.5662 F1200
G02 X100.8603 Y28.8738 I0.5136 J-1.0254 F1200
G02 X101.2573 Y28.1597 I-0.3901 J-0.6843 F1200
G02 X100.8038 Y26.9597 I-1.9804 J0.0627 F1200
G02 X98.8681 Y25.5068 I-4.1679 J3.5369 F1200
G02 X94.9111 Y24.7348 I-3.4767 J7.2936 F1200
G02 X88.8967 Y26.1263 I0.3732 J15.3067 F1200
G02 X84.4525 Y30.0977 I3.9001 J8.8368 F1200
G02 X83.4458 Y32.9192 I7.9886 J4.4405 F1200
G02 X82.8990 Y36.5352 I171.6402 J27.8051 F1200
G03 X85.7022 Y35.8527 I1.8563 J1.5264 F1200
G03 X86.5260 Y39.8549 I-1.1227 J2.3170 F1200
G03 X84.9628 Y40.6804 I-1.8015 J-1.5188 F1200
G03 X83.5047 Y44.5659 I-1.8545 J1.5205 F1200
G03 X80.6179 Y42.4493 I-0.5206 J-2.3169 F1200
G01 X80.6060 Y42.1973 F1200
G01 X80.6393 Y41.8649 F1200
G01 X80.7118 Y41.5447 F1200
G03 X77.4186 Y40.2214 I-1.0090 J-2.2484 F1200
G03 X77.2193 Y39.2516 I2.2703 J-0.9719 F1200
G01 X77.2324 Y38.9998 F1200
G03 X80.2370 Y36.9075 I2.4575 J0.3256 F1200
G01 X80.4785 Y36.9738 F1200
G01 X80.7118 Y37.0644 F1200
G01 X79.5943 Y35.9041 F1200
G01 X78.0836 Y34.3480 F1200
G02 X71.6992 Y30.9470 I-8.1696 J7.6432 F1200
G02 X64.9955 Y32.6017 I-1.3267 J9.0317 F1200
G02 X61.4628 Y38.0867 I8.4089 J9.2963 F1200
G02 X61.1815 Y39.6287 I6.9784 J2.0696 F1200
G01 X61.1679 Y40.1335 F1200
G01 X61.6290 Y40.0255 F1200
G03 X62.0403 Y40.3059 I0.1062 J0.2862 F1200
G01 X62.1557 Y40.8920 F1200
G02 X62.5586 Y40.8570 I0.1868 J-0.1852 F1200
G02 X62.9565 Y40.2262 I-1.6274 J-1.4677 F1200
G02 X63.6611 Y38.0725 I-10.6908 J-4.6896 F1200
G03 X65.2233 Y36.5156 I2.0105 J0.4551 F1200
G03 X66.1950 Y36.3059 I1.8929 J6.4151 F1200
G03 X66.2537 Y37.9834 I-3.7724 J0.9717 F1200
G03 X65.2072 Y39.3574 I-1.9187 J-0.3758 F1200
G02 X63.5668 Y41.2272 I9.4144 J9.9143 F1200
G03 X64.4897 Y41.2382 I0.4308 J2.5754 F1200
G03 X65.0897 Y41.7740 I-0.1172 J0.7351 F1200
G01 X65.1620 Y42.0651 F1200
G01 X65.2072 Y42.4266 F1200
G01 X66.1333 Y40.7332 F1200
G01 X67.0593 Y39.0399 F1200
G03 X69.5632 Y38.6720 I1.8844 J4.1207 F1200
G03 X71.1443 Y39.2944 I-0.1956 J2.8163 F1200
G03 X72.0395 Y40.4446 I-6.8739 J6.2735 F1200
G02 X74.0223 Y42.9206 I10.6281 J-6.4791 F1200
G01 X74.2956 Y43.1604 F1200
G01 X74.5911 Y43.3967 F1200
G02 X72.4558 Y46.1189 I10.2731 J10.2572 F1200
G01 X72.0895 Y46.7190 F1200
G01 X71.4338 Y47.8770 F1200
G03 X69.1120 Y49.0230 I-2.6358 J-2.4152 F1200
G03 X67.1828 Y48.6531 I-0.4436 J-2.9024 F1200
G03 X66.1950 Y46.6776 I5.3746 J-3.9219 F1200
G03 X65.9394 Y47.7287 I-1.4805 J0.1966 F1200
G03 X64.9157 Y48.3256 I-1.3823 J-1.1945 F1200
G01 X64.4488 Y48.4238 F1200
G02 X66.4067 Y49.6232 I2.4177 J-1.7488 F1200
G03 X67.4346 Y51.3285 I-1.7745 J2.2321 F1200
G02 X67.7569 Y52.8962 I15.4132 J-2.3521 F1200
G01 X67.8354 Y53.1157 F1200
G02 X66.2479 Y52.7631 I-2.0626 J5.5366 F1200
G03 X64.6604 Y51.9163 I0.4378 J-2.7322 F1200
G02 X63.6227 Y50.0464 I-4.0283 J1.0126 F1200
G01 X63.4339 Y49.8004 F1200
G01 X63.2493 Y49.5174 F1200
G03 X63.0548 Y50.3789 I-1.2441 J0.1718 F1200
G03 X62.1488 Y50.7879 I-0.9255 J-0.8420 F1200
G01 X61.8205 Y50.8227 F1200
G03 X63.4215 Y52.2725 I-1.0866 J2.8088 F1200
G03 X63.1734 Y54.9258 I-2.6831 J1.0873 F1200
G03 X62.5967 Y55.6381 I-2.5641 J-1.4865 F1200
G02 X60.0743 Y57.9312 I29.5554 J35.0448 F1200
G02 X62.6332 Y61.3200 I19.5993 J-12.1389 F1200
G00 Z2.0000 F480


;No. 5: Engraving 1
G00 X36.9909 Y72.9488 Z2.0000 F2100
G00 Z0.5000 F480
G01 Z-0.5000 F600
G03 X37.6905 Y71.6895 I3.0002 J0.8429 F1200
G03 X34.5332 Y71.5660 I-0.5634 J-26.0286 F1200
G03 X31.9588 Y75.7147 I-2.2792 J1.4588 F1200
G03 X29.4003 Y72.9948 I0.2477 J-2.7964 F1200
G03 X30.4939 Y70.9134 I2.6984 J0.0898 F1200
G03 X27.7598 Y69.9432 I6.7382 J-23.3264 F1200
G03 X25.5824 Y73.3804 I-2.6654 J0.7197 F1200
G03 X22.3233 Y70.9818 I-0.5564 J-2.6574 F1200
G01 X22.3095 Y70.7017 F1200
G01 X22.3184 Y70.4783 F1200
G03 X24.1615 Y68.1794 I2.6329 J0.2226 F1200
G03 X21.9743 Y66.5566 I13.5419 J-20.5380 F1200
G03 X16.5378 Y67.0484 I-2.7210 J0.2152 F1200
G01 X16.5239 Y66.7682 F1200
G01 X16.5372 Y66.4948 F1200
G03 X19.1345 Y64.0342 I2.7028 J0.2519 F1200
G03 X16.7355 Y61.0885 I19.1417 J-18.0384 F1200
G03 X11.2675 Y61.3179 I-2.7301 J0.2077 F1200
G01 X11.2816 Y61.0377 F1200
G03 X15.3245 Y58.9013 I2.7399 J0.2913 F1200
G03 X13.4547 Y54.9855 I24.2559 J-13.9861 F1200
G03 X8.0043 I-2.7252 J-0.0088 F1200
G03 X9.9240 Y52.2780 I2.8742 J0.0036 F1200
G03 X12.6963 Y53.0099 I0.8122 J2.5399 F1200
G03 X11.7085 Y48.3180 I28.7425 J-8.5012 F1200
G03 X6.7129 Y47.1868 I-2.3103 J-1.3935 F1200
G01 X6.6990 Y46.9069 F1200
G01 X6.7129 Y46.6268 F1200
G03 X10.2428 Y44.2828 I2.7243 J0.2728 F1200
G03 X11.3910 Y44.9313 I-0.6417 J2.4767 F1200
G01 X11.3295 Y44.1535 F1200
G01 X11.2675 Y43.3967 F1200
G01 X11.1122 Y43.4632 F1200
G01 X10.9500 Y43.5202 F1200
G03 X8.1896 Y43.7093 I-1.7354 J-5.0907 F1200
G02 X4.0429 Y44.3375 I-1.0849 J6.8383 F1200
G02 X1.7778 Y45.5839 I7.2113 J15.7861 F1200
G02 X10.7287 Y31.3667 I-88.4234 J-65.5965 F1200
G02 X15.5411 Y19.3355 I-53.5138 J-28.3831 F1200
G02 X16.4004 Y15.2980 I-37.5641 J-10.1048 F1200
G01 X16.4231 Y14.9856 F1200
G03 X17.0410 Y13.8076 I2.1291 J0.3658 F1200
G01 X17.4588 Y13.3930 F1200
G03 X19.4823 Y12.3664 I4.6646 J6.6870 F1200
G03 X24.5571 Y11.0462 I11.2809 J32.9483 F1200
G03 X34.5289 Y9.7294 I18.7836 J103.8337 F1200
G03 X54.4943 Y8.8092 I22.2236 J265.1160 F1200
G03 X78.9456 Y9.4848 I4.1703 J291.8604 F1200
G03 X89.7092 Y10.6679 I-8.1582 J123.7840 F1200
G03 X96.2789 Y12.1277 I-5.9295 J42.1969 F1200
G03 X98.5898 Y13.1258 I-3.3093 J10.8363 F1200
G01 X98.9857 Y13.3930 F1200
G03 X99.8647 Y14.4573 I-2.1937 J2.7069 F1200
G03 X100.0440 Y15.2980 I-1.8268 J0.8291 F1200
G02 X102.9578 Y25.4074 I46.3188 J-7.8756 F1200
G02 X108.9348 Y37.0657 I72.8442 J-29.9843 F1200
G02 X114.6667 Y45.5839 I105.0010 J-64.4673 F1200
G02 X111.3184 Y43.9231 I-7.9745 J11.8716 F1200
G02 X108.2548 Y43.7093 I-1.9733 J6.2184 F1200
G03 X106.0312 Y43.6793 I-1.0384 J-5.4629 F1200
G03 X105.1770 Y43.3967 I1.2784 J-5.2979 F1200
G01 X105.1149 Y44.1535 F1200
G01 X105.0535 Y44.9313 F1200
G03 X109.5338 Y45.8412 I1.9227 J2.0181 F1200
G03 X104.7360 Y48.3180 I-2.4847 J1.0722 F1200
G03 X103.7482 Y53.0099 I-29.7379 J-3.8105 F1200
G03 X107.9741 Y53.4219 I1.9583 J1.7925 F1200
G03 X103.3149 Y56.2861 I-2.2608 J1.5441 F1200
G03 X103.0036 Y55.2654 I2.3897 J-1.2868 F1200
G01 X102.9897 Y54.9855 F1200
G03 X101.1200 Y58.9013 I-26.1187 J-10.0667 F1200
G03 X104.5537 Y63.0512 I1.3094 J2.4121 F1200
G03 X99.7089 Y61.3179 I-2.1067 J-1.7492 F1200
G01 Y61.0885 F1200
G03 X97.3100 Y64.0342 I-21.5463 J-15.0970 F1200
G03 X96.9240 Y69.4882 I-0.1235 J2.7319 F1200
G03 X94.4842 Y67.0484 I0.2752 J-2.7150 F1200
G01 X94.4702 Y66.7682 F1200
G01 Y66.5566 F1200
G03 X92.2829 Y68.1794 I-12.5171 J-14.5859 F1200
G03 X92.2313 Y73.3132 I-0.8362 J2.5588 F1200
G03 X88.5940 Y70.9818 I-0.8217 J-2.7210 F1200
G01 X88.5788 Y70.7017 F1200
G01 X88.6042 Y70.3140 F1200
G01 X88.6371 Y70.1259 F1200
G01 X88.6846 Y69.9432 F1200
G03 X85.9505 Y70.9134 I-8.3626 J-19.2292 F1200
G03 X87.0289 Y73.2749 I-1.5292 J2.1253 F1200
G03 X82.0935 Y74.7353 I-2.7945 J-0.3740 F1200
G03 X81.4844 Y73.2749 I2.0986 J-1.7326 F1200
G01 X81.4703 Y72.9948 F1200
G03 X81.9113 Y71.5660 I2.7756 J0.0743 F1200
G03 X78.7539 Y71.6895 I-2.5939 J-25.9055 F1200
G03 X79.4972 Y73.1877 I-1.9383 J1.8951 F1200
G03 X77.4966 Y76.0312 I-2.7410 J0.1970 F1200
G03 X73.9385 Y73.4357 I-0.8279 J-2.6017 F1200
G01 X73.9585 Y73.1070 F1200
G03 X75.0321 Y71.2485 I2.8229 J0.3914 F1200
G03 X71.4338 Y70.3666 I4.0514 J-24.3112 F1200
G03 X67.3654 Y73.7282 I-2.5243 J1.0877 F1200
G03 X66.0892 Y71.4602 I1.4266 J-2.2959 F1200
G01 X66.0990 Y71.2370 F1200
G03 X67.6443 Y69.1175 I2.6074 J0.2779 F1200
G01 X68.0471 Y68.9555 F1200
G03 X64.7663 Y66.8741 I12.0569 J-22.6314 F1200
G03 X64.7918 Y68.9150 I-4.4795 J1.0766 F1200
G03 X59.8627 Y74.5117 I-7.0977 J-1.2822 F1200
G02 X59.4217 Y82.7138 I188.2668 J14.2353 F1200
G02 X66.7418 Y82.1670 I-1.7871 J-73.1944 F1200
G01 Y86.2063 F1200
G01 X66.1571 Y86.1493 F1200
G02 X59.4217 Y85.7654 I-9.0289 J99.1328 F1200
G02 X59.5822 Y90.6720 I75.0563 J-0.0004 F1200
G02 X59.8627 Y93.6323 I49.3567 J-3.1820 F1200
G01 X56.5818 F1200
G02 X57.0228 Y85.7654 I-65.9039 J-7.6402 F1200
G02 X49.7027 Y86.2063 I2.0542 J95.0824 F1200
G01 Y82.1670 F1200
G02 X57.0228 Y82.7138 I9.2699 J-74.8250 F1200
G02 X56.5818 Y74.5117 I-208.8702 J7.1173 F1200
G03 X51.5547 Y67.7560 I2.1296 J-6.8329 F1200
G03 X51.6782 Y66.8741 I6.8423 J0.5085 F1200
G03 X48.3973 Y68.9555 I-15.3404 J-20.5545 F1200
G03 X50.3167 Y71.0206 I-0.7397 J2.6120 F1200
G03 X48.0720 Y74.1388 I-2.7338 J0.3991 F1200
G03 X44.8129 Y71.7403 I-0.5564 J-2.6574 F1200
G01 X44.7990 Y71.4602 F1200
G01 X44.8127 Y71.1757 F1200
G03 X45.0107 Y70.3666 I2.7394 J0.2415 F1200
G03 X41.4123 Y71.2485 I-7.6493 J-23.4279 F1200
G03 X38.6897 Y75.9405 I-1.6374 J2.1858 F1200
G03 X36.9321 Y73.4357 I0.9825 J-2.5585 F1200
G01 X36.9473 Y73.1877 F1200
G01 X36.9909 Y72.9488 F1200
G00 Z2.0000 F480
G00 X0.0000 Y0.0000 F2100

M05
