;Project BaseBoard
;Created by Estlcam version 11 build 11.116
;Machining time about 00:26:25 hours

G90
M03 S2800
G00 X0.0000 Y0.0000 Z0.0000 F2100
G00 Z2.0000 F480


;No. 1: Hole 25
G00 X54.9691 Y8.9150 F2100
G00 Z0.5000 F480
G01 Z-1.0000 F30 S2800
G02 X56.4791 Y10.0746 I1.0898 J0.1439 F300
G02 X56.7283 Y8.1871 I-0.4203 J-1.0157 F300
G02 X54.9691 Y8.9150 I-0.6695 J0.8718 F300
G01 Z-2.0000 F30
G02 X56.4791 Y10.0746 I1.0898 J0.1439 F300
G02 X56.7283 Y8.1871 I-0.4203 J-1.0157 F300
G02 X54.9691 Y8.9150 I-0.6695 J0.8718 F300
G01 Z-3.0000 F30
G02 X56.4791 Y10.0746 I1.0898 J0.1439 F300
G02 X56.7283 Y8.1871 I-0.4203 J-1.0157 F300
G02 X54.9691 Y8.9150 I-0.6695 J0.8718 F300
G01 Z-4.0000 F30
G02 X56.4791 Y10.0746 I1.0898 J0.1439 F300
G02 X56.7283 Y8.1871 I-0.4203 J-1.0157 F300
G02 X54.9691 Y8.9150 I-0.6695 J0.8718 F300
G00 Z2.0000 F480


;No. 2: Hole 26
G00 X68.2046 Y32.9526 Z2.0000 F2100
G00 Z0.5000 F480
G01 Z-1.0000 F30
G02 X92.1963 Y66.8991 I21.7954 J10.0474 F300
G02 X109.5990 Y29.1483 I-2.1964 J-23.8991 F300
G02 X68.2046 Y32.9526 I-19.5990 J13.8517 F300
G01 Z-2.0000 F30
G02 X92.1963 Y66.8991 I21.7954 J10.0474 F300
G02 X109.5990 Y29.1483 I-2.1964 J-23.8991 F300
G02 X68.2046 Y32.9526 I-19.5990 J13.8517 F300
G01 Z-3.0000 F30
G02 X92.1963 Y66.8991 I21.7954 J10.0474 F300
G02 X109.5990 Y29.1483 I-2.1964 J-23.8991 F300
G02 X68.2046 Y32.9526 I-19.5990 J13.8517 F300
G01 Z-4.0000 F30
G02 X92.1963 Y66.8991 I21.7954 J10.0474 F300
G02 X109.5990 Y29.1483 I-2.1964 J-23.8991 F300
G02 X68.2046 Y32.9526 I-19.5990 J13.8517 F300
G00 Z2.0000 F480


;No. 3: Hole 24
G00 X122.8440 Y8.9897 Z2.0000 F2100
G00 Z0.5000 F480
G01 Z-1.0000 F30
G02 X124.4297 Y10.0435 I1.0971 J0.0692 F300
G02 X124.5495 Y8.1434 I-0.4886 J-0.9847 F300
G02 X122.8440 Y8.9897 I-0.6084 J0.9155 F300
G01 Z-2.0000 F30
G02 X124.4297 Y10.0435 I1.0971 J0.0692 F300
G02 X124.5495 Y8.1434 I-0.4886 J-0.9847 F300
G02 X122.8440 Y8.9897 I-0.6084 J0.9155 F300
G01 Z-3.0000 F30
G02 X124.4297 Y10.0435 I1.0971 J0.0692 F300
G02 X124.5495 Y8.1434 I-0.4886 J-0.9847 F300
G02 X122.8440 Y8.9897 I-0.6084 J0.9155 F300
G01 Z-4.0000 F30
G02 X124.4297 Y10.0435 I1.0971 J0.0692 F300
G02 X124.5495 Y8.1434 I-0.4886 J-0.9847 F300
G02 X122.8440 Y8.9897 I-0.6084 J0.9155 F300
G00 Z2.0000 F480


;No. 4: Hole 23
G00 X122.9989 Y76.3750 Z2.0000 F2100
G00 Z0.5000 F480
G01 Z-1.0000 F30
G02 X123.9219 Y78.0402 I0.9422 J0.5661 F300
G02 X124.9025 Y76.4082 I0.0192 J-1.0991 F300
G02 X122.9989 Y76.3750 I-0.9614 J0.5329 F300
G01 Z-2.0000 F30
G02 X123.9219 Y78.0402 I0.9422 J0.5661 F300
G02 X124.9025 Y76.4082 I0.0192 J-1.0991 F300
G02 X122.9989 Y76.3750 I-0.9614 J0.5329 F300
G01 Z-3.0000 F30
G02 X123.9219 Y78.0402 I0.9422 J0.5661 F300
G02 X124.9025 Y76.4082 I0.0192 J-1.0991 F300
G02 X122.9989 Y76.3750 I-0.9614 J0.5329 F300
G01 Z-4.0000 F30
G02 X123.9219 Y78.0402 I0.9422 J0.5661 F300
G02 X124.9025 Y76.4082 I0.0192 J-1.0991 F300
G02 X122.9989 Y76.3750 I-0.9614 J0.5329 F300
G00 Z2.0000 F480


;No. 5: Hole 12
G00 X108.0496 Y119.2465 Z2.0000 F2100
G00 Z0.5000 F480
G01 Z-1.0000 F30
G02 X108.2084 Y120.0964 I0.3247 J0.3791 F300
G02 X108.8650 Y119.5340 I0.1660 J-0.4708 F300
G02 X108.0496 Y119.2465 I-0.4907 J0.0917 F300
G01 Z-2.0000 F30
G02 X108.2084 Y120.0964 I0.3247 J0.3791 F300
G02 X108.8650 Y119.5340 I0.1660 J-0.4708 F300
G02 X108.0496 Y119.2465 I-0.4907 J0.0917 F300
G01 Z-3.0000 F30
G02 X108.2084 Y120.0964 I0.3247 J0.3791 F300
G02 X108.8650 Y119.5340 I0.1660 J-0.4708 F300
G02 X108.0496 Y119.2465 I-0.4907 J0.0917 F300
G01 Z-4.0000 F30
G02 X108.2084 Y120.0964 I0.3247 J0.3791 F300
G02 X108.8650 Y119.5340 I0.1660 J-0.4708 F300
G02 X108.0496 Y119.2465 I-0.4907 J0.0917 F300
G00 Z2.0000 F480


;No. 6: Hole 9
G00 X88.5059 Y121.6853 Z2.0000 F2100
G00 Z0.5000 F480
G01 Z-1.0000 F30
G02 X90.8142 Y143.6474 I7.4941 J10.3147 F300
G02 X108.6798 Y130.6673 I5.1858 J-11.6474 F300
G02 X88.5059 Y121.6853 I-12.6798 J1.3327 F300
G01 Z-2.0000 F30
G02 X90.8142 Y143.6474 I7.4941 J10.3147 F300
G02 X108.6798 Y130.6673 I5.1858 J-11.6474 F300
G02 X88.5059 Y121.6853 I-12.6798 J1.3327 F300
G01 Z-3.0000 F30
G02 X90.8142 Y143.6474 I7.4941 J10.3147 F300
G02 X108.6798 Y130.6673 I5.1858 J-11.6474 F300
G02 X88.5059 Y121.6853 I-12.6798 J1.3327 F300
G01 Z-4.0000 F30
G02 X90.8142 Y143.6474 I7.4941 J10.3147 F300
G02 X108.6798 Y130.6673 I5.1858 J-11.6474 F300
G02 X88.5059 Y121.6853 I-12.6798 J1.3327 F300
G00 Z2.0000 F480


;No. 7: Hole 13
G00 X83.3316 Y119.2222 Z2.0000 F2100
G00 Z0.5000 F480
G01 Z-1.0000 F30
G02 X83.4232 Y120.0820 I0.2940 J0.4034 F300
G02 X84.1220 Y119.5727 I0.2024 J-0.4563 F300
G02 X83.3316 Y119.2222 I-0.4964 J0.0529 F300
G01 Z-2.0000 F30
G02 X83.4232 Y120.0820 I0.2940 J0.4034 F300
G02 X84.1220 Y119.5727 I0.2024 J-0.4563 F300
G02 X83.3316 Y119.2222 I-0.4964 J0.0529 F300
G01 Z-3.0000 F30
G02 X83.4232 Y120.0820 I0.2940 J0.4034 F300
G02 X84.1220 Y119.5727 I0.2024 J-0.4563 F300
G02 X83.3316 Y119.2222 I-0.4964 J0.0529 F300
G01 Z-4.0000 F30
G02 X83.4232 Y120.0820 I0.2940 J0.4034 F300
G02 X84.1220 Y119.5727 I0.2024 J-0.4563 F300
G02 X83.3316 Y119.2222 I-0.4964 J0.0529 F300
G00 Z2.0000 F480


;No. 8: Hole 10
G00 X83.3642 Y143.9491 Z2.0000 F2100
G00 Z0.5000 F480
G01 Z-1.0000 F30
G02 X83.3880 Y144.8134 I0.2614 J0.4253 F300
G02 X84.1246 Y144.3606 I0.2376 J-0.4390 F300
G02 X83.3642 Y143.9491 I-0.4990 J0.0138 F300
G01 Z-2.0000 F30
G02 X83.3880 Y144.8134 I0.2614 J0.4253 F300
G02 X84.1246 Y144.3606 I0.2376 J-0.4390 F300
G02 X83.3642 Y143.9491 I-0.4990 J0.0138 F300
G01 Z-3.0000 F30
G02 X83.3880 Y144.8134 I0.2614 J0.4253 F300
G02 X84.1246 Y144.3606 I0.2376 J-0.4390 F300
G02 X83.3642 Y143.9491 I-0.4990 J0.0138 F300
G01 Z-4.0000 F30
G02 X83.3880 Y144.8134 I0.2614 J0.4253 F300
G02 X84.1246 Y144.3606 I0.2376 J-0.4390 F300
G02 X83.3642 Y143.9491 I-0.4990 J0.0138 F300
G00 Z2.0000 F480


;No. 9: Hole 15
G00 X70.5965 Y157.0858 Z2.0000 F2100
G00 Z0.5000 F480
G01 Z-1.0000 F30
G02 X70.4100 Y158.8065 I0.4034 J0.9142 F300
G02 X71.9934 Y158.1077 I0.5900 J-0.8065 F300
G02 X70.5965 Y157.0858 I-0.9934 J-0.1077 F300
G01 Z-2.0000 F30
G02 X70.4100 Y158.8065 I0.4034 J0.9142 F300
G02 X71.9934 Y158.1077 I0.5900 J-0.8065 F300
G02 X70.5965 Y157.0858 I-0.9934 J-0.1077 F300
G01 Z-3.0000 F30
G02 X70.4100 Y158.8065 I0.4034 J0.9142 F300
G02 X71.9934 Y158.1077 I0.5900 J-0.8065 F300
G02 X70.5965 Y157.0858 I-0.9934 J-0.1077 F300
G01 Z-4.0000 F30
G02 X70.4100 Y158.8065 I0.4034 J0.9142 F300
G02 X71.9934 Y158.1077 I0.5900 J-0.8065 F300
G02 X70.5965 Y157.0858 I-0.9934 J-0.1077 F300
G00 Z2.0000 F480


;No. 10: Hole 14
G00 X46.7248 Y157.0394 Z2.0000 F2100
G00 Z0.5000 F480
G01 Z-1.0000 F30
G02 X46.3057 Y158.7186 I0.2752 J0.9606 F300
G02 X47.9695 Y158.2420 I0.6943 J-0.7186 F300
G02 X46.7248 Y157.0394 I-0.9695 J-0.2420 F300
G01 Z-2.0000 F30
G02 X46.3057 Y158.7186 I0.2752 J0.9606 F300
G02 X47.9695 Y158.2420 I0.6943 J-0.7186 F300
G02 X46.7248 Y157.0394 I-0.9695 J-0.2420 F300
G01 Z-3.0000 F30
G02 X46.3057 Y158.7186 I0.2752 J0.9606 F300
G02 X47.9695 Y158.2420 I0.6943 J-0.7186 F300
G02 X46.7248 Y157.0394 I-0.9695 J-0.2420 F300
G01 Z-4.0000 F30
G02 X46.3057 Y158.7186 I0.2752 J0.9606 F300
G02 X47.9695 Y158.2420 I0.6943 J-0.7186 F300
G02 X46.7248 Y157.0394 I-0.9695 J-0.2420 F300
G00 Z2.0000 F480


;No. 11: Hole 17
G00 X34.2571 Y143.8891 Z2.0000 F2100
G00 Z0.5000 F480
G01 Z-1.0000 F30
G02 X34.0127 Y144.7185 I0.1172 J0.4852 F300
G02 X34.8532 Y144.5155 I0.3616 J-0.3441 F300
G02 X34.2571 Y143.8891 I-0.4788 J-0.1411 F300
G01 Z-2.0000 F30
G02 X34.0127 Y144.7185 I0.1172 J0.4852 F300
G02 X34.8532 Y144.5155 I0.3616 J-0.3441 F300
G02 X34.2571 Y143.8891 I-0.4788 J-0.1411 F300
G01 Z-3.0000 F30
G02 X34.0127 Y144.7185 I0.1172 J0.4852 F300
G02 X34.8532 Y144.5155 I0.3616 J-0.3441 F300
G02 X34.2571 Y143.8891 I-0.4788 J-0.1411 F300
G01 Z-4.0000 F30
G02 X34.0127 Y144.7185 I0.1172 J0.4852 F300
G02 X34.8532 Y144.5155 I0.3616 J-0.3441 F300
G02 X34.2571 Y143.8891 I-0.4788 J-0.1411 F300
G00 Z2.0000 F480


;No. 12: Hole 16
G00 X9.5857 Y143.8768 Z2.0000 F2100
G00 Z0.5000 F480
G01 Z-1.0000 F30
G02 X9.2146 Y144.6577 I0.0399 J0.4976 F300
G02 X10.0765 Y144.5886 I0.4110 J-0.2833 F300
G02 X9.5857 Y143.8768 I-0.4509 J-0.2143 F300
G01 Z-2.0000 F30
G02 X9.2146 Y144.6577 I0.0399 J0.4976 F300
G02 X10.0765 Y144.5886 I0.4110 J-0.2833 F300
G02 X9.5857 Y143.8768 I-0.4509 J-0.2143 F300
G01 Z-3.0000 F30
G02 X9.2146 Y144.6577 I0.0399 J0.4976 F300
G02 X10.0765 Y144.5886 I0.4110 J-0.2833 F300
G02 X9.5857 Y143.8768 I-0.4509 J-0.2143 F300
G01 Z-4.0000 F30
G02 X9.2146 Y144.6577 I0.0399 J0.4976 F300
G02 X10.0765 Y144.5886 I0.4110 J-0.2833 F300
G02 X9.5857 Y143.8768 I-0.4509 J-0.2143 F300
G00 Z2.0000 F480


;No. 13: Hole 19
G00 X9.5857 Y119.1280 Z2.0000 F2100
G00 Z0.5000 F480
G01 Z-1.0000 F30
G02 X9.2146 Y119.9090 I0.0399 J0.4976 F300
G02 X10.0765 Y119.8399 I0.4110 J-0.2833 F300
G02 X9.5857 Y119.1280 I-0.4509 J-0.2143 F300
G01 Z-2.0000 F30
G02 X9.2146 Y119.9090 I0.0399 J0.4976 F300
G02 X10.0765 Y119.8399 I0.4110 J-0.2833 F300
G02 X9.5857 Y119.1280 I-0.4509 J-0.2143 F300
G01 Z-3.0000 F30
G02 X9.2146 Y119.9090 I0.0399 J0.4976 F300
G02 X10.0765 Y119.8399 I0.4110 J-0.2833 F300
G02 X9.5857 Y119.1280 I-0.4509 J-0.2143 F300
G01 Z-4.0000 F30
G02 X9.2146 Y119.9090 I0.0399 J0.4976 F300
G02 X10.0765 Y119.8399 I0.4110 J-0.2833 F300
G02 X9.5857 Y119.1280 I-0.4509 J-0.2143 F300
G00 Z2.0000 F480


;No. 14: Hole 8
G00 X20.0055 Y119.4073 Z2.0000 F2100
G00 Z0.5000 F480
G01 Z-1.0000 F30
G02 X12.0916 Y140.0236 I1.9945 J12.5927 F300
G02 X33.9028 Y136.5691 I9.9083 J-8.0236 F300
G02 X20.0055 Y119.4073 I-11.9028 J-4.5691 F300
G01 Z-2.0000 F30
G02 X12.0916 Y140.0236 I1.9945 J12.5927 F300
G02 X33.9028 Y136.5691 I9.9083 J-8.0236 F300
G02 X20.0055 Y119.4073 I-11.9028 J-4.5691 F300
G01 Z-3.0000 F30
G02 X12.0916 Y140.0236 I1.9945 J12.5927 F300
G02 X33.9028 Y136.5691 I9.9083 J-8.0236 F300
G02 X20.0055 Y119.4073 I-11.9028 J-4.5691 F300
G01 Z-4.0000 F30
G02 X12.0916 Y140.0236 I1.9945 J12.5927 F300
G02 X33.9028 Y136.5691 I9.9083 J-8.0236 F300
G02 X20.0055 Y119.4073 I-11.9028 J-4.5691 F300
G00 Z2.0000 F480


;No. 15: Hole 18
G00 X34.2194 Y119.1511 Z2.0000 F2100
G00 Z0.5000 F480
G01 Z-1.0000 F30
G02 X34.0408 Y119.9971 I0.1549 J0.4745 F300
G02 X34.8628 Y119.7287 I0.3335 J-0.3715 F300
G02 X34.2194 Y119.1511 I-0.4884 J-0.1031 F300
G01 Z-2.0000 F30
G02 X34.0408 Y119.9971 I0.1549 J0.4745 F300
G02 X34.8628 Y119.7287 I0.3335 J-0.3715 F300
G02 X34.2194 Y119.1511 I-0.4884 J-0.1031 F300
G01 Z-3.0000 F30
G02 X34.0408 Y119.9971 I0.1549 J0.4745 F300
G02 X34.8628 Y119.7287 I0.3335 J-0.3715 F300
G02 X34.2194 Y119.1511 I-0.4884 J-0.1031 F300
G01 Z-4.0000 F30
G02 X34.0408 Y119.9971 I0.1549 J0.4745 F300
G02 X34.8628 Y119.7287 I0.3335 J-0.3715 F300
G02 X34.2194 Y119.1511 I-0.4884 J-0.1031 F300
G00 Z2.0000 F480


;No. 16: Hole 20
G00 X46.7273 Y97.4664 Z2.0000 F2100
G00 Z0.5000 F480
G01 Z-1.0000 F30
G02 X46.6742 Y98.5029 I0.2727 J0.5336 F300
G02 X47.5984 Y98.0307 I0.3258 J-0.5029 F300
G02 X46.7273 Y97.4664 I-0.5984 J-0.0307 F300
G01 Z-2.0000 F30
G02 X46.6742 Y98.5029 I0.2727 J0.5336 F300
G02 X47.5984 Y98.0307 I0.3258 J-0.5029 F300
G02 X46.7273 Y97.4664 I-0.5984 J-0.0307 F300
G01 Z-3.0000 F30
G02 X46.6742 Y98.5029 I0.2727 J0.5336 F300
G02 X47.5984 Y98.0307 I0.3258 J-0.5029 F300
G02 X46.7273 Y97.4664 I-0.5984 J-0.0307 F300
G01 Z-4.0000 F30
G02 X46.6742 Y98.5029 I0.2727 J0.5336 F300
G02 X47.5984 Y98.0307 I0.3258 J-0.5029 F300
G02 X46.7273 Y97.4664 I-0.5984 J-0.0307 F300
G00 Z2.0000 F480


;No. 17: Hole 21
G00 X58.2385 Y94.0747 Z2.0000 F2100
G00 Z0.5000 F480
G01 Z-1.0000 F30
G02 X58.0022 Y94.4615 I0.2614 J0.4253 F300
G01 X58.0000 Y94.5200 F300
G01 Y101.2371 F300
G01 X58.0024 Y101.2963 F300
G02 X58.5200 Y101.7564 I0.4997 J-0.0410 F300
G01 X59.4807 F300
G02 X60.0000 Y101.2364 I0.0167 J-0.5026 F300
G01 Y94.5193 F300
G02 X59.4800 Y94.0000 I-0.5026 J-0.0167 F300
G01 X58.5192 F300
G02 X58.2385 Y94.0747 I-0.0144 J0.5105 F300
G01 Z-2.0000 F30
G02 X58.0022 Y94.4615 I0.2614 J0.4253 F300
G01 X58.0000 Y94.5200 F300
G01 Y101.2371 F300
G01 X58.0024 Y101.2963 F300
G02 X58.5200 Y101.7564 I0.4997 J-0.0410 F300
G01 X59.4807 F300
G02 X60.0000 Y101.2364 I0.0167 J-0.5026 F300
G01 Y94.5193 F300
G02 X59.4800 Y94.0000 I-0.5026 J-0.0167 F300
G01 X58.5192 F300
G02 X58.2385 Y94.0747 I-0.0144 J0.5105 F300
G01 Z-3.0000 F30
G02 X58.0022 Y94.4615 I0.2614 J0.4253 F300
G01 X58.0000 Y94.5200 F300
G01 Y101.2371 F300
G01 X58.0024 Y101.2963 F300
G02 X58.5200 Y101.7564 I0.4997 J-0.0410 F300
G01 X59.4807 F300
G02 X60.0000 Y101.2364 I0.0167 J-0.5026 F300
G01 Y94.5193 F300
G02 X59.4800 Y94.0000 I-0.5026 J-0.0167 F300
G01 X58.5192 F300
G02 X58.2385 Y94.0747 I-0.0144 J0.5105 F300
G01 Z-4.0000 F30
G02 X58.0022 Y94.4615 I0.2614 J0.4253 F300
G01 X58.0000 Y94.5200 F300
G01 Y101.2371 F300
G01 X58.0024 Y101.2963 F300
G02 X58.5200 Y101.7564 I0.4997 J-0.0410 F300
G01 X59.4807 F300
G02 X60.0000 Y101.2364 I0.0167 J-0.5026 F300
G01 Y94.5193 F300
G02 X59.4800 Y94.0000 I-0.5026 J-0.0167 F300
G01 X58.5192 F300
G02 X58.2385 Y94.0747 I-0.0144 J0.5105 F300
G00 Z2.0000 F480


;No. 18: Hole 22
G00 X70.6472 Y97.5157 Z2.0000 F2100
G00 Z0.5000 F480
G01 Z-1.0000 F30
G02 X70.7569 Y98.5477 I0.3528 J0.4843 F300
G02 X71.5958 Y97.9367 I0.2431 J-0.5477 F300
G02 X70.6472 Y97.5157 I-0.5958 J0.0633 F300
G01 Z-2.0000 F30
G02 X70.7569 Y98.5477 I0.3528 J0.4843 F300
G02 X71.5958 Y97.9367 I0.2431 J-0.5477 F300
G02 X70.6472 Y97.5157 I-0.5958 J0.0633 F300
G01 Z-3.0000 F30
G02 X70.7569 Y98.5477 I0.3528 J0.4843 F300
G02 X71.5958 Y97.9367 I0.2431 J-0.5477 F300
G02 X70.6472 Y97.5157 I-0.5958 J0.0633 F300
G01 Z-4.0000 F30
G02 X70.7569 Y98.5477 I0.3528 J0.4843 F300
G02 X71.5958 Y97.9367 I0.2431 J-0.5477 F300
G02 X70.6472 Y97.5157 I-0.5958 J0.0633 F300
G00 Z2.0000 F480


;No. 19: Hole 11
G00 X108.0803 Y143.9709 Z2.0000 F2100
G00 Z0.5000 F480
G01 Z-1.0000 F30
G02 X108.1719 Y144.8307 I0.2940 J0.4034 F300
G02 X108.8707 Y144.3215 I0.2024 J-0.4563 F300
G02 X108.0803 Y143.9709 I-0.4964 J0.0529 F300
G01 Z-2.0000 F30
G02 X108.1719 Y144.8307 I0.2940 J0.4034 F300
G02 X108.8707 Y144.3215 I0.2024 J-0.4563 F300
G02 X108.0803 Y143.9709 I-0.4964 J0.0529 F300
G01 Z-3.0000 F30
G02 X108.1719 Y144.8307 I0.2940 J0.4034 F300
G02 X108.8707 Y144.3215 I0.2024 J-0.4563 F300
G02 X108.0803 Y143.9709 I-0.4964 J0.0529 F300
G01 Z-4.0000 F30
G02 X108.1719 Y144.8307 I0.2940 J0.4034 F300
G02 X108.8707 Y144.3215 I0.2024 J-0.4563 F300
G02 X108.0803 Y143.9709 I-0.4964 J0.0529 F300
G00 Z2.0000 F480


;No. 20: Part 1
G00 X20.9999 Y69.5609 Z2.0000 F2100
G00 Z0.5000 F480
G01 Z-1.0000 F30
G01 X21.0000 Y10.0000 F300
G01 X21.0161 Y9.4112 F300
G01 X21.0209 Y9.3353 F300
G01 X21.0664 Y8.7963 F300
G01 X21.0755 Y8.7208 F300
G01 X21.1511 Y8.1851 F300
G01 X21.1644 Y8.1102 F300
G01 X21.2699 Y7.5797 F300
G01 X21.2874 Y7.5056 F300
G01 X21.4225 Y6.9819 F300
G01 X21.4441 Y6.9089 F300
G01 X21.6084 Y6.3935 F300
G01 X21.6340 Y6.3219 F300
G01 X21.8269 Y5.8165 F300
G01 X21.8566 Y5.7465 F300
G01 X22.0775 Y5.2527 F300
G01 X22.1110 Y5.1844 F300
G01 X22.3593 Y4.7038 F300
G01 X22.3966 Y4.6375 F300
G01 X22.6714 Y4.1716 F300
G01 X22.7124 Y4.1075 F300
G01 X23.0129 Y3.6577 F300
G01 X23.0574 Y3.5960 F300
G01 X23.3826 Y3.1638 F300
G01 X23.4305 Y3.1046 F300
G01 X23.7795 Y2.6914 F300
G01 X23.8306 Y2.6350 F300
G01 X24.2022 Y2.2419 F300
G01 X24.2564 Y2.1885 F300
G01 X24.6495 Y1.8169 F300
G01 X24.7066 Y1.7666 F300
G01 X25.1199 Y1.4176 F300
G01 X25.1797 Y1.3706 F300
G01 X25.6119 Y1.0454 F300
G01 X25.6743 Y1.0018 F300
G01 X26.1241 Y0.7013 F300
G01 X26.1888 Y0.6613 F300
G01 X26.6547 Y0.3865 F300
G01 X26.7216 Y0.3501 F300
G01 X27.2021 Y0.1019 F300
G01 X27.2709 Y0.0694 F300
G01 X27.7647 Y-0.1516 F300
G01 X27.8352 Y-0.1802 F300
G01 X28.3406 Y-0.3731 F300
G01 X28.4126 Y-0.3977 F300
G01 X28.9279 Y-0.5619 F300
G01 X29.0012 Y-0.5825 F300
G01 X29.5250 Y-0.7176 F300
G01 X29.5993 Y-0.7340 F300
G01 X30.1298 Y-0.8395 F300
G01 X30.2049 Y-0.8517 F300
G01 X30.7405 Y-0.9273 F300
G01 X30.8162 Y-0.9353 F300
G01 X31.3552 Y-0.9807 F300
G01 X31.4312 Y-0.9844 F300
G01 X32.0200 Y-1.0000 F300
G01 X123.0000 F300
G01 X123.5887 Y-0.9839 F300
G01 X123.6646 Y-0.9790 F300
G01 X124.2037 Y-0.9336 F300
G01 X124.2792 Y-0.9245 F300
G01 X124.8148 Y-0.8489 F300
G01 X124.8897 Y-0.8356 F300
G01 X125.4203 Y-0.7301 F300
G01 X125.4943 Y-0.7126 F300
G01 X126.0181 Y-0.5775 F300
G01 X126.0911 Y-0.5559 F300
G01 X126.6064 Y-0.3916 F300
G01 X126.6781 Y-0.3659 F300
G01 X127.1834 Y-0.1730 F300
G01 X127.2535 Y-0.1434 F300
G01 X127.7472 Y0.0775 F300
G01 X127.8156 Y0.1110 F300
G01 X128.2961 Y0.3593 F300
G01 X128.3625 Y0.3966 F300
G01 X128.8284 Y0.6714 F300
G01 X128.8925 Y0.7124 F300
G01 X129.3422 Y1.0129 F300
G01 X129.4040 Y1.0574 F300
G01 X129.8362 Y1.3827 F300
G01 X129.8953 Y1.4306 F300
G01 X130.3086 Y1.7795 F300
G01 X130.3650 Y1.8307 F300
G01 X130.7580 Y2.2023 F300
G01 X130.8114 Y2.2565 F300
G01 X131.1830 Y2.6495 F300
G01 X131.2333 Y2.7066 F300
G01 X131.5823 Y3.1199 F300
G01 X131.6293 Y3.1798 F300
G01 X131.9546 Y3.6120 F300
G01 X131.9982 Y3.6743 F300
G01 X132.2987 Y4.1241 F300
G01 X132.3387 Y4.1888 F300
G01 X132.6135 Y4.6547 F300
G01 X132.6498 Y4.7216 F300
G01 X132.8981 Y5.2022 F300
G01 X132.9306 Y5.2710 F300
G01 X133.1515 Y5.7647 F300
G01 X133.1801 Y5.8352 F300
G01 X133.3730 Y6.3406 F300
G01 X133.3976 Y6.4126 F300
G01 X133.5619 Y6.9280 F300
G01 X133.5824 Y7.0012 F300
G01 X133.7175 Y7.5250 F300
G01 X133.7339 Y7.5993 F300
G01 X133.8395 Y8.1298 F300
G01 X133.8517 Y8.2050 F300
G01 X133.9273 Y8.7406 F300
G01 X133.9352 Y8.8162 F300
G01 X133.9807 Y9.3552 F300
G01 X133.9844 Y9.4312 F300
G01 X134.0000 Y10.0200 F300
G01 Y68.5067 F300
G00 Z0.0000 F480
G01 Y71.5067 F300
G01 Z-1.0000 F30
G01 Y100.0000 F300
G01 X133.9815 Y100.6299 F300
G01 X133.9761 Y100.7097 F300
G01 X133.9239 Y101.2876 F300
G01 X133.9138 Y101.3669 F300
G01 X133.8270 Y101.9406 F300
G01 X133.8121 Y102.0192 F300
G01 X133.6911 Y102.5866 F300
G01 X133.6715 Y102.6642 F300
G01 X133.5167 Y103.2233 F300
G01 X133.4924 Y103.2996 F300
G01 X133.3044 Y103.8484 F300
G01 X133.2756 Y103.9231 F300
G01 X133.0549 Y104.4597 F300
G01 X133.0218 Y104.5325 F300
G01 X132.7693 Y105.0548 F300
G01 X132.7318 Y105.1255 F300
G01 X132.4485 Y105.6318 F300
G01 X132.4068 Y105.7001 F300
G01 X132.0936 Y106.1885 F300
G01 X132.0479 Y106.2542 F300
G01 X131.7060 Y106.7229 F300
G01 X131.6564 Y106.7857 F300
G01 X131.2870 Y107.2330 F300
G01 X131.2337 Y107.2928 F300
G01 X130.8381 Y107.7171 F300
G01 X130.7814 Y107.7736 F300
G01 X130.3611 Y108.1735 F300
G01 X130.3011 Y108.2264 F300
G01 X129.8575 Y108.6003 F300
G01 X129.7944 Y108.6496 F300
G01 X129.3292 Y108.9962 F300
G01 X129.2633 Y109.0416 F300
G01 X128.7781 Y109.3597 F300
G01 X128.7096 Y109.4010 F300
G01 X128.2062 Y109.6895 F300
G01 X128.1353 Y109.7266 F300
G01 X127.6155 Y109.9844 F300
G01 X127.5426 Y110.0172 F300
G01 X127.0083 Y110.2433 F300
G01 X126.9334 Y110.2717 F300
G01 X126.3865 Y110.4653 F300
G01 X126.3102 Y110.4891 F300
G01 X125.7526 Y110.6496 F300
G01 X125.6749 Y110.6688 F300
G01 X125.1088 Y110.7955 F300
G01 X125.0301 Y110.8101 F300
G02 X121.9572 Y111.5996 I0.9274 J9.9848 F300
G02 X116.5967 Y119.7375 I3.6385 J8.2313 F300
G01 X116.6060 Y120.2522 F300
G02 X117.2810 Y123.2763 I9.0260 J-0.4273 F300
G01 X117.6067 Y124.1170 F300
G01 X117.9128 Y125.0129 F300
G01 X117.9309 Y125.0713 F300
G03 X103.0897 Y153.8800 I-21.9309 J6.9292 F300
G01 X72.8544 Y163.7062 F300
G01 X72.4389 Y163.8242 F300
G01 X72.3429 Y163.8465 F300
G01 X71.9774 Y163.9192 F300
G01 X71.8800 Y163.9338 F300
G01 X71.5099 Y163.9776 F300
G01 X71.4116 Y163.9846 F300
G01 X71.0392 Y163.9992 F300
G01 X61.0200 Y164.0000 F300
G03 X60.0025 Y163.0707 I-0.0197 J-1.0001 F300
G01 X60.0000 Y162.9800 F300
G01 Y154.7636 F300
G02 X59.4807 Y154.2436 I-0.5026 J-0.0174 F300
G01 X58.5200 F300
G02 X58.0024 Y154.7037 I-0.0180 J0.5009 F300
G01 X58.0000 Y154.7629 F300
G01 Y163.0000 F300
G03 X56.9800 Y164.0000 I-1.0003 J-0.0001 F300
G01 X47.0000 F300
G01 X46.5683 Y163.9838 F300
G01 X46.4702 Y163.9753 F300
G01 X46.1001 Y163.9315 F300
G01 X46.0029 Y163.9153 F300
G01 X45.6374 Y163.8426 F300
G01 X45.5418 Y163.8188 F300
G01 X45.1831 Y163.7176 F300
G01 X45.1265 Y163.7000 F300
G01 X14.8912 Y153.8738 F300
G03 X12.2286 Y152.8209 I7.1253 J-21.9110 F300
G01 X12.1728 Y152.7942 F300
G03 X-0.9997 Y132.0623 I9.8259 J-20.7939 F300
G01 X-0.9822 Y131.1006 F300
G01 X-0.9793 Y131.0388 F300
G03 X14.7878 Y110.1604 I22.9783 J0.9601 F300
G02 X20.9998 Y101.5913 I-2.7918 J-8.5601 F300
G01 X20.9999 Y72.5609 F300
G00 Z0.0000 F480
G01 Y69.5609 F300
G00 Z-0.5000 F480
G01 Z-2.0000 F30
G01 X21.0000 Y10.0000 F300
G01 X21.0161 Y9.4112 F300
G01 X21.0209 Y9.3353 F300
G01 X21.0664 Y8.7963 F300
G01 X21.0755 Y8.7208 F300
G01 X21.1511 Y8.1851 F300
G01 X21.1644 Y8.1102 F300
G01 X21.2699 Y7.5797 F300
G01 X21.2874 Y7.5056 F300
G01 X21.4225 Y6.9819 F300
G01 X21.4441 Y6.9089 F300
G01 X21.6084 Y6.3935 F300
G01 X21.6340 Y6.3219 F300
G01 X21.8269 Y5.8165 F300
G01 X21.8566 Y5.7465 F300
G01 X22.0775 Y5.2527 F300
G01 X22.1110 Y5.1844 F300
G01 X22.3593 Y4.7038 F300
G01 X22.3966 Y4.6375 F300
G01 X22.6714 Y4.1716 F300
G01 X22.7124 Y4.1075 F300
G01 X23.0129 Y3.6577 F300
G01 X23.0574 Y3.5960 F300
G01 X23.3826 Y3.1638 F300
G01 X23.4305 Y3.1046 F300
G01 X23.7795 Y2.6914 F300
G01 X23.8306 Y2.6350 F300
G01 X24.2022 Y2.2419 F300
G01 X24.2564 Y2.1885 F300
G01 X24.6495 Y1.8169 F300
G01 X24.7066 Y1.7666 F300
G01 X25.1199 Y1.4176 F300
G01 X25.1797 Y1.3706 F300
G01 X25.6119 Y1.0454 F300
G01 X25.6743 Y1.0018 F300
G01 X26.1241 Y0.7013 F300
G01 X26.1888 Y0.6613 F300
G01 X26.6547 Y0.3865 F300
G01 X26.7216 Y0.3501 F300
G01 X27.2021 Y0.1019 F300
G01 X27.2709 Y0.0694 F300
G01 X27.7647 Y-0.1516 F300
G01 X27.8352 Y-0.1802 F300
G01 X28.3406 Y-0.3731 F300
G01 X28.4126 Y-0.3977 F300
G01 X28.9279 Y-0.5619 F300
G01 X29.0012 Y-0.5825 F300
G01 X29.5250 Y-0.7176 F300
G01 X29.5993 Y-0.7340 F300
G01 X30.1298 Y-0.8395 F300
G01 X30.2049 Y-0.8517 F300
G01 X30.7405 Y-0.9273 F300
G01 X30.8162 Y-0.9353 F300
G01 X31.3552 Y-0.9807 F300
G01 X31.4312 Y-0.9844 F300
G01 X32.0200 Y-1.0000 F300
G01 X123.0000 F300
G01 X123.5887 Y-0.9839 F300
G01 X123.6646 Y-0.9790 F300
G01 X124.2037 Y-0.9336 F300
G01 X124.2792 Y-0.9245 F300
G01 X124.8148 Y-0.8489 F300
G01 X124.8897 Y-0.8356 F300
G01 X125.4203 Y-0.7301 F300
G01 X125.4943 Y-0.7126 F300
G01 X126.0181 Y-0.5775 F300
G01 X126.0911 Y-0.5559 F300
G01 X126.6064 Y-0.3916 F300
G01 X126.6781 Y-0.3659 F300
G01 X127.1834 Y-0.1730 F300
G01 X127.2535 Y-0.1434 F300
G01 X127.7472 Y0.0775 F300
G01 X127.8156 Y0.1110 F300
G01 X128.2961 Y0.3593 F300
G01 X128.3625 Y0.3966 F300
G01 X128.8284 Y0.6714 F300
G01 X128.8925 Y0.7124 F300
G01 X129.3422 Y1.0129 F300
G01 X129.4040 Y1.0574 F300
G01 X129.8362 Y1.3827 F300
G01 X129.8953 Y1.4306 F300
G01 X130.3086 Y1.7795 F300
G01 X130.3650 Y1.8307 F300
G01 X130.7580 Y2.2023 F300
G01 X130.8114 Y2.2565 F300
G01 X131.1830 Y2.6495 F300
G01 X131.2333 Y2.7066 F300
G01 X131.5823 Y3.1199 F300
G01 X131.6293 Y3.1798 F300
G01 X131.9546 Y3.6120 F300
G01 X131.9982 Y3.6743 F300
G01 X132.2987 Y4.1241 F300
G01 X132.3387 Y4.1888 F300
G01 X132.6135 Y4.6547 F300
G01 X132.6498 Y4.7216 F300
G01 X132.8981 Y5.2022 F300
G01 X132.9306 Y5.2710 F300
G01 X133.1515 Y5.7647 F300
G01 X133.1801 Y5.8352 F300
G01 X133.3730 Y6.3406 F300
G01 X133.3976 Y6.4126 F300
G01 X133.5619 Y6.9280 F300
G01 X133.5824 Y7.0012 F300
G01 X133.7175 Y7.5250 F300
G01 X133.7339 Y7.5993 F300
G01 X133.8395 Y8.1298 F300
G01 X133.8517 Y8.2050 F300
G01 X133.9273 Y8.7406 F300
G01 X133.9352 Y8.8162 F300
G01 X133.9807 Y9.3552 F300
G01 X133.9844 Y9.4312 F300
G01 X134.0000 Y10.0200 F300
G01 Y68.5067 F300
G00 Z0.0000 F480
G01 Y71.5067 F300
G00 Z-0.5000 F480
G01 Z-2.0000 F30
G01 Y100.0000 F300
G01 X133.9815 Y100.6299 F300
G01 X133.9761 Y100.7097 F300
G01 X133.9239 Y101.2876 F300
G01 X133.9138 Y101.3669 F300
G01 X133.8270 Y101.9406 F300
G01 X133.8121 Y102.0192 F300
G01 X133.6911 Y102.5866 F300
G01 X133.6715 Y102.6642 F300
G01 X133.5167 Y103.2233 F300
G01 X133.4924 Y103.2996 F300
G01 X133.3044 Y103.8484 F300
G01 X133.2756 Y103.9231 F300
G01 X133.0549 Y104.4597 F300
G01 X133.0218 Y104.5325 F300
G01 X132.7693 Y105.0548 F300
G01 X132.7318 Y105.1255 F300
G01 X132.4485 Y105.6318 F300
G01 X132.4068 Y105.7001 F300
G01 X132.0936 Y106.1885 F300
G01 X132.0479 Y106.2542 F300
G01 X131.7060 Y106.7229 F300
G01 X131.6564 Y106.7857 F300
G01 X131.2870 Y107.2330 F300
G01 X131.2337 Y107.2928 F300
G01 X130.8381 Y107.7171 F300
G01 X130.7814 Y107.7736 F300
G01 X130.3611 Y108.1735 F300
G01 X130.3011 Y108.2264 F300
G01 X129.8575 Y108.6003 F300
G01 X129.7944 Y108.6496 F300
G01 X129.3292 Y108.9962 F300
G01 X129.2633 Y109.0416 F300
G01 X128.7781 Y109.3597 F300
G01 X128.7096 Y109.4010 F300
G01 X128.2062 Y109.6895 F300
G01 X128.1353 Y109.7266 F300
G01 X127.6155 Y109.9844 F300
G01 X127.5426 Y110.0172 F300
G01 X127.0083 Y110.2433 F300
G01 X126.9334 Y110.2717 F300
G01 X126.3865 Y110.4653 F300
G01 X126.3102 Y110.4891 F300
G01 X125.7526 Y110.6496 F300
G01 X125.6749 Y110.6688 F300
G01 X125.1088 Y110.7955 F300
G01 X125.0301 Y110.8101 F300
G02 X121.9572 Y111.5996 I0.9274 J9.9848 F300
G02 X116.5967 Y119.7375 I3.6385 J8.2313 F300
G01 X116.6060 Y120.2522 F300
G02 X117.2810 Y123.2763 I9.0260 J-0.4273 F300
G01 X117.6067 Y124.1170 F300
G01 X117.9128 Y125.0129 F300
G01 X117.9309 Y125.0713 F300
G03 X103.0897 Y153.8800 I-21.9309 J6.9292 F300
G01 X72.8544 Y163.7062 F300
G01 X72.4389 Y163.8242 F300
G01 X72.3429 Y163.8465 F300
G01 X71.9774 Y163.9192 F300
G01 X71.8800 Y163.9338 F300
G01 X71.5099 Y163.9776 F300
G01 X71.4116 Y163.9846 F300
G01 X71.0392 Y163.9992 F300
G01 X61.0200 Y164.0000 F300
G03 X60.0025 Y163.0707 I-0.0197 J-1.0001 F300
G01 X60.0000 Y162.9800 F300
G01 Y154.7636 F300
G02 X59.4807 Y154.2436 I-0.5026 J-0.0174 F300
G01 X58.5200 F300
G02 X58.0024 Y154.7037 I-0.0180 J0.5009 F300
G01 X58.0000 Y154.7629 F300
G01 Y163.0000 F300
G03 X56.9800 Y164.0000 I-1.0003 J-0.0001 F300
G01 X47.0000 F300
G01 X46.5683 Y163.9838 F300
G01 X46.4702 Y163.9753 F300
G01 X46.1001 Y163.9315 F300
G01 X46.0029 Y163.9153 F300
G01 X45.6374 Y163.8426 F300
G01 X45.5418 Y163.8188 F300
G01 X45.1831 Y163.7176 F300
G01 X45.1265 Y163.7000 F300
G01 X14.8912 Y153.8738 F300
G03 X12.2286 Y152.8209 I7.1253 J-21.9110 F300
G01 X12.1728 Y152.7942 F300
G03 X-0.9997 Y132.0623 I9.8259 J-20.7939 F300
G01 X-0.9822 Y131.1006 F300
G01 X-0.9793 Y131.0388 F300
G03 X14.7878 Y110.1604 I22.9783 J0.9601 F300
G02 X20.9998 Y101.5913 I-2.7918 J-8.5601 F300
G01 X20.9999 Y72.5609 F300
G00 Z0.0000 F480
G01 Y69.5609 F300
G00 Z-1.5000 F480
G01 Z-3.0000 F30
G01 X21.0000 Y10.0000 F300
G01 X21.0161 Y9.4112 F300
G01 X21.0209 Y9.3353 F300
G01 X21.0664 Y8.7963 F300
G01 X21.0755 Y8.7208 F300
G01 X21.1511 Y8.1851 F300
G01 X21.1644 Y8.1102 F300
G01 X21.2699 Y7.5797 F300
G01 X21.2874 Y7.5056 F300
G01 X21.4225 Y6.9819 F300
G01 X21.4441 Y6.9089 F300
G01 X21.6084 Y6.3935 F300
G01 X21.6340 Y6.3219 F300
G01 X21.8269 Y5.8165 F300
G01 X21.8566 Y5.7465 F300
G01 X22.0775 Y5.2527 F300
G01 X22.1110 Y5.1844 F300
G01 X22.3593 Y4.7038 F300
G01 X22.3966 Y4.6375 F300
G01 X22.6714 Y4.1716 F300
G01 X22.7124 Y4.1075 F300
G01 X23.0129 Y3.6577 F300
G01 X23.0574 Y3.5960 F300
G01 X23.3826 Y3.1638 F300
G01 X23.4305 Y3.1046 F300
G01 X23.7795 Y2.6914 F300
G01 X23.8306 Y2.6350 F300
G01 X24.2022 Y2.2419 F300
G01 X24.2564 Y2.1885 F300
G01 X24.6495 Y1.8169 F300
G01 X24.7066 Y1.7666 F300
G01 X25.1199 Y1.4176 F300
G01 X25.1797 Y1.3706 F300
G01 X25.6119 Y1.0454 F300
G01 X25.6743 Y1.0018 F300
G01 X26.1241 Y0.7013 F300
G01 X26.1888 Y0.6613 F300
G01 X26.6547 Y0.3865 F300
G01 X26.7216 Y0.3501 F300
G01 X27.2021 Y0.1019 F300
G01 X27.2709 Y0.0694 F300
G01 X27.7647 Y-0.1516 F300
G01 X27.8352 Y-0.1802 F300
G01 X28.3406 Y-0.3731 F300
G01 X28.4126 Y-0.3977 F300
G01 X28.9279 Y-0.5619 F300
G01 X29.0012 Y-0.5825 F300
G01 X29.5250 Y-0.7176 F300
G01 X29.5993 Y-0.7340 F300
G01 X30.1298 Y-0.8395 F300
G01 X30.2049 Y-0.8517 F300
G01 X30.7405 Y-0.9273 F300
G01 X30.8162 Y-0.9353 F300
G01 X31.3552 Y-0.9807 F300
G01 X31.4312 Y-0.9844 F300
G01 X32.0200 Y-1.0000 F300
G01 X123.0000 F300
G01 X123.5887 Y-0.9839 F300
G01 X123.6646 Y-0.9790 F300
G01 X124.2037 Y-0.9336 F300
G01 X124.2792 Y-0.9245 F300
G01 X124.8148 Y-0.8489 F300
G01 X124.8897 Y-0.8356 F300
G01 X125.4203 Y-0.7301 F300
G01 X125.4943 Y-0.7126 F300
G01 X126.0181 Y-0.5775 F300
G01 X126.0911 Y-0.5559 F300
G01 X126.6064 Y-0.3916 F300
G01 X126.6781 Y-0.3659 F300
G01 X127.1834 Y-0.1730 F300
G01 X127.2535 Y-0.1434 F300
G01 X127.7472 Y0.0775 F300
G01 X127.8156 Y0.1110 F300
G01 X128.2961 Y0.3593 F300
G01 X128.3625 Y0.3966 F300
G01 X128.8284 Y0.6714 F300
G01 X128.8925 Y0.7124 F300
G01 X129.3422 Y1.0129 F300
G01 X129.4040 Y1.0574 F300
G01 X129.8362 Y1.3827 F300
G01 X129.8953 Y1.4306 F300
G01 X130.3086 Y1.7795 F300
G01 X130.3650 Y1.8307 F300
G01 X130.7580 Y2.2023 F300
G01 X130.8114 Y2.2565 F300
G01 X131.1830 Y2.6495 F300
G01 X131.2333 Y2.7066 F300
G01 X131.5823 Y3.1199 F300
G01 X131.6293 Y3.1798 F300
G01 X131.9546 Y3.6120 F300
G01 X131.9982 Y3.6743 F300
G01 X132.2987 Y4.1241 F300
G01 X132.3387 Y4.1888 F300
G01 X132.6135 Y4.6547 F300
G01 X132.6498 Y4.7216 F300
G01 X132.8981 Y5.2022 F300
G01 X132.9306 Y5.2710 F300
G01 X133.1515 Y5.7647 F300
G01 X133.1801 Y5.8352 F300
G01 X133.3730 Y6.3406 F300
G01 X133.3976 Y6.4126 F300
G01 X133.5619 Y6.9280 F300
G01 X133.5824 Y7.0012 F300
G01 X133.7175 Y7.5250 F300
G01 X133.7339 Y7.5993 F300
G01 X133.8395 Y8.1298 F300
G01 X133.8517 Y8.2050 F300
G01 X133.9273 Y8.7406 F300
G01 X133.9352 Y8.8162 F300
G01 X133.9807 Y9.3552 F300
G01 X133.9844 Y9.4312 F300
G01 X134.0000 Y10.0200 F300
G01 Y68.5067 F300
G00 Z0.0000 F480
G01 Y71.5067 F300
G00 Z-1.5000 F480
G01 Z-3.0000 F30
G01 Y100.0000 F300
G01 X133.9815 Y100.6299 F300
G01 X133.9761 Y100.7097 F300
G01 X133.9239 Y101.2876 F300
G01 X133.9138 Y101.3669 F300
G01 X133.8270 Y101.9406 F300
G01 X133.8121 Y102.0192 F300
G01 X133.6911 Y102.5866 F300
G01 X133.6715 Y102.6642 F300
G01 X133.5167 Y103.2233 F300
G01 X133.4924 Y103.2996 F300
G01 X133.3044 Y103.8484 F300
G01 X133.2756 Y103.9231 F300
G01 X133.0549 Y104.4597 F300
G01 X133.0218 Y104.5325 F300
G01 X132.7693 Y105.0548 F300
G01 X132.7318 Y105.1255 F300
G01 X132.4485 Y105.6318 F300
G01 X132.4068 Y105.7001 F300
G01 X132.0936 Y106.1885 F300
G01 X132.0479 Y106.2542 F300
G01 X131.7060 Y106.7229 F300
G01 X131.6564 Y106.7857 F300
G01 X131.2870 Y107.2330 F300
G01 X131.2337 Y107.2928 F300
G01 X130.8381 Y107.7171 F300
G01 X130.7814 Y107.7736 F300
G01 X130.3611 Y108.1735 F300
G01 X130.3011 Y108.2264 F300
G01 X129.8575 Y108.6003 F300
G01 X129.7944 Y108.6496 F300
G01 X129.3292 Y108.9962 F300
G01 X129.2633 Y109.0416 F300
G01 X128.7781 Y109.3597 F300
G01 X128.7096 Y109.4010 F300
G01 X128.2062 Y109.6895 F300
G01 X128.1353 Y109.7266 F300
G01 X127.6155 Y109.9844 F300
G01 X127.5426 Y110.0172 F300
G01 X127.0083 Y110.2433 F300
G01 X126.9334 Y110.2717 F300
G01 X126.3865 Y110.4653 F300
G01 X126.3102 Y110.4891 F300
G01 X125.7526 Y110.6496 F300
G01 X125.6749 Y110.6688 F300
G01 X125.1088 Y110.7955 F300
G01 X125.0301 Y110.8101 F300
G02 X121.9572 Y111.5996 I0.9274 J9.9848 F300
G02 X116.5967 Y119.7375 I3.6385 J8.2313 F300
G01 X116.6060 Y120.2522 F300
G02 X117.2810 Y123.2763 I9.0260 J-0.4273 F300
G01 X117.6067 Y124.1170 F300
G01 X117.9128 Y125.0129 F300
G01 X117.9309 Y125.0713 F300
G03 X103.0897 Y153.8800 I-21.9309 J6.9292 F300
G01 X72.8544 Y163.7062 F300
G01 X72.4389 Y163.8242 F300
G01 X72.3429 Y163.8465 F300
G01 X71.9774 Y163.9192 F300
G01 X71.8800 Y163.9338 F300
G01 X71.5099 Y163.9776 F300
G01 X71.4116 Y163.9846 F300
G01 X71.0392 Y163.9992 F300
G01 X61.0200 Y164.0000 F300
G03 X60.0025 Y163.0707 I-0.0197 J-1.0001 F300
G01 X60.0000 Y162.9800 F300
G01 Y154.7636 F300
G02 X59.4807 Y154.2436 I-0.5026 J-0.0174 F300
G01 X58.5200 F300
G02 X58.0024 Y154.7037 I-0.0180 J0.5009 F300
G01 X58.0000 Y154.7629 F300
G01 Y163.0000 F300
G03 X56.9800 Y164.0000 I-1.0003 J-0.0001 F300
G01 X47.0000 F300
G01 X46.5683 Y163.9838 F300
G01 X46.4702 Y163.9753 F300
G01 X46.1001 Y163.9315 F300
G01 X46.0029 Y163.9153 F300
G01 X45.6374 Y163.8426 F300
G01 X45.5418 Y163.8188 F300
G01 X45.1831 Y163.7176 F300
G01 X45.1265 Y163.7000 F300
G01 X14.8912 Y153.8738 F300
G03 X12.2286 Y152.8209 I7.1253 J-21.9110 F300
G01 X12.1728 Y152.7942 F300
G03 X-0.9997 Y132.0623 I9.8259 J-20.7939 F300
G01 X-0.9822 Y131.1006 F300
G01 X-0.9793 Y131.0388 F300
G03 X14.7878 Y110.1604 I22.9783 J0.9601 F300
G02 X20.9998 Y101.5913 I-2.7918 J-8.5601 F300
G01 X20.9999 Y72.5609 F300
G00 Z0.0000 F480
G01 Y69.5609 F300
G00 Z-2.5000 F480
G01 Z-4.0000 F30
G01 X21.0000 Y10.0000 F300
G01 X21.0161 Y9.4112 F300
G01 X21.0209 Y9.3353 F300
G01 X21.0664 Y8.7963 F300
G01 X21.0755 Y8.7208 F300
G01 X21.1511 Y8.1851 F300
G01 X21.1644 Y8.1102 F300
G01 X21.2699 Y7.5797 F300
G01 X21.2874 Y7.5056 F300
G01 X21.4225 Y6.9819 F300
G01 X21.4441 Y6.9089 F300
G01 X21.6084 Y6.3935 F300
G01 X21.6340 Y6.3219 F300
G01 X21.8269 Y5.8165 F300
G01 X21.8566 Y5.7465 F300
G01 X22.0775 Y5.2527 F300
G01 X22.1110 Y5.1844 F300
G01 X22.3593 Y4.7038 F300
G01 X22.3966 Y4.6375 F300
G01 X22.6714 Y4.1716 F300
G01 X22.7124 Y4.1075 F300
G01 X23.0129 Y3.6577 F300
G01 X23.0574 Y3.5960 F300
G01 X23.3826 Y3.1638 F300
G01 X23.4305 Y3.1046 F300
G01 X23.7795 Y2.6914 F300
G01 X23.8306 Y2.6350 F300
G01 X24.2022 Y2.2419 F300
G01 X24.2564 Y2.1885 F300
G01 X24.6495 Y1.8169 F300
G01 X24.7066 Y1.7666 F300
G01 X25.1199 Y1.4176 F300
G01 X25.1797 Y1.3706 F300
G01 X25.6119 Y1.0454 F300
G01 X25.6743 Y1.0018 F300
G01 X26.1241 Y0.7013 F300
G01 X26.1888 Y0.6613 F300
G01 X26.6547 Y0.3865 F300
G01 X26.7216 Y0.3501 F300
G01 X27.2021 Y0.1019 F300
G01 X27.2709 Y0.0694 F300
G01 X27.7647 Y-0.1516 F300
G01 X27.8352 Y-0.1802 F300
G01 X28.3406 Y-0.3731 F300
G01 X28.4126 Y-0.3977 F300
G01 X28.9279 Y-0.5619 F300
G01 X29.0012 Y-0.5825 F300
G01 X29.5250 Y-0.7176 F300
G01 X29.5993 Y-0.7340 F300
G01 X30.1298 Y-0.8395 F300
G01 X30.2049 Y-0.8517 F300
G01 X30.7405 Y-0.9273 F300
G01 X30.8162 Y-0.9353 F300
G01 X31.3552 Y-0.9807 F300
G01 X31.4312 Y-0.9844 F300
G01 X32.0200 Y-1.0000 F300
G01 X123.0000 F300
G01 X123.5887 Y-0.9839 F300
G01 X123.6646 Y-0.9790 F300
G01 X124.2037 Y-0.9336 F300
G01 X124.2792 Y-0.9245 F300
G01 X124.8148 Y-0.8489 F300
G01 X124.8897 Y-0.8356 F300
G01 X125.4203 Y-0.7301 F300
G01 X125.4943 Y-0.7126 F300
G01 X126.0181 Y-0.5775 F300
G01 X126.0911 Y-0.5559 F300
G01 X126.6064 Y-0.3916 F300
G01 X126.6781 Y-0.3659 F300
G01 X127.1834 Y-0.1730 F300
G01 X127.2535 Y-0.1434 F300
G01 X127.7472 Y0.0775 F300
G01 X127.8156 Y0.1110 F300
G01 X128.2961 Y0.3593 F300
G01 X128.3625 Y0.3966 F300
G01 X128.8284 Y0.6714 F300
G01 X128.8925 Y0.7124 F300
G01 X129.3422 Y1.0129 F300
G01 X129.4040 Y1.0574 F300
G01 X129.8362 Y1.3827 F300
G01 X129.8953 Y1.4306 F300
G01 X130.3086 Y1.7795 F300
G01 X130.3650 Y1.8307 F300
G01 X130.7580 Y2.2023 F300
G01 X130.8114 Y2.2565 F300
G01 X131.1830 Y2.6495 F300
G01 X131.2333 Y2.7066 F300
G01 X131.5823 Y3.1199 F300
G01 X131.6293 Y3.1798 F300
G01 X131.9546 Y3.6120 F300
G01 X131.9982 Y3.6743 F300
G01 X132.2987 Y4.1241 F300
G01 X132.3387 Y4.1888 F300
G01 X132.6135 Y4.6547 F300
G01 X132.6498 Y4.7216 F300
G01 X132.8981 Y5.2022 F300
G01 X132.9306 Y5.2710 F300
G01 X133.1515 Y5.7647 F300
G01 X133.1801 Y5.8352 F300
G01 X133.3730 Y6.3406 F300
G01 X133.3976 Y6.4126 F300
G01 X133.5619 Y6.9280 F300
G01 X133.5824 Y7.0012 F300
G01 X133.7175 Y7.5250 F300
G01 X133.7339 Y7.5993 F300
G01 X133.8395 Y8.1298 F300
G01 X133.8517 Y8.2050 F300
G01 X133.9273 Y8.7406 F300
G01 X133.9352 Y8.8162 F300
G01 X133.9807 Y9.3552 F300
G01 X133.9844 Y9.4312 F300
G01 X134.0000 Y10.0200 F300
G01 Y68.5067 F300
G00 Z0.0000 F480
G01 Y71.5067 F300
G00 Z-2.5000 F480
G01 Z-4.0000 F30
G01 Y100.0000 F300
G01 X133.9815 Y100.6299 F300
G01 X133.9761 Y100.7097 F300
G01 X133.9239 Y101.2876 F300
G01 X133.9138 Y101.3669 F300
G01 X133.8270 Y101.9406 F300
G01 X133.8121 Y102.0192 F300
G01 X133.6911 Y102.5866 F300
G01 X133.6715 Y102.6642 F300
G01 X133.5167 Y103.2233 F300
G01 X133.4924 Y103.2996 F300
G01 X133.3044 Y103.8484 F300
G01 X133.2756 Y103.9231 F300
G01 X133.0549 Y104.4597 F300
G01 X133.0218 Y104.5325 F300
G01 X132.7693 Y105.0548 F300
G01 X132.7318 Y105.1255 F300
G01 X132.4485 Y105.6318 F300
G01 X132.4068 Y105.7001 F300
G01 X132.0936 Y106.1885 F300
G01 X132.0479 Y106.2542 F300
G01 X131.7060 Y106.7229 F300
G01 X131.6564 Y106.7857 F300
G01 X131.2870 Y107.2330 F300
G01 X131.2337 Y107.2928 F300
G01 X130.8381 Y107.7171 F300
G01 X130.7814 Y107.7736 F300
G01 X130.3611 Y108.1735 F300
G01 X130.3011 Y108.2264 F300
G01 X129.8575 Y108.6003 F300
G01 X129.7944 Y108.6496 F300
G01 X129.3292 Y108.9962 F300
G01 X129.2633 Y109.0416 F300
G01 X128.7781 Y109.3597 F300
G01 X128.7096 Y109.4010 F300
G01 X128.2062 Y109.6895 F300
G01 X128.1353 Y109.7266 F300
G01 X127.6155 Y109.9844 F300
G01 X127.5426 Y110.0172 F300
G01 X127.0083 Y110.2433 F300
G01 X126.9334 Y110.2717 F300
G01 X126.3865 Y110.4653 F300
G01 X126.3102 Y110.4891 F300
G01 X125.7526 Y110.6496 F300
G01 X125.6749 Y110.6688 F300
G01 X125.1088 Y110.7955 F300
G01 X125.0301 Y110.8101 F300
G02 X121.9572 Y111.5996 I0.9274 J9.9848 F300
G02 X116.5967 Y119.7375 I3.6385 J8.2313 F300
G01 X116.6060 Y120.2522 F300
G02 X117.2810 Y123.2763 I9.0260 J-0.4273 F300
G01 X117.6067 Y124.1170 F300
G01 X117.9128 Y125.0129 F300
G01 X117.9309 Y125.0713 F300
G03 X103.0897 Y153.8800 I-21.9309 J6.9292 F300
G01 X72.8544 Y163.7062 F300
G01 X72.4389 Y163.8242 F300
G01 X72.3429 Y163.8465 F300
G01 X71.9774 Y163.9192 F300
G01 X71.8800 Y163.9338 F300
G01 X71.5099 Y163.9776 F300
G01 X71.4116 Y163.9846 F300
G01 X71.0392 Y163.9992 F300
G01 X61.0200 Y164.0000 F300
G03 X60.0025 Y163.0707 I-0.0197 J-1.0001 F300
G01 X60.0000 Y162.9800 F300
G01 Y154.7636 F300
G02 X59.4807 Y154.2436 I-0.5026 J-0.0174 F300
G01 X58.5200 F300
G02 X58.0024 Y154.7037 I-0.0180 J0.5009 F300
G01 X58.0000 Y154.7629 F300
G01 Y163.0000 F300
G03 X56.9800 Y164.0000 I-1.0003 J-0.0001 F300
G01 X47.0000 F300
G01 X46.5683 Y163.9838 F300
G01 X46.4702 Y163.9753 F300
G01 X46.1001 Y163.9315 F300
G01 X46.0029 Y163.9153 F300
G01 X45.6374 Y163.8426 F300
G01 X45.5418 Y163.8188 F300
G01 X45.1831 Y163.7176 F300
G01 X45.1265 Y163.7000 F300
G01 X14.8912 Y153.8738 F300
G03 X12.2286 Y152.8209 I7.1253 J-21.9110 F300
G01 X12.1728 Y152.7942 F300
G03 X-0.9997 Y132.0623 I9.8259 J-20.7939 F300
G01 X-0.9822 Y131.1006 F300
G01 X-0.9793 Y131.0388 F300
G03 X14.7878 Y110.1604 I22.9783 J0.9601 F300
G02 X20.9998 Y101.5913 I-2.7918 J-8.5601 F300
G01 X20.9999 Y72.5609 F300
G00 Z0.0000 F480
G01 Y69.5609 F300
G00 Z2.0000 F480
G00 X0.0000 Y0.0000 F2100

M05
