;Project meta
;Created by Estlcam version 11 build 11.116
;Machining time about 00:21:33 hours

G90
M03 S24000
G00 X0.0000 Y0.0000 Z0.0000 F2100
G00 Z2.0000 F480


;No. 1: Hole 1
G00 X41.8193 Y45.2506 F2100
G00 Z0.5000 F480
G01 Z-1.0000 F60 S24000
G01 X34.9199 Y45.2577 F300
G01 X63.6296 Y120.3749 F300
G01 X73.1974 F300
G01 X84.6739 Y97.8236 F300
G01 X81.8539 Y90.4451 F300
G01 X72.0894 Y109.6321 F300
G03 X66.3023 Y109.3093 I-2.8213 J-1.4564 F300
G01 X41.8193 Y45.2506 F300
G01 Z-2.0000 F60
G01 X34.9199 Y45.2577 F300
G01 X63.6296 Y120.3749 F300
G01 X73.1974 F300
G01 X84.6739 Y97.8236 F300
G01 X81.8539 Y90.4451 F300
G01 X72.0894 Y109.6321 F300
G03 X66.3023 Y109.3093 I-2.8213 J-1.4564 F300
G01 X41.8193 Y45.2506 F300
G01 Z-3.0000 F60
G01 X34.9199 Y45.2577 F300
G01 X63.6296 Y120.3749 F300
G01 X73.1974 F300
G01 X84.6739 Y97.8236 F300
G01 X81.8539 Y90.4451 F300
G01 X72.0894 Y109.6321 F300
G03 X66.3023 Y109.3093 I-2.8213 J-1.4564 F300
G01 X41.8193 Y45.2506 F300
G00 Z2.0000 F480


;No. 2: Hole 2
G00 X83.6334 Y45.2506 Z2.0000 F2100
G00 Z0.5000 F480
G01 Z-1.0000 F60
G01 X76.7341 Y45.2577 F300
G01 X105.4437 Y120.3749 F300
G01 X115.0115 F300
G01 X135.4442 Y80.2247 F300
G03 X141.2139 Y80.4262 I2.8387 J1.4223 F300
G01 X149.0193 Y99.1612 F300
G01 X155.8377 F300
G01 X142.8939 Y68.0811 F300
G03 X142.6436 Y66.9348 I2.9253 J-1.2394 F300
G01 X142.6502 Y66.6175 F300
G03 X142.9876 Y65.4019 I3.1671 J0.2244 F300
G01 X153.2410 Y45.2506 F300
G01 X146.6677 F300
G01 X142.4903 Y53.4592 F300
G03 X136.7206 Y53.2577 I-2.8387 J-1.4223 F300
G01 X124.8788 Y24.8305 F300
G01 X115.2455 F300
G01 X99.6740 Y55.4284 F300
G01 X102.4941 Y62.8069 F300
G01 X116.6257 Y35.0382 F300
G03 X122.3954 Y35.2398 I2.8387 J1.4223 F300
G01 X135.0405 Y65.6029 F300
G03 X134.9469 Y68.2820 I-2.9236 J1.2390 F300
G01 X113.9035 Y109.6321 F300
G03 X108.1165 Y109.3093 I-2.8213 J-1.4564 F300
G01 X83.6334 Y45.2506 F300
G01 Z-2.0000 F60
G01 X76.7341 Y45.2577 F300
G01 X105.4437 Y120.3749 F300
G01 X115.0115 F300
G01 X135.4442 Y80.2247 F300
G03 X141.2139 Y80.4262 I2.8387 J1.4223 F300
G01 X149.0193 Y99.1612 F300
G01 X155.8377 F300
G01 X142.8939 Y68.0811 F300
G03 X142.6436 Y66.9348 I2.9253 J-1.2394 F300
G01 X142.6502 Y66.6175 F300
G03 X142.9876 Y65.4019 I3.1671 J0.2244 F300
G01 X153.2410 Y45.2506 F300
G01 X146.6677 F300
G01 X142.4903 Y53.4592 F300
G03 X136.7206 Y53.2577 I-2.8387 J-1.4223 F300
G01 X124.8788 Y24.8305 F300
G01 X115.2455 F300
G01 X99.6740 Y55.4284 F300
G01 X102.4941 Y62.8069 F300
G01 X116.6257 Y35.0382 F300
G03 X122.3954 Y35.2398 I2.8387 J1.4223 F300
G01 X135.0405 Y65.6029 F300
G03 X134.9469 Y68.2820 I-2.9236 J1.2390 F300
G01 X113.9035 Y109.6321 F300
G03 X108.1165 Y109.3093 I-2.8213 J-1.4564 F300
G01 X83.6334 Y45.2506 F300
G01 Z-3.0000 F60
G01 X76.7341 Y45.2577 F300
G01 X105.4437 Y120.3749 F300
G01 X115.0115 F300
G01 X135.4442 Y80.2247 F300
G03 X141.2139 Y80.4262 I2.8387 J1.4223 F300
G01 X149.0193 Y99.1612 F300
G01 X155.8377 F300
G01 X142.8939 Y68.0811 F300
G03 X142.6436 Y66.9348 I2.9253 J-1.2394 F300
G01 X142.6502 Y66.6175 F300
G03 X142.9876 Y65.4019 I3.1671 J0.2244 F300
G01 X153.2410 Y45.2506 F300
G01 X146.6677 F300
G01 X142.4903 Y53.4592 F300
G03 X136.7206 Y53.2577 I-2.8387 J-1.4223 F300
G01 X124.8788 Y24.8305 F300
G01 X115.2455 F300
G01 X99.6740 Y55.4284 F300
G01 X102.4941 Y62.8069 F300
G01 X116.6257 Y35.0382 F300
G03 X122.3954 Y35.2398 I2.8387 J1.4223 F300
G01 X135.0405 Y65.6029 F300
G03 X134.9469 Y68.2820 I-2.9236 J1.2390 F300
G01 X113.9035 Y109.6321 F300
G03 X108.1165 Y109.3093 I-2.8213 J-1.4564 F300
G01 X83.6334 Y45.2506 F300
G00 Z2.0000 F480


;No. 3: Part 1
G00 X-3.1750 Y70.2275 Z2.0000 F2100
G00 Z0.5000 F480
G01 Z-1.0000 F60
G01 Y3.0000 F300
G03 X3.0200 Y-3.1750 I6.1806 J0.0056 F300
G01 X197.0000 F300
G03 X203.1750 Y3.0200 I-0.0056 J6.1806 F300
G01 Y70.2475 F300
G00 Z0.0000 F480
G01 Y79.7725 F300
G01 Z-1.0000 F60
G01 Y147.0000 F300
G03 X196.9800 Y153.1750 I-6.1806 J-0.0056 F300
G01 X3.0000 F300
G03 X-3.1712 Y147.1558 I0.0033 J-6.1765 F300
G01 X-3.1750 Y146.9800 F300
G01 Y79.7525 F300
G00 Z0.0000 F480
G01 Y70.2275 F300
G00 Z-0.5000 F480
G01 Z-2.0000 F60
G01 Y3.0000 F300
G03 X3.0200 Y-3.1750 I6.1806 J0.0056 F300
G01 X197.0000 F300
G03 X203.1750 Y3.0200 I-0.0056 J6.1806 F300
G01 Y70.2475 F300
G00 Z0.0000 F480
G01 Y79.7725 F300
G00 Z-0.5000 F480
G01 Z-2.0000 F60
G01 Y147.0000 F300
G03 X196.9800 Y153.1750 I-6.1806 J-0.0056 F300
G01 X3.0000 F300
G03 X-3.1712 Y147.1558 I0.0033 J-6.1765 F300
G01 X-3.1750 Y146.9800 F300
G01 Y79.7525 F300
G00 Z0.0000 F480
G01 Y70.2275 F300
G00 Z-1.5000 F480
G01 Z-3.0000 F60
G01 Y3.0000 F300
G03 X3.0200 Y-3.1750 I6.1806 J0.0056 F300
G01 X197.0000 F300
G03 X203.1750 Y3.0200 I-0.0056 J6.1806 F300
G01 Y70.2475 F300
G00 Z0.0000 F480
G01 Y79.7725 F300
G00 Z-1.5000 F480
G01 Z-3.0000 F60
G01 Y147.0000 F300
G03 X196.9800 Y153.1750 I-6.1806 J-0.0056 F300
G01 X3.0000 F300
G03 X-3.1712 Y147.1558 I0.0033 J-6.1765 F300
G01 X-3.1750 Y146.9800 F300
G01 Y79.7525 F300
G00 Z0.0000 F480
G01 Y70.2275 F300
G00 Z2.0000 F480
G00 X0.0000 Y0.0000 F2100

M05
