;Project meta
;Created by Estlcam version 11 build 11.116
;Machining time about 00:24:38 hours

G90
M03 S24000
G00 X0.0000 Y0.0000 Z0.0000 F2100
G00 Z2.0000 F480


;No. 1: Hole 1
G00 X8.6178 Y5.1280 F2100
G00 Z0.5000 F480
G01 Z-0.5000 F6 S24000
G01 X5.8285 Y5.1350 F48
G01 X25.1964 Y55.8100 F48
G01 X30.6541 F48
G01 X38.2310 Y40.9215 F48
G01 X37.1737 Y38.1552 F48
G01 X31.3090 Y49.6794 F48
G03 X25.5219 Y49.3565 I-2.8213 J-1.4564 F48
G01 X8.6178 Y5.1280 F48
G01 Z-1.0000 F6
G01 X5.8285 Y5.1350 F48
G01 X25.1964 Y55.8100 F48
G01 X30.6541 F48
G01 X38.2310 Y40.9215 F48
G01 X37.1737 Y38.1552 F48
G01 X31.3090 Y49.6794 F48
G03 X25.5219 Y49.3565 I-2.8213 J-1.4564 F48
G01 X8.6178 Y5.1280 F48
G00 Z2.0000 F480


;No. 2: Hole 2
G00 X37.8877 Y5.1280 Z2.0000 F2100
G00 Z0.5000 F480
G01 Z-0.5000 F6
G01 X35.0984 Y5.1350 F48
G01 X54.4663 Y55.8100 F48
G01 X59.9240 F48
G01 X73.9593 Y28.2306 F48
G03 X79.7290 Y28.4322 I2.8387 J1.4223 F48
G01 X84.9495 Y40.9604 F48
G01 X87.6579 F48
G01 X79.1488 Y20.5285 F48
G03 X78.8984 Y19.3822 I2.9253 J-1.2394 F48
G01 X78.9050 Y19.0649 F48
G03 X79.2424 Y17.8493 I3.1671 J0.2244 F48
G01 X85.7147 Y5.1280 F48
G01 X83.2514 F48
G01 X80.5948 Y10.3481 F48
G03 X74.8251 Y10.1466 I-2.8387 J-1.4223 F48
G01 X66.7791 Y-9.1661 F48
G01 X61.2559 F48
G01 X50.8126 Y11.3549 F48
G01 X51.8698 Y14.1212 F48
G01 X60.7864 Y-3.3999 F48
G03 X66.5561 Y-3.1984 I2.8387 J1.4223 F48
G01 X75.4054 Y18.0503 F48
G03 X75.3117 Y20.7294 I-2.9236 J1.2390 F48
G01 X60.5788 Y49.6794 F48
G03 X54.7918 Y49.3565 I-2.8213 J-1.4564 F48
G01 X37.8877 Y5.1280 F48
G01 Z-1.0000 F6
G01 X35.0984 Y5.1350 F48
G01 X54.4663 Y55.8100 F48
G01 X59.9240 F48
G01 X73.9593 Y28.2306 F48
G03 X79.7290 Y28.4322 I2.8387 J1.4223 F48
G01 X84.9495 Y40.9604 F48
G01 X87.6579 F48
G01 X79.1488 Y20.5285 F48
G03 X78.8984 Y19.3822 I2.9253 J-1.2394 F48
G01 X78.9050 Y19.0649 F48
G03 X79.2424 Y17.8493 I3.1671 J0.2244 F48
G01 X85.7147 Y5.1280 F48
G01 X83.2514 F48
G01 X80.5948 Y10.3481 F48
G03 X74.8251 Y10.1466 I-2.8387 J-1.4223 F48
G01 X66.7791 Y-9.1661 F48
G01 X61.2559 F48
G01 X50.8126 Y11.3549 F48
G01 X51.8698 Y14.1212 F48
G01 X60.7864 Y-3.3999 F48
G03 X66.5561 Y-3.1984 I2.8387 J1.4223 F48
G01 X75.4054 Y18.0503 F48
G03 X75.3117 Y20.7294 I-2.9236 J1.2390 F48
G01 X60.5788 Y49.6794 F48
G03 X54.7918 Y49.3565 I-2.8213 J-1.4564 F48
G01 X37.8877 Y5.1280 F48
G00 Z2.0000 F480
G00 X0.0000 Y0.0000 F2100

M05
