;Project 0102
;Created by Estlcam version 11 build 11.116
;Machining time about 00:00:55 hours

G90
M03 S24000
G00 X0.0000 Y0.0000 Z0.0000 F2100
G00 Z2.0000 F480


;No. 1: Part 1
G00 X5.7008 Y29.6293 F2100
G00 Z0.5000 F480
G01 Z-1.0000 F180 S24000
G02 X11.4240 Y18.7867 I-66.1740 J-41.8611 F480
G02 X14.0291 Y11.0144 I-43.1846 J-18.7972 F480
G00 Z0.0000 F480
G02 X14.5204 Y8.5386 I-30.8484 J-7.4075 F480
G03 X16.0953 Y5.1567 I5.1901 J0.3593 F480
G03 X17.6120 Y3.9545 I4.5753 J4.2147 F480
G01 X18.0649 Y3.7040 F480
G01 X18.2784 Y3.5962 F480
G01 X18.7194 Y3.3906 F480
G01 Z-1.0000 F180
G01 X18.8034 Y3.3514 F480
G01 X18.9827 Y3.2744 F480
G01 X19.5782 Y3.0358 F480
G01 X19.7307 Y2.9792 F480
G01 X20.3950 Y2.7471 F480
G01 X20.5259 Y2.7044 F480
G01 X21.2575 Y2.4789 F480
G01 X21.3722 Y2.4458 F480
G01 X22.1692 Y2.2272 F480
G01 X22.2705 Y2.2011 F480
G03 X30.0501 Y0.7838 I16.1034 J66.3329 F480
G03 X45.0203 Y-0.4512 I22.9027 J186.2643 F480
G03 X55.7191 Y-0.7487 I13.9160 J307.9718 F480
G01 X55.9734 Y-0.7501 F480
G00 Z0.0000 F480
G01 X59.4819 Y-0.7690 F480
G01 X63.2438 Y-0.7491 F480
G01 X65.4980 Y-0.7123 F480
G01 Z-1.0000 F180
G03 X86.3014 Y0.4661 I-2.6188 J230.4376 F480
G03 X94.7907 Y1.7509 I-8.2369 J83.1171 F480
G01 X95.7953 Y1.9728 F480
G01 X96.7467 Y2.2059 F480
G01 X96.8478 Y2.2324 F480
G01 X97.6448 Y2.4511 F480
G01 X97.7594 Y2.4848 F480
G01 X98.4910 Y2.7103 F480
G01 X98.6215 Y2.7536 F480
G01 X99.2860 Y2.9857 F480
G01 X99.4381 Y3.0433 F480
G01 X100.0337 Y3.2818 F480
G03 X102.2923 Y4.5683 I-3.6197 J8.9806 F480
G03 X104.0576 Y6.8186 I-4.1249 J5.0536 F480
G03 X104.4774 Y8.5386 I-4.7260 J2.0646 F480
G02 X107.1775 Y17.8324 I43.2121 J-7.5151 F480
G02 X110.0804 Y24.0260 I62.0163 J-25.2898 F480
G00 Z0.0000 F480
G02 X114.9455 Y32.2101 I84.3415 J-44.5993 F480
G01 Z-1.0000 F180
G01 X115.1400 Y32.5089 F480
G02 X118.5172 Y37.3417 I106.2513 J-70.6549 F480
G03 X114.0749 Y41.7816 I-2.5831 J1.8578 F480
G01 X114.0399 Y41.8756 F480
G03 X111.8718 Y45.2178 I-5.7039 J-1.3258 F480
G03 X112.8737 Y49.0415 I-5.1713 J3.3981 F480
G03 X109.5401 Y53.9249 I-5.8968 J-0.4459 F480
G03 X104.3555 Y60.8016 I-5.8192 J1.0055 F480
G01 X104.3544 Y60.8220 F480
G03 X98.2611 Y66.2870 I-5.8680 J-0.4133 F480
G01 X98.2436 Y66.3035 F480
G03 X90.5142 Y69.8242 I-5.5682 J-1.9794 F480
G01 X90.4879 Y69.8649 F480
G03 X82.0162 Y71.3973 I-4.9825 J-3.3612 F480
G01 X81.9868 Y71.4026 F480
G03 X73.1444 Y70.4862 I-4.0090 J-4.4365 F480
G01 X72.8700 Y70.3490 F480
G03 X65.7967 Y69.0736 I-2.6809 J-5.3837 F480
G01 X65.6992 Y69.1603 F480
G03 X64.4067 Y70.0980 I-6.7767 J-7.9810 F480
G01 X64.1691 Y70.4140 F480
G01 X64.1811 Y70.2352 F480
G01 X64.1178 Y71.1854 F480
G01 X64.0192 Y72.9736 F480
G02 X67.6299 Y72.6325 I-3.2470 J-53.6546 F480
G03 X71.1934 Y75.8037 I0.3885 J3.1512 F480
G01 Y79.8230 F480
G03 X67.6902 Y82.9810 I-3.1751 J0.0000 F480
G01 X67.1454 Y82.9279 F480
G01 X65.6781 Y82.8046 F480
G01 X63.9596 Y82.6954 F480
G01 X63.9558 Y82.7130 F480
G02 X64.3140 Y87.2028 I72.4330 J-3.5201 F480
G03 X63.4353 Y89.4377 I-3.1547 J0.0500 F480
G00 Z0.0000 F480
G01 X63.3843 Y89.4941 F480
G03 X61.1193 Y90.4240 I-2.2452 J-2.2455 F480
G01 X57.8584 F480
G03 X54.9535 Y88.5207 I-0.0038 J-3.1628 F480
G01 Z-1.0000 F180
G03 X54.6914 Y87.4736 I2.7545 J-1.2458 F480
G01 X54.6848 Y87.1563 F480
G01 X54.7066 Y86.8660 F480
G02 X55.0382 Y82.6954 I-35.9226 J-4.9546 F480
G01 X53.3197 Y82.8046 F480
G01 X51.8499 Y82.9281 F480
G03 X50.3400 Y82.9330 I-0.7681 J-4.0989 F480
G03 X47.8117 Y80.0389 I0.6393 J-3.1100 F480
G01 X47.8043 Y79.8030 F480
G01 Y75.7837 F480
G01 X47.8202 Y75.4667 F480
G03 X51.3877 Y72.6350 I3.1592 J0.3170 F480
G02 X54.9786 Y72.9736 I4.9826 J-33.6269 F480
G01 X54.8802 Y71.1891 F480
G01 X54.8167 Y70.2352 F480
G01 X54.8286 Y70.4140 F480
G01 X54.8004 Y70.2233 F480
G03 X53.2011 Y69.0736 I4.9195 J-8.5302 F480
G03 X46.1098 Y70.3402 I-4.3918 J-4.1037 F480
G01 X45.8411 Y70.5026 F480
G03 X36.9958 Y71.3896 I-4.8224 J-3.5425 F480
G01 X36.9819 Y71.3971 F480
G01 X36.9477 Y71.4227 F480
G03 X28.4835 Y69.8242 I-3.4528 J-4.9260 F480
G01 X28.4297 Y69.8362 F480
G03 X20.7366 Y66.2870 I-2.1188 J-5.5196 F480
G01 X20.6762 Y66.2900 F480
G03 X14.6423 Y60.8021 I-0.1628 J-5.8820 F480
G03 X9.3732 Y55.0940 I0.6345 J-5.8717 F480
G01 X9.3731 Y54.7766 F480
G03 X9.4576 Y53.9255 I5.7766 J0.1434 F480
G01 X9.4422 Y53.9061 F480
G01 X9.3477 Y53.8611 F480
G03 X6.1100 Y48.7622 I2.6344 J-5.2502 F480
G01 X6.1099 Y48.4448 F480
G03 X7.1259 Y45.2178 I6.3035 J0.2112 F480
G01 X7.0615 Y45.1697 F480
G03 X4.9229 Y41.7816 I3.7053 J-4.7078 F480
G03 X-0.1203 Y39.2427 I-1.8585 J-2.5866 F480
G01 X-0.1086 Y38.9256 F480
G03 X0.3662 Y37.5172 I3.0891 J0.2572 F480
G00 Z0.0000 F480
G01 X0.4105 Y37.4428 F480
G01 X0.4922 Y37.3255 F480
G02 X5.7008 Y29.6293 I-92.1960 J-68.0069 F480
G00 Z2.0000 F480
G00 X0.0000 Y0.0000 F2100

M05
