;Project 0102
;Created by Estlcam version 11 build 11.116
;Machining time about 00:10:37 hours

G90
M03 S24000
G00 X0.0000 Y0.0000 Z0.0000 F2100
G00 Z2.0000 F480


;No. 1: Part 5
G00 X4.7819 Y25.4397 F2100
G00 Z0.5000 F480
G01 Z-1.0000 F180 S24000
G01 X4.7951 Y25.4185 F480
G02 X10.5436 Y14.2158 I-64.1497 J-39.9933 F480
G02 X13.2437 Y4.9219 I-38.7597 J-16.2999 F480
G03 X14.8186 Y1.5400 I5.1901 J0.3593 F480
G03 X16.3353 Y0.3378 I4.5753 J4.2147 F480
G03 X20.9938 Y-1.4156 I8.8244 J16.3794 F480
G03 X28.7735 Y-2.8329 I16.1566 J66.6248 F480
G03 X43.7436 Y-4.0679 I22.9027 J186.2643 F480
G03 X79.2261 Y-3.6778 I14.3271 J310.7182 F480
G03 X90.2480 Y-2.4611 I-8.4056 J126.6802 F480
G03 X93.5141 Y-1.8658 I-10.0712 J64.5084 F480
G01 X93.5960 Y-1.8483 F480
G03 X96.3681 Y-1.1656 I-7.7908 J37.6047 F480
G01 X96.4828 Y-1.1319 F480
G01 X97.2143 Y-0.9064 F480
G01 X97.3449 Y-0.8631 F480
G01 X98.0093 Y-0.6309 F480
G01 X98.1615 Y-0.5734 F480
G01 X98.7570 Y-0.3348 F480
G03 X101.0156 Y0.9516 I-3.6197 J8.9806 F480
G03 X102.6411 Y2.9170 I-4.2320 J5.1549 F480
G03 X103.2007 Y4.9219 I-4.4957 J2.3356 F480
G02 X105.9008 Y14.2158 I43.2121 J-7.5151 F480
G02 X112.0203 Y26.0127 I72.2397 J-29.9876 F480
G00 Z0.0000 F480
G02 X117.3547 Y33.9009 I120.4180 J-75.6841 F480
G01 Z-1.0000 F180
G03 X112.7982 Y38.1649 I-2.6971 J1.6843 F480
G01 X112.7632 Y38.2589 F480
G03 X110.5952 Y41.6011 I-5.7039 J-1.3258 F480
G03 X111.5971 Y45.4248 I-5.1713 J3.3981 F480
G03 X108.2635 Y50.3082 I-5.8968 J-0.4459 F480
G03 X103.0788 Y57.1849 I-5.8192 J1.0055 F480
G01 X103.0778 Y57.2054 F480
G03 X96.9845 Y62.6703 I-5.8680 J-0.4133 F480
G01 X96.9670 Y62.6868 F480
G03 X89.2376 Y66.2075 I-5.5682 J-1.9794 F480
G01 X89.2113 Y66.2482 F480
G03 X80.7395 Y67.7807 I-4.9825 J-3.3612 F480
G01 X80.7102 Y67.7859 F480
G03 X71.8677 Y66.8695 I-4.0090 J-4.4365 F480
G01 X71.5933 Y66.7323 F480
G03 X64.5200 Y65.4569 I-2.6809 J-5.3837 F480
G01 X64.4225 Y65.5436 F480
G03 X63.1301 Y66.4813 I-6.7767 J-7.9810 F480
G01 X62.8925 Y66.7973 F480
G01 X62.9044 Y66.6185 F480
G01 X62.8411 Y67.5687 F480
G01 X62.7425 Y69.3569 F480
G02 X66.3533 Y69.0159 I-3.2470 J-53.6546 F480
G03 X69.9168 Y72.1870 I0.3885 J3.1512 F480
G01 Y76.2063 F480
G03 X66.4135 Y79.3644 I-3.1751 J0.0000 F480
G01 X65.8687 Y79.3112 F480
G01 X64.4014 Y79.1879 F480
G01 X62.6830 Y79.0788 F480
G01 X62.6791 Y79.0963 F480
G02 X63.0373 Y83.5861 I72.4330 J-3.5201 F480
G03 X59.8427 Y86.8073 I-3.1748 J0.0462 F480
G01 X56.5818 F480
G03 X53.4147 Y83.8569 I0.0000 J-3.1750 F480
G01 X53.4081 Y83.5396 F480
G01 X53.4299 Y83.2493 F480
G02 X53.7615 Y79.0788 I-35.9226 J-4.9546 F480
G01 X52.0430 Y79.1879 F480
G01 X50.5732 Y79.3114 F480
G03 X49.0634 Y79.3163 I-0.7681 J-4.0989 F480
G03 X46.5350 Y76.4222 I0.6393 J-3.1100 F480
G01 X46.5277 Y76.1863 F480
G01 Y72.1670 F480
G01 X46.5435 Y71.8500 F480
G03 X50.1110 Y69.0183 I3.1592 J0.3170 F480
G02 X53.7019 Y69.3569 I4.9826 J-33.6269 F480
G01 X53.6036 Y67.5724 F480
G01 X53.5401 Y66.6185 F480
G01 X53.5520 Y66.7973 F480
G01 X53.5238 Y66.6067 F480
G03 X51.9244 Y65.4569 I4.9195 J-8.5302 F480
G03 X44.8331 Y66.7236 I-4.3918 J-4.1037 F480
G01 X44.5645 Y66.8859 F480
G03 X35.7191 Y67.7729 I-4.8224 J-3.5425 F480
G01 X35.7052 Y67.7805 F480
G01 X35.6711 Y67.8060 F480
G03 X27.2069 Y66.2075 I-3.4528 J-4.9260 F480
G01 X27.1531 Y66.2195 F480
G03 X19.4600 Y62.6703 I-2.1188 J-5.5196 F480
G01 X19.3996 Y62.6733 F480
G03 X13.3657 Y57.1854 I-0.1628 J-5.8820 F480
G03 X8.0965 Y51.4773 I0.6345 J-5.8717 F480
G01 Y51.1599 F480
G03 X8.1809 Y50.3088 I5.7766 J0.1434 F480
G01 X8.1656 Y50.2894 F480
G01 X8.0710 Y50.2444 F480
G03 X4.8333 Y45.1455 I2.6344 J-5.2502 F480
G01 X4.8332 Y44.8281 F480
G03 X5.8493 Y41.6011 I6.3035 J0.2112 F480
G01 X5.7848 Y41.5530 F480
G03 X3.6462 Y38.1649 I3.7053 J-4.7078 F480
G03 X-1.3969 Y35.6260 I-1.8585 J-2.5866 F480
G01 X-1.3853 Y35.3089 F480
G03 X-0.5234 Y33.3473 I3.5458 J0.3879 F480
G00 Z0.0000 F480
G02 X4.7819 Y25.4397 I-93.4159 J-68.4066 F480
G00 Z-0.5000 F480
G01 Z-2.0000 F180
G01 X4.7951 Y25.4185 F480
G02 X10.5436 Y14.2158 I-64.1497 J-39.9933 F480
G02 X13.2437 Y4.9219 I-38.7597 J-16.2999 F480
G03 X14.8186 Y1.5400 I5.1901 J0.3593 F480
G03 X16.3353 Y0.3378 I4.5753 J4.2147 F480
G03 X20.9938 Y-1.4156 I8.8244 J16.3794 F480
G03 X28.7735 Y-2.8329 I16.1566 J66.6248 F480
G03 X43.7436 Y-4.0679 I22.9027 J186.2643 F480
G03 X79.2261 Y-3.6778 I14.3271 J310.7182 F480
G03 X90.2480 Y-2.4611 I-8.4056 J126.6802 F480
G03 X93.5141 Y-1.8658 I-10.0712 J64.5084 F480
G01 X93.5960 Y-1.8483 F480
G03 X96.3681 Y-1.1656 I-7.7908 J37.6047 F480
G01 X96.4828 Y-1.1319 F480
G01 X97.2143 Y-0.9064 F480
G01 X97.3449 Y-0.8631 F480
G01 X98.0093 Y-0.6309 F480
G01 X98.1615 Y-0.5734 F480
G01 X98.7570 Y-0.3348 F480
G03 X101.0156 Y0.9516 I-3.6197 J8.9806 F480
G03 X102.6411 Y2.9170 I-4.2320 J5.1549 F480
G03 X103.2007 Y4.9219 I-4.4957 J2.3356 F480
G02 X105.9008 Y14.2158 I43.2121 J-7.5151 F480
G02 X112.0203 Y26.0127 I72.2397 J-29.9876 F480
G00 Z0.0000 F480
G02 X117.3547 Y33.9009 I120.4180 J-75.6841 F480
G00 Z-0.5000 F480
G01 Z-2.0000 F180
G03 X112.7982 Y38.1649 I-2.6971 J1.6843 F480
G01 X112.7632 Y38.2589 F480
G03 X110.5952 Y41.6011 I-5.7039 J-1.3258 F480
G03 X111.5971 Y45.4248 I-5.1713 J3.3981 F480
G03 X108.2635 Y50.3082 I-5.8968 J-0.4459 F480
G03 X103.0788 Y57.1849 I-5.8192 J1.0055 F480
G01 X103.0778 Y57.2054 F480
G03 X96.9845 Y62.6703 I-5.8680 J-0.4133 F480
G01 X96.9670 Y62.6868 F480
G03 X89.2376 Y66.2075 I-5.5682 J-1.9794 F480
G01 X89.2113 Y66.2482 F480
G03 X80.7395 Y67.7807 I-4.9825 J-3.3612 F480
G01 X80.7102 Y67.7859 F480
G03 X71.8677 Y66.8695 I-4.0090 J-4.4365 F480
G01 X71.5933 Y66.7323 F480
G03 X64.5200 Y65.4569 I-2.6809 J-5.3837 F480
G01 X64.4225 Y65.5436 F480
G03 X63.1301 Y66.4813 I-6.7767 J-7.9810 F480
G01 X62.8925 Y66.7973 F480
G01 X62.9044 Y66.6185 F480
G01 X62.8411 Y67.5687 F480
G01 X62.7425 Y69.3569 F480
G02 X66.3533 Y69.0159 I-3.2470 J-53.6546 F480
G03 X69.9168 Y72.1870 I0.3885 J3.1512 F480
G01 Y76.2063 F480
G03 X66.4135 Y79.3644 I-3.1751 J0.0000 F480
G01 X65.8687 Y79.3112 F480
G01 X64.4014 Y79.1879 F480
G01 X62.6830 Y79.0788 F480
G01 X62.6791 Y79.0963 F480
G02 X63.0373 Y83.5861 I72.4330 J-3.5201 F480
G03 X59.8427 Y86.8073 I-3.1748 J0.0462 F480
G01 X56.5818 F480
G03 X53.4147 Y83.8569 I0.0000 J-3.1750 F480
G01 X53.4081 Y83.5396 F480
G01 X53.4299 Y83.2493 F480
G02 X53.7615 Y79.0788 I-35.9226 J-4.9546 F480
G01 X52.0430 Y79.1879 F480
G01 X50.5732 Y79.3114 F480
G03 X49.0634 Y79.3163 I-0.7681 J-4.0989 F480
G03 X46.5350 Y76.4222 I0.6393 J-3.1100 F480
G01 X46.5277 Y76.1863 F480
G01 Y72.1670 F480
G01 X46.5435 Y71.8500 F480
G03 X50.1110 Y69.0183 I3.1592 J0.3170 F480
G02 X53.7019 Y69.3569 I4.9826 J-33.6269 F480
G01 X53.6036 Y67.5724 F480
G01 X53.5401 Y66.6185 F480
G01 X53.5520 Y66.7973 F480
G01 X53.5238 Y66.6067 F480
G03 X51.9244 Y65.4569 I4.9195 J-8.5302 F480
G03 X44.8331 Y66.7236 I-4.3918 J-4.1037 F480
G01 X44.5645 Y66.8859 F480
G03 X35.7191 Y67.7729 I-4.8224 J-3.5425 F480
G01 X35.7052 Y67.7805 F480
G01 X35.6711 Y67.8060 F480
G03 X27.2069 Y66.2075 I-3.4528 J-4.9260 F480
G01 X27.1531 Y66.2195 F480
G03 X19.4600 Y62.6703 I-2.1188 J-5.5196 F480
G01 X19.3996 Y62.6733 F480
G03 X13.3657 Y57.1854 I-0.1628 J-5.8820 F480
G03 X8.0965 Y51.4773 I0.6345 J-5.8717 F480
G01 Y51.1599 F480
G03 X8.1809 Y50.3088 I5.7766 J0.1434 F480
G01 X8.1656 Y50.2894 F480
G01 X8.0710 Y50.2444 F480
G03 X4.8333 Y45.1455 I2.6344 J-5.2502 F480
G01 X4.8332 Y44.8281 F480
G03 X5.8493 Y41.6011 I6.3035 J0.2112 F480
G01 X5.7848 Y41.5530 F480
G03 X3.6462 Y38.1649 I3.7053 J-4.7078 F480
G03 X-1.3969 Y35.6260 I-1.8585 J-2.5866 F480
G01 X-1.3853 Y35.3089 F480
G03 X-0.5234 Y33.3473 I3.5458 J0.3879 F480
G00 Z0.0000 F480
G02 X4.7819 Y25.4397 I-93.4159 J-68.4066 F480
G00 Z-1.5000 F480
G01 Z-3.0000 F180
G01 X4.7951 Y25.4185 F480
G02 X10.5436 Y14.2158 I-64.1497 J-39.9933 F480
G02 X13.2437 Y4.9219 I-38.7597 J-16.2999 F480
G03 X14.8186 Y1.5400 I5.1901 J0.3593 F480
G03 X16.3353 Y0.3378 I4.5753 J4.2147 F480
G03 X20.9938 Y-1.4156 I8.8244 J16.3794 F480
G03 X28.7735 Y-2.8329 I16.1566 J66.6248 F480
G03 X43.7436 Y-4.0679 I22.9027 J186.2643 F480
G03 X79.2261 Y-3.6778 I14.3271 J310.7182 F480
G03 X90.2480 Y-2.4611 I-8.4056 J126.6802 F480
G03 X93.5141 Y-1.8658 I-10.0712 J64.5084 F480
G01 X93.5960 Y-1.8483 F480
G03 X96.3681 Y-1.1656 I-7.7908 J37.6047 F480
G01 X96.4828 Y-1.1319 F480
G01 X97.2143 Y-0.9064 F480
G01 X97.3449 Y-0.8631 F480
G01 X98.0093 Y-0.6309 F480
G01 X98.1615 Y-0.5734 F480
G01 X98.7570 Y-0.3348 F480
G03 X101.0156 Y0.9516 I-3.6197 J8.9806 F480
G03 X102.6411 Y2.9170 I-4.2320 J5.1549 F480
G03 X103.2007 Y4.9219 I-4.4957 J2.3356 F480
G02 X105.9008 Y14.2158 I43.2121 J-7.5151 F480
G02 X112.0203 Y26.0127 I72.2397 J-29.9876 F480
G00 Z0.0000 F480
G02 X117.3547 Y33.9009 I120.4180 J-75.6841 F480
G00 Z-1.5000 F480
G01 Z-3.0000 F180
G03 X112.7982 Y38.1649 I-2.6971 J1.6843 F480
G01 X112.7632 Y38.2589 F480
G03 X110.5952 Y41.6011 I-5.7039 J-1.3258 F480
G03 X111.5971 Y45.4248 I-5.1713 J3.3981 F480
G03 X108.2635 Y50.3082 I-5.8968 J-0.4459 F480
G03 X103.0788 Y57.1849 I-5.8192 J1.0055 F480
G01 X103.0778 Y57.2054 F480
G03 X96.9845 Y62.6703 I-5.8680 J-0.4133 F480
G01 X96.9670 Y62.6868 F480
G03 X89.2376 Y66.2075 I-5.5682 J-1.9794 F480
G01 X89.2113 Y66.2482 F480
G03 X80.7395 Y67.7807 I-4.9825 J-3.3612 F480
G01 X80.7102 Y67.7859 F480
G03 X71.8677 Y66.8695 I-4.0090 J-4.4365 F480
G01 X71.5933 Y66.7323 F480
G03 X64.5200 Y65.4569 I-2.6809 J-5.3837 F480
G01 X64.4225 Y65.5436 F480
G03 X63.1301 Y66.4813 I-6.7767 J-7.9810 F480
G01 X62.8925 Y66.7973 F480
G01 X62.9044 Y66.6185 F480
G01 X62.8411 Y67.5687 F480
G01 X62.7425 Y69.3569 F480
G02 X66.3533 Y69.0159 I-3.2470 J-53.6546 F480
G03 X69.9168 Y72.1870 I0.3885 J3.1512 F480
G01 Y76.2063 F480
G03 X66.4135 Y79.3644 I-3.1751 J0.0000 F480
G01 X65.8687 Y79.3112 F480
G01 X64.4014 Y79.1879 F480
G01 X62.6830 Y79.0788 F480
G01 X62.6791 Y79.0963 F480
G02 X63.0373 Y83.5861 I72.4330 J-3.5201 F480
G03 X59.8427 Y86.8073 I-3.1748 J0.0462 F480
G01 X56.5818 F480
G03 X53.4147 Y83.8569 I0.0000 J-3.1750 F480
G01 X53.4081 Y83.5396 F480
G01 X53.4299 Y83.2493 F480
G02 X53.7615 Y79.0788 I-35.9226 J-4.9546 F480
G01 X52.0430 Y79.1879 F480
G01 X50.5732 Y79.3114 F480
G03 X49.0634 Y79.3163 I-0.7681 J-4.0989 F480
G03 X46.5350 Y76.4222 I0.6393 J-3.1100 F480
G01 X46.5277 Y76.1863 F480
G01 Y72.1670 F480
G01 X46.5435 Y71.8500 F480
G03 X50.1110 Y69.0183 I3.1592 J0.3170 F480
G02 X53.7019 Y69.3569 I4.9826 J-33.6269 F480
G01 X53.6036 Y67.5724 F480
G01 X53.5401 Y66.6185 F480
G01 X53.5520 Y66.7973 F480
G01 X53.5238 Y66.6067 F480
G03 X51.9244 Y65.4569 I4.9195 J-8.5302 F480
G03 X44.8331 Y66.7236 I-4.3918 J-4.1037 F480
G01 X44.5645 Y66.8859 F480
G03 X35.7191 Y67.7729 I-4.8224 J-3.5425 F480
G01 X35.7052 Y67.7805 F480
G01 X35.6711 Y67.8060 F480
G03 X27.2069 Y66.2075 I-3.4528 J-4.9260 F480
G01 X27.1531 Y66.2195 F480
G03 X19.4600 Y62.6703 I-2.1188 J-5.5196 F480
G01 X19.3996 Y62.6733 F480
G03 X13.3657 Y57.1854 I-0.1628 J-5.8820 F480
G03 X8.0965 Y51.4773 I0.6345 J-5.8717 F480
G01 Y51.1599 F480
G03 X8.1809 Y50.3088 I5.7766 J0.1434 F480
G01 X8.1656 Y50.2894 F480
G01 X8.0710 Y50.2444 F480
G03 X4.8333 Y45.1455 I2.6344 J-5.2502 F480
G01 X4.8332 Y44.8281 F480
G03 X5.8493 Y41.6011 I6.3035 J0.2112 F480
G01 X5.7848 Y41.5530 F480
G03 X3.6462 Y38.1649 I3.7053 J-4.7078 F480
G03 X-1.3969 Y35.6260 I-1.8585 J-2.5866 F480
G01 X-1.3853 Y35.3089 F480
G03 X-0.5234 Y33.3473 I3.5458 J0.3879 F480
G00 Z0.0000 F480
G02 X4.7819 Y25.4397 I-93.4159 J-68.4066 F480
G00 Z-2.5000 F480
G01 Z-4.0000 F180
G01 X4.7951 Y25.4185 F480
G02 X10.5436 Y14.2158 I-64.1497 J-39.9933 F480
G02 X13.2437 Y4.9219 I-38.7597 J-16.2999 F480
G03 X14.8186 Y1.5400 I5.1901 J0.3593 F480
G03 X16.3353 Y0.3378 I4.5753 J4.2147 F480
G03 X20.9938 Y-1.4156 I8.8244 J16.3794 F480
G03 X28.7735 Y-2.8329 I16.1566 J66.6248 F480
G03 X43.7436 Y-4.0679 I22.9027 J186.2643 F480
G03 X79.2261 Y-3.6778 I14.3271 J310.7182 F480
G03 X90.2480 Y-2.4611 I-8.4056 J126.6802 F480
G03 X93.5141 Y-1.8658 I-10.0712 J64.5084 F480
G01 X93.5960 Y-1.8483 F480
G03 X96.3681 Y-1.1656 I-7.7908 J37.6047 F480
G01 X96.4828 Y-1.1319 F480
G01 X97.2143 Y-0.9064 F480
G01 X97.3449 Y-0.8631 F480
G01 X98.0093 Y-0.6309 F480
G01 X98.1615 Y-0.5734 F480
G01 X98.7570 Y-0.3348 F480
G03 X101.0156 Y0.9516 I-3.6197 J8.9806 F480
G03 X102.6411 Y2.9170 I-4.2320 J5.1549 F480
G03 X103.2007 Y4.9219 I-4.4957 J2.3356 F480
G02 X105.9008 Y14.2158 I43.2121 J-7.5151 F480
G02 X112.0203 Y26.0127 I72.2397 J-29.9876 F480
G00 Z0.0000 F480
G02 X117.3547 Y33.9009 I120.4180 J-75.6841 F480
G00 Z-2.5000 F480
G01 Z-4.0000 F180
G03 X112.7982 Y38.1649 I-2.6971 J1.6843 F480
G01 X112.7632 Y38.2589 F480
G03 X110.5952 Y41.6011 I-5.7039 J-1.3258 F480
G03 X111.5971 Y45.4248 I-5.1713 J3.3981 F480
G03 X108.2635 Y50.3082 I-5.8968 J-0.4459 F480
G03 X103.0788 Y57.1849 I-5.8192 J1.0055 F480
G01 X103.0778 Y57.2054 F480
G03 X96.9845 Y62.6703 I-5.8680 J-0.4133 F480
G01 X96.9670 Y62.6868 F480
G03 X89.2376 Y66.2075 I-5.5682 J-1.9794 F480
G01 X89.2113 Y66.2482 F480
G03 X80.7395 Y67.7807 I-4.9825 J-3.3612 F480
G01 X80.7102 Y67.7859 F480
G03 X71.8677 Y66.8695 I-4.0090 J-4.4365 F480
G01 X71.5933 Y66.7323 F480
G03 X64.5200 Y65.4569 I-2.6809 J-5.3837 F480
G01 X64.4225 Y65.5436 F480
G03 X63.1301 Y66.4813 I-6.7767 J-7.9810 F480
G01 X62.8925 Y66.7973 F480
G01 X62.9044 Y66.6185 F480
G01 X62.8411 Y67.5687 F480
G01 X62.7425 Y69.3569 F480
G02 X66.3533 Y69.0159 I-3.2470 J-53.6546 F480
G03 X69.9168 Y72.1870 I0.3885 J3.1512 F480
G01 Y76.2063 F480
G03 X66.4135 Y79.3644 I-3.1751 J0.0000 F480
G01 X65.8687 Y79.3112 F480
G01 X64.4014 Y79.1879 F480
G01 X62.6830 Y79.0788 F480
G01 X62.6791 Y79.0963 F480
G02 X63.0373 Y83.5861 I72.4330 J-3.5201 F480
G03 X59.8427 Y86.8073 I-3.1748 J0.0462 F480
G01 X56.5818 F480
G03 X53.4147 Y83.8569 I0.0000 J-3.1750 F480
G01 X53.4081 Y83.5396 F480
G01 X53.4299 Y83.2493 F480
G02 X53.7615 Y79.0788 I-35.9226 J-4.9546 F480
G01 X52.0430 Y79.1879 F480
G01 X50.5732 Y79.3114 F480
G03 X49.0634 Y79.3163 I-0.7681 J-4.0989 F480
G03 X46.5350 Y76.4222 I0.6393 J-3.1100 F480
G01 X46.5277 Y76.1863 F480
G01 Y72.1670 F480
G01 X46.5435 Y71.8500 F480
G03 X50.1110 Y69.0183 I3.1592 J0.3170 F480
G02 X53.7019 Y69.3569 I4.9826 J-33.6269 F480
G01 X53.6036 Y67.5724 F480
G01 X53.5401 Y66.6185 F480
G01 X53.5520 Y66.7973 F480
G01 X53.5238 Y66.6067 F480
G03 X51.9244 Y65.4569 I4.9195 J-8.5302 F480
G03 X44.8331 Y66.7236 I-4.3918 J-4.1037 F480
G01 X44.5645 Y66.8859 F480
G03 X35.7191 Y67.7729 I-4.8224 J-3.5425 F480
G01 X35.7052 Y67.7805 F480
G01 X35.6711 Y67.8060 F480
G03 X27.2069 Y66.2075 I-3.4528 J-4.9260 F480
G01 X27.1531 Y66.2195 F480
G03 X19.4600 Y62.6703 I-2.1188 J-5.5196 F480
G01 X19.3996 Y62.6733 F480
G03 X13.3657 Y57.1854 I-0.1628 J-5.8820 F480
G03 X8.0965 Y51.4773 I0.6345 J-5.8717 F480
G01 Y51.1599 F480
G03 X8.1809 Y50.3088 I5.7766 J0.1434 F480
G01 X8.1656 Y50.2894 F480
G01 X8.0710 Y50.2444 F480
G03 X4.8333 Y45.1455 I2.6344 J-5.2502 F480
G01 X4.8332 Y44.8281 F480
G03 X5.8493 Y41.6011 I6.3035 J0.2112 F480
G01 X5.7848 Y41.5530 F480
G03 X3.6462 Y38.1649 I3.7053 J-4.7078 F480
G03 X-1.3969 Y35.6260 I-1.8585 J-2.5866 F480
G01 X-1.3853 Y35.3089 F480
G03 X-0.5234 Y33.3473 I3.5458 J0.3879 F480
G00 Z0.0000 F480
G02 X4.7819 Y25.4397 I-93.4159 J-68.4066 F480
G00 Z-3.5000 F480
G01 Z-5.0000 F180
G01 X4.7951 Y25.4185 F480
G02 X10.5436 Y14.2158 I-64.1497 J-39.9933 F480
G02 X13.2437 Y4.9219 I-38.7597 J-16.2999 F480
G03 X14.8186 Y1.5400 I5.1901 J0.3593 F480
G03 X16.3353 Y0.3378 I4.5753 J4.2147 F480
G03 X20.9938 Y-1.4156 I8.8244 J16.3794 F480
G03 X28.7735 Y-2.8329 I16.1566 J66.6248 F480
G03 X43.7436 Y-4.0679 I22.9027 J186.2643 F480
G03 X79.2261 Y-3.6778 I14.3271 J310.7182 F480
G03 X90.2480 Y-2.4611 I-8.4056 J126.6802 F480
G03 X93.5141 Y-1.8658 I-10.0712 J64.5084 F480
G01 X93.5960 Y-1.8483 F480
G03 X96.3681 Y-1.1656 I-7.7908 J37.6047 F480
G01 X96.4828 Y-1.1319 F480
G01 X97.2143 Y-0.9064 F480
G01 X97.3449 Y-0.8631 F480
G01 X98.0093 Y-0.6309 F480
G01 X98.1615 Y-0.5734 F480
G01 X98.7570 Y-0.3348 F480
G03 X101.0156 Y0.9516 I-3.6197 J8.9806 F480
G03 X102.6411 Y2.9170 I-4.2320 J5.1549 F480
G03 X103.2007 Y4.9219 I-4.4957 J2.3356 F480
G02 X105.9008 Y14.2158 I43.2121 J-7.5151 F480
G02 X112.0203 Y26.0127 I72.2397 J-29.9876 F480
G00 Z0.0000 F480
G02 X117.3547 Y33.9009 I120.4180 J-75.6841 F480
G00 Z-3.5000 F480
G01 Z-5.0000 F180
G03 X112.7982 Y38.1649 I-2.6971 J1.6843 F480
G01 X112.7632 Y38.2589 F480
G03 X110.5952 Y41.6011 I-5.7039 J-1.3258 F480
G03 X111.5971 Y45.4248 I-5.1713 J3.3981 F480
G03 X108.2635 Y50.3082 I-5.8968 J-0.4459 F480
G03 X103.0788 Y57.1849 I-5.8192 J1.0055 F480
G01 X103.0778 Y57.2054 F480
G03 X96.9845 Y62.6703 I-5.8680 J-0.4133 F480
G01 X96.9670 Y62.6868 F480
G03 X89.2376 Y66.2075 I-5.5682 J-1.9794 F480
G01 X89.2113 Y66.2482 F480
G03 X80.7395 Y67.7807 I-4.9825 J-3.3612 F480
G01 X80.7102 Y67.7859 F480
G03 X71.8677 Y66.8695 I-4.0090 J-4.4365 F480
G01 X71.5933 Y66.7323 F480
G03 X64.5200 Y65.4569 I-2.6809 J-5.3837 F480
G01 X64.4225 Y65.5436 F480
G03 X63.1301 Y66.4813 I-6.7767 J-7.9810 F480
G01 X62.8925 Y66.7973 F480
G01 X62.9044 Y66.6185 F480
G01 X62.8411 Y67.5687 F480
G01 X62.7425 Y69.3569 F480
G02 X66.3533 Y69.0159 I-3.2470 J-53.6546 F480
G03 X69.9168 Y72.1870 I0.3885 J3.1512 F480
G01 Y76.2063 F480
G03 X66.4135 Y79.3644 I-3.1751 J0.0000 F480
G01 X65.8687 Y79.3112 F480
G01 X64.4014 Y79.1879 F480
G01 X62.6830 Y79.0788 F480
G01 X62.6791 Y79.0963 F480
G02 X63.0373 Y83.5861 I72.4330 J-3.5201 F480
G03 X59.8427 Y86.8073 I-3.1748 J0.0462 F480
G01 X56.5818 F480
G03 X53.4147 Y83.8569 I0.0000 J-3.1750 F480
G01 X53.4081 Y83.5396 F480
G01 X53.4299 Y83.2493 F480
G02 X53.7615 Y79.0788 I-35.9226 J-4.9546 F480
G01 X52.0430 Y79.1879 F480
G01 X50.5732 Y79.3114 F480
G03 X49.0634 Y79.3163 I-0.7681 J-4.0989 F480
G03 X46.5350 Y76.4222 I0.6393 J-3.1100 F480
G01 X46.5277 Y76.1863 F480
G01 Y72.1670 F480
G01 X46.5435 Y71.8500 F480
G03 X50.1110 Y69.0183 I3.1592 J0.3170 F480
G02 X53.7019 Y69.3569 I4.9826 J-33.6269 F480
G01 X53.6036 Y67.5724 F480
G01 X53.5401 Y66.6185 F480
G01 X53.5520 Y66.7973 F480
G01 X53.5238 Y66.6067 F480
G03 X51.9244 Y65.4569 I4.9195 J-8.5302 F480
G03 X44.8331 Y66.7236 I-4.3918 J-4.1037 F480
G01 X44.5645 Y66.8859 F480
G03 X35.7191 Y67.7729 I-4.8224 J-3.5425 F480
G01 X35.7052 Y67.7805 F480
G01 X35.6711 Y67.8060 F480
G03 X27.2069 Y66.2075 I-3.4528 J-4.9260 F480
G01 X27.1531 Y66.2195 F480
G03 X19.4600 Y62.6703 I-2.1188 J-5.5196 F480
G01 X19.3996 Y62.6733 F480
G03 X13.3657 Y57.1854 I-0.1628 J-5.8820 F480
G03 X8.0965 Y51.4773 I0.6345 J-5.8717 F480
G01 Y51.1599 F480
G03 X8.1809 Y50.3088 I5.7766 J0.1434 F480
G01 X8.1656 Y50.2894 F480
G01 X8.0710 Y50.2444 F480
G03 X4.8333 Y45.1455 I2.6344 J-5.2502 F480
G01 X4.8332 Y44.8281 F480
G03 X5.8493 Y41.6011 I6.3035 J0.2112 F480
G01 X5.7848 Y41.5530 F480
G03 X3.6462 Y38.1649 I3.7053 J-4.7078 F480
G03 X-1.3969 Y35.6260 I-1.8585 J-2.5866 F480
G01 X-1.3853 Y35.3089 F480
G03 X-0.5234 Y33.3473 I3.5458 J0.3879 F480
G00 Z0.0000 F480
G02 X4.7819 Y25.4397 I-93.4159 J-68.4066 F480
G00 Z-4.5000 F480
G01 Z-6.0000 F180
G01 X4.7951 Y25.4185 F480
G02 X10.5436 Y14.2158 I-64.1497 J-39.9933 F480
G02 X13.2437 Y4.9219 I-38.7597 J-16.2999 F480
G03 X14.8186 Y1.5400 I5.1901 J0.3593 F480
G03 X16.3353 Y0.3378 I4.5753 J4.2147 F480
G03 X20.9938 Y-1.4156 I8.8244 J16.3794 F480
G03 X28.7735 Y-2.8329 I16.1566 J66.6248 F480
G03 X43.7436 Y-4.0679 I22.9027 J186.2643 F480
G03 X79.2261 Y-3.6778 I14.3271 J310.7182 F480
G03 X90.2480 Y-2.4611 I-8.4056 J126.6802 F480
G03 X93.5141 Y-1.8658 I-10.0712 J64.5084 F480
G01 X93.5960 Y-1.8483 F480
G03 X96.3681 Y-1.1656 I-7.7908 J37.6047 F480
G01 X96.4828 Y-1.1319 F480
G01 X97.2143 Y-0.9064 F480
G01 X97.3449 Y-0.8631 F480
G01 X98.0093 Y-0.6309 F480
G01 X98.1615 Y-0.5734 F480
G01 X98.7570 Y-0.3348 F480
G03 X101.0156 Y0.9516 I-3.6197 J8.9806 F480
G03 X102.6411 Y2.9170 I-4.2320 J5.1549 F480
G03 X103.2007 Y4.9219 I-4.4957 J2.3356 F480
G02 X105.9008 Y14.2158 I43.2121 J-7.5151 F480
G02 X112.0203 Y26.0127 I72.2397 J-29.9876 F480
G00 Z0.0000 F480
G02 X117.3547 Y33.9009 I120.4180 J-75.6841 F480
G00 Z-4.5000 F480
G01 Z-6.0000 F180
G03 X112.7982 Y38.1649 I-2.6971 J1.6843 F480
G01 X112.7632 Y38.2589 F480
G03 X110.5952 Y41.6011 I-5.7039 J-1.3258 F480
G03 X111.5971 Y45.4248 I-5.1713 J3.3981 F480
G03 X108.2635 Y50.3082 I-5.8968 J-0.4459 F480
G03 X103.0788 Y57.1849 I-5.8192 J1.0055 F480
G01 X103.0778 Y57.2054 F480
G03 X96.9845 Y62.6703 I-5.8680 J-0.4133 F480
G01 X96.9670 Y62.6868 F480
G03 X89.2376 Y66.2075 I-5.5682 J-1.9794 F480
G01 X89.2113 Y66.2482 F480
G03 X80.7395 Y67.7807 I-4.9825 J-3.3612 F480
G01 X80.7102 Y67.7859 F480
G03 X71.8677 Y66.8695 I-4.0090 J-4.4365 F480
G01 X71.5933 Y66.7323 F480
G03 X64.5200 Y65.4569 I-2.6809 J-5.3837 F480
G01 X64.4225 Y65.5436 F480
G03 X63.1301 Y66.4813 I-6.7767 J-7.9810 F480
G01 X62.8925 Y66.7973 F480
G01 X62.9044 Y66.6185 F480
G01 X62.8411 Y67.5687 F480
G01 X62.7425 Y69.3569 F480
G02 X66.3533 Y69.0159 I-3.2470 J-53.6546 F480
G03 X69.9168 Y72.1870 I0.3885 J3.1512 F480
G01 Y76.2063 F480
G03 X66.4135 Y79.3644 I-3.1751 J0.0000 F480
G01 X65.8687 Y79.3112 F480
G01 X64.4014 Y79.1879 F480
G01 X62.6830 Y79.0788 F480
G01 X62.6791 Y79.0963 F480
G02 X63.0373 Y83.5861 I72.4330 J-3.5201 F480
G03 X59.8427 Y86.8073 I-3.1748 J0.0462 F480
G01 X56.5818 F480
G03 X53.4147 Y83.8569 I0.0000 J-3.1750 F480
G01 X53.4081 Y83.5396 F480
G01 X53.4299 Y83.2493 F480
G02 X53.7615 Y79.0788 I-35.9226 J-4.9546 F480
G01 X52.0430 Y79.1879 F480
G01 X50.5732 Y79.3114 F480
G03 X49.0634 Y79.3163 I-0.7681 J-4.0989 F480
G03 X46.5350 Y76.4222 I0.6393 J-3.1100 F480
G01 X46.5277 Y76.1863 F480
G01 Y72.1670 F480
G01 X46.5435 Y71.8500 F480
G03 X50.1110 Y69.0183 I3.1592 J0.3170 F480
G02 X53.7019 Y69.3569 I4.9826 J-33.6269 F480
G01 X53.6036 Y67.5724 F480
G01 X53.5401 Y66.6185 F480
G01 X53.5520 Y66.7973 F480
G01 X53.5238 Y66.6067 F480
G03 X51.9244 Y65.4569 I4.9195 J-8.5302 F480
G03 X44.8331 Y66.7236 I-4.3918 J-4.1037 F480
G01 X44.5645 Y66.8859 F480
G03 X35.7191 Y67.7729 I-4.8224 J-3.5425 F480
G01 X35.7052 Y67.7805 F480
G01 X35.6711 Y67.8060 F480
G03 X27.2069 Y66.2075 I-3.4528 J-4.9260 F480
G01 X27.1531 Y66.2195 F480
G03 X19.4600 Y62.6703 I-2.1188 J-5.5196 F480
G01 X19.3996 Y62.6733 F480
G03 X13.3657 Y57.1854 I-0.1628 J-5.8820 F480
G03 X8.0965 Y51.4773 I0.6345 J-5.8717 F480
G01 Y51.1599 F480
G03 X8.1809 Y50.3088 I5.7766 J0.1434 F480
G01 X8.1656 Y50.2894 F480
G01 X8.0710 Y50.2444 F480
G03 X4.8333 Y45.1455 I2.6344 J-5.2502 F480
G01 X4.8332 Y44.8281 F480
G03 X5.8493 Y41.6011 I6.3035 J0.2112 F480
G01 X5.7848 Y41.5530 F480
G03 X3.6462 Y38.1649 I3.7053 J-4.7078 F480
G03 X-1.3969 Y35.6260 I-1.8585 J-2.5866 F480
G01 X-1.3853 Y35.3089 F480
G03 X-0.5234 Y33.3473 I3.5458 J0.3879 F480
G00 Z0.0000 F480
G02 X4.7819 Y25.4397 I-93.4159 J-68.4066 F480
G00 Z-5.5000 F480
G01 Z-7.0000 F180
G01 X4.7951 Y25.4185 F480
G02 X10.5436 Y14.2158 I-64.1497 J-39.9933 F480
G02 X13.2437 Y4.9219 I-38.7597 J-16.2999 F480
G03 X14.8186 Y1.5400 I5.1901 J0.3593 F480
G03 X16.3353 Y0.3378 I4.5753 J4.2147 F480
G03 X20.9938 Y-1.4156 I8.8244 J16.3794 F480
G03 X28.7735 Y-2.8329 I16.1566 J66.6248 F480
G03 X43.7436 Y-4.0679 I22.9027 J186.2643 F480
G03 X79.2261 Y-3.6778 I14.3271 J310.7182 F480
G03 X90.2480 Y-2.4611 I-8.4056 J126.6802 F480
G03 X93.5141 Y-1.8658 I-10.0712 J64.5084 F480
G01 X93.5960 Y-1.8483 F480
G03 X96.3681 Y-1.1656 I-7.7908 J37.6047 F480
G01 X96.4828 Y-1.1319 F480
G01 X97.2143 Y-0.9064 F480
G01 X97.3449 Y-0.8631 F480
G01 X98.0093 Y-0.6309 F480
G01 X98.1615 Y-0.5734 F480
G01 X98.7570 Y-0.3348 F480
G03 X101.0156 Y0.9516 I-3.6197 J8.9806 F480
G03 X102.6411 Y2.9170 I-4.2320 J5.1549 F480
G03 X103.2007 Y4.9219 I-4.4957 J2.3356 F480
G02 X105.9008 Y14.2158 I43.2121 J-7.5151 F480
G02 X112.0203 Y26.0127 I72.2397 J-29.9876 F480
G00 Z0.0000 F480
G02 X117.3547 Y33.9009 I120.4180 J-75.6841 F480
G00 Z-5.5000 F480
G01 Z-7.0000 F180
G03 X112.7982 Y38.1649 I-2.6971 J1.6843 F480
G01 X112.7632 Y38.2589 F480
G03 X110.5952 Y41.6011 I-5.7039 J-1.3258 F480
G03 X111.5971 Y45.4248 I-5.1713 J3.3981 F480
G03 X108.2635 Y50.3082 I-5.8968 J-0.4459 F480
G03 X103.0788 Y57.1849 I-5.8192 J1.0055 F480
G01 X103.0778 Y57.2054 F480
G03 X96.9845 Y62.6703 I-5.8680 J-0.4133 F480
G01 X96.9670 Y62.6868 F480
G03 X89.2376 Y66.2075 I-5.5682 J-1.9794 F480
G01 X89.2113 Y66.2482 F480
G03 X80.7395 Y67.7807 I-4.9825 J-3.3612 F480
G01 X80.7102 Y67.7859 F480
G03 X71.8677 Y66.8695 I-4.0090 J-4.4365 F480
G01 X71.5933 Y66.7323 F480
G03 X64.5200 Y65.4569 I-2.6809 J-5.3837 F480
G01 X64.4225 Y65.5436 F480
G03 X63.1301 Y66.4813 I-6.7767 J-7.9810 F480
G01 X62.8925 Y66.7973 F480
G01 X62.9044 Y66.6185 F480
G01 X62.8411 Y67.5687 F480
G01 X62.7425 Y69.3569 F480
G02 X66.3533 Y69.0159 I-3.2470 J-53.6546 F480
G03 X69.9168 Y72.1870 I0.3885 J3.1512 F480
G01 Y76.2063 F480
G03 X66.4135 Y79.3644 I-3.1751 J0.0000 F480
G01 X65.8687 Y79.3112 F480
G01 X64.4014 Y79.1879 F480
G01 X62.6830 Y79.0788 F480
G01 X62.6791 Y79.0963 F480
G02 X63.0373 Y83.5861 I72.4330 J-3.5201 F480
G03 X59.8427 Y86.8073 I-3.1748 J0.0462 F480
G01 X56.5818 F480
G03 X53.4147 Y83.8569 I0.0000 J-3.1750 F480
G01 X53.4081 Y83.5396 F480
G01 X53.4299 Y83.2493 F480
G02 X53.7615 Y79.0788 I-35.9226 J-4.9546 F480
G01 X52.0430 Y79.1879 F480
G01 X50.5732 Y79.3114 F480
G03 X49.0634 Y79.3163 I-0.7681 J-4.0989 F480
G03 X46.5350 Y76.4222 I0.6393 J-3.1100 F480
G01 X46.5277 Y76.1863 F480
G01 Y72.1670 F480
G01 X46.5435 Y71.8500 F480
G03 X50.1110 Y69.0183 I3.1592 J0.3170 F480
G02 X53.7019 Y69.3569 I4.9826 J-33.6269 F480
G01 X53.6036 Y67.5724 F480
G01 X53.5401 Y66.6185 F480
G01 X53.5520 Y66.7973 F480
G01 X53.5238 Y66.6067 F480
G03 X51.9244 Y65.4569 I4.9195 J-8.5302 F480
G03 X44.8331 Y66.7236 I-4.3918 J-4.1037 F480
G01 X44.5645 Y66.8859 F480
G03 X35.7191 Y67.7729 I-4.8224 J-3.5425 F480
G01 X35.7052 Y67.7805 F480
G01 X35.6711 Y67.8060 F480
G03 X27.2069 Y66.2075 I-3.4528 J-4.9260 F480
G01 X27.1531 Y66.2195 F480
G03 X19.4600 Y62.6703 I-2.1188 J-5.5196 F480
G01 X19.3996 Y62.6733 F480
G03 X13.3657 Y57.1854 I-0.1628 J-5.8820 F480
G03 X8.0965 Y51.4773 I0.6345 J-5.8717 F480
G01 Y51.1599 F480
G03 X8.1809 Y50.3088 I5.7766 J0.1434 F480
G01 X8.1656 Y50.2894 F480
G01 X8.0710 Y50.2444 F480
G03 X4.8333 Y45.1455 I2.6344 J-5.2502 F480
G01 X4.8332 Y44.8281 F480
G03 X5.8493 Y41.6011 I6.3035 J0.2112 F480
G01 X5.7848 Y41.5530 F480
G03 X3.6462 Y38.1649 I3.7053 J-4.7078 F480
G03 X-1.3969 Y35.6260 I-1.8585 J-2.5866 F480
G01 X-1.3853 Y35.3089 F480
G03 X-0.5234 Y33.3473 I3.5458 J0.3879 F480
G00 Z0.0000 F480
G02 X4.7819 Y25.4397 I-93.4159 J-68.4066 F480
G00 Z-6.5000 F480
G01 Z-8.0000 F180
G01 X4.7951 Y25.4185 F480
G02 X10.5436 Y14.2158 I-64.1497 J-39.9933 F480
G02 X13.2437 Y4.9219 I-38.7597 J-16.2999 F480
G03 X14.8186 Y1.5400 I5.1901 J0.3593 F480
G03 X16.3353 Y0.3378 I4.5753 J4.2147 F480
G03 X20.9938 Y-1.4156 I8.8244 J16.3794 F480
G03 X28.7735 Y-2.8329 I16.1566 J66.6248 F480
G03 X43.7436 Y-4.0679 I22.9027 J186.2643 F480
G03 X79.2261 Y-3.6778 I14.3271 J310.7182 F480
G03 X90.2480 Y-2.4611 I-8.4056 J126.6802 F480
G03 X93.5141 Y-1.8658 I-10.0712 J64.5084 F480
G01 X93.5960 Y-1.8483 F480
G03 X96.3681 Y-1.1656 I-7.7908 J37.6047 F480
G01 X96.4828 Y-1.1319 F480
G01 X97.2143 Y-0.9064 F480
G01 X97.3449 Y-0.8631 F480
G01 X98.0093 Y-0.6309 F480
G01 X98.1615 Y-0.5734 F480
G01 X98.7570 Y-0.3348 F480
G03 X101.0156 Y0.9516 I-3.6197 J8.9806 F480
G03 X102.6411 Y2.9170 I-4.2320 J5.1549 F480
G03 X103.2007 Y4.9219 I-4.4957 J2.3356 F480
G02 X105.9008 Y14.2158 I43.2121 J-7.5151 F480
G02 X112.0203 Y26.0127 I72.2397 J-29.9876 F480
G00 Z0.0000 F480
G02 X117.3547 Y33.9009 I120.4180 J-75.6841 F480
G00 Z-6.5000 F480
G01 Z-8.0000 F180
G03 X112.7982 Y38.1649 I-2.6971 J1.6843 F480
G01 X112.7632 Y38.2589 F480
G03 X110.5952 Y41.6011 I-5.7039 J-1.3258 F480
G03 X111.5971 Y45.4248 I-5.1713 J3.3981 F480
G03 X108.2635 Y50.3082 I-5.8968 J-0.4459 F480
G03 X103.0788 Y57.1849 I-5.8192 J1.0055 F480
G01 X103.0778 Y57.2054 F480
G03 X96.9845 Y62.6703 I-5.8680 J-0.4133 F480
G01 X96.9670 Y62.6868 F480
G03 X89.2376 Y66.2075 I-5.5682 J-1.9794 F480
G01 X89.2113 Y66.2482 F480
G03 X80.7395 Y67.7807 I-4.9825 J-3.3612 F480
G01 X80.7102 Y67.7859 F480
G03 X71.8677 Y66.8695 I-4.0090 J-4.4365 F480
G01 X71.5933 Y66.7323 F480
G03 X64.5200 Y65.4569 I-2.6809 J-5.3837 F480
G01 X64.4225 Y65.5436 F480
G03 X63.1301 Y66.4813 I-6.7767 J-7.9810 F480
G01 X62.8925 Y66.7973 F480
G01 X62.9044 Y66.6185 F480
G01 X62.8411 Y67.5687 F480
G01 X62.7425 Y69.3569 F480
G02 X66.3533 Y69.0159 I-3.2470 J-53.6546 F480
G03 X69.9168 Y72.1870 I0.3885 J3.1512 F480
G01 Y76.2063 F480
G03 X66.4135 Y79.3644 I-3.1751 J0.0000 F480
G01 X65.8687 Y79.3112 F480
G01 X64.4014 Y79.1879 F480
G01 X62.6830 Y79.0788 F480
G01 X62.6791 Y79.0963 F480
G02 X63.0373 Y83.5861 I72.4330 J-3.5201 F480
G03 X59.8427 Y86.8073 I-3.1748 J0.0462 F480
G01 X56.5818 F480
G03 X53.4147 Y83.8569 I0.0000 J-3.1750 F480
G01 X53.4081 Y83.5396 F480
G01 X53.4299 Y83.2493 F480
G02 X53.7615 Y79.0788 I-35.9226 J-4.9546 F480
G01 X52.0430 Y79.1879 F480
G01 X50.5732 Y79.3114 F480
G03 X49.0634 Y79.3163 I-0.7681 J-4.0989 F480
G03 X46.5350 Y76.4222 I0.6393 J-3.1100 F480
G01 X46.5277 Y76.1863 F480
G01 Y72.1670 F480
G01 X46.5435 Y71.8500 F480
G03 X50.1110 Y69.0183 I3.1592 J0.3170 F480
G02 X53.7019 Y69.3569 I4.9826 J-33.6269 F480
G01 X53.6036 Y67.5724 F480
G01 X53.5401 Y66.6185 F480
G01 X53.5520 Y66.7973 F480
G01 X53.5238 Y66.6067 F480
G03 X51.9244 Y65.4569 I4.9195 J-8.5302 F480
G03 X44.8331 Y66.7236 I-4.3918 J-4.1037 F480
G01 X44.5645 Y66.8859 F480
G03 X35.7191 Y67.7729 I-4.8224 J-3.5425 F480
G01 X35.7052 Y67.7805 F480
G01 X35.6711 Y67.8060 F480
G03 X27.2069 Y66.2075 I-3.4528 J-4.9260 F480
G01 X27.1531 Y66.2195 F480
G03 X19.4600 Y62.6703 I-2.1188 J-5.5196 F480
G01 X19.3996 Y62.6733 F480
G03 X13.3657 Y57.1854 I-0.1628 J-5.8820 F480
G03 X8.0965 Y51.4773 I0.6345 J-5.8717 F480
G01 Y51.1599 F480
G03 X8.1809 Y50.3088 I5.7766 J0.1434 F480
G01 X8.1656 Y50.2894 F480
G01 X8.0710 Y50.2444 F480
G03 X4.8333 Y45.1455 I2.6344 J-5.2502 F480
G01 X4.8332 Y44.8281 F480
G03 X5.8493 Y41.6011 I6.3035 J0.2112 F480
G01 X5.7848 Y41.5530 F480
G03 X3.6462 Y38.1649 I3.7053 J-4.7078 F480
G03 X-1.3969 Y35.6260 I-1.8585 J-2.5866 F480
G01 X-1.3853 Y35.3089 F480
G03 X-0.5234 Y33.3473 I3.5458 J0.3879 F480
G00 Z0.0000 F480
G02 X4.7819 Y25.4397 I-93.4159 J-68.4066 F480
G00 Z-7.5000 F480
G01 Z-9.0000 F180
G01 X4.7951 Y25.4185 F480
G02 X10.5436 Y14.2158 I-64.1497 J-39.9933 F480
G02 X13.2437 Y4.9219 I-38.7597 J-16.2999 F480
G03 X14.8186 Y1.5400 I5.1901 J0.3593 F480
G03 X16.3353 Y0.3378 I4.5753 J4.2147 F480
G03 X20.9938 Y-1.4156 I8.8244 J16.3794 F480
G03 X28.7735 Y-2.8329 I16.1566 J66.6248 F480
G03 X43.7436 Y-4.0679 I22.9027 J186.2643 F480
G03 X79.2261 Y-3.6778 I14.3271 J310.7182 F480
G03 X90.2480 Y-2.4611 I-8.4056 J126.6802 F480
G03 X93.5141 Y-1.8658 I-10.0712 J64.5084 F480
G01 X93.5960 Y-1.8483 F480
G03 X96.3681 Y-1.1656 I-7.7908 J37.6047 F480
G01 X96.4828 Y-1.1319 F480
G01 X97.2143 Y-0.9064 F480
G01 X97.3449 Y-0.8631 F480
G01 X98.0093 Y-0.6309 F480
G01 X98.1615 Y-0.5734 F480
G01 X98.7570 Y-0.3348 F480
G03 X101.0156 Y0.9516 I-3.6197 J8.9806 F480
G03 X102.6411 Y2.9170 I-4.2320 J5.1549 F480
G03 X103.2007 Y4.9219 I-4.4957 J2.3356 F480
G02 X105.9008 Y14.2158 I43.2121 J-7.5151 F480
G02 X112.0203 Y26.0127 I72.2397 J-29.9876 F480
G00 Z0.0000 F480
G02 X117.3547 Y33.9009 I120.4180 J-75.6841 F480
G00 Z-7.5000 F480
G01 Z-9.0000 F180
G03 X112.7982 Y38.1649 I-2.6971 J1.6843 F480
G01 X112.7632 Y38.2589 F480
G03 X110.5952 Y41.6011 I-5.7039 J-1.3258 F480
G03 X111.5971 Y45.4248 I-5.1713 J3.3981 F480
G03 X108.2635 Y50.3082 I-5.8968 J-0.4459 F480
G03 X103.0788 Y57.1849 I-5.8192 J1.0055 F480
G01 X103.0778 Y57.2054 F480
G03 X96.9845 Y62.6703 I-5.8680 J-0.4133 F480
G01 X96.9670 Y62.6868 F480
G03 X89.2376 Y66.2075 I-5.5682 J-1.9794 F480
G01 X89.2113 Y66.2482 F480
G03 X80.7395 Y67.7807 I-4.9825 J-3.3612 F480
G01 X80.7102 Y67.7859 F480
G03 X71.8677 Y66.8695 I-4.0090 J-4.4365 F480
G01 X71.5933 Y66.7323 F480
G03 X64.5200 Y65.4569 I-2.6809 J-5.3837 F480
G01 X64.4225 Y65.5436 F480
G03 X63.1301 Y66.4813 I-6.7767 J-7.9810 F480
G01 X62.8925 Y66.7973 F480
G01 X62.9044 Y66.6185 F480
G01 X62.8411 Y67.5687 F480
G01 X62.7425 Y69.3569 F480
G02 X66.3533 Y69.0159 I-3.2470 J-53.6546 F480
G03 X69.9168 Y72.1870 I0.3885 J3.1512 F480
G01 Y76.2063 F480
G03 X66.4135 Y79.3644 I-3.1751 J0.0000 F480
G01 X65.8687 Y79.3112 F480
G01 X64.4014 Y79.1879 F480
G01 X62.6830 Y79.0788 F480
G01 X62.6791 Y79.0963 F480
G02 X63.0373 Y83.5861 I72.4330 J-3.5201 F480
G03 X59.8427 Y86.8073 I-3.1748 J0.0462 F480
G01 X56.5818 F480
G03 X53.4147 Y83.8569 I0.0000 J-3.1750 F480
G01 X53.4081 Y83.5396 F480
G01 X53.4299 Y83.2493 F480
G02 X53.7615 Y79.0788 I-35.9226 J-4.9546 F480
G01 X52.0430 Y79.1879 F480
G01 X50.5732 Y79.3114 F480
G03 X49.0634 Y79.3163 I-0.7681 J-4.0989 F480
G03 X46.5350 Y76.4222 I0.6393 J-3.1100 F480
G01 X46.5277 Y76.1863 F480
G01 Y72.1670 F480
G01 X46.5435 Y71.8500 F480
G03 X50.1110 Y69.0183 I3.1592 J0.3170 F480
G02 X53.7019 Y69.3569 I4.9826 J-33.6269 F480
G01 X53.6036 Y67.5724 F480
G01 X53.5401 Y66.6185 F480
G01 X53.5520 Y66.7973 F480
G01 X53.5238 Y66.6067 F480
G03 X51.9244 Y65.4569 I4.9195 J-8.5302 F480
G03 X44.8331 Y66.7236 I-4.3918 J-4.1037 F480
G01 X44.5645 Y66.8859 F480
G03 X35.7191 Y67.7729 I-4.8224 J-3.5425 F480
G01 X35.7052 Y67.7805 F480
G01 X35.6711 Y67.8060 F480
G03 X27.2069 Y66.2075 I-3.4528 J-4.9260 F480
G01 X27.1531 Y66.2195 F480
G03 X19.4600 Y62.6703 I-2.1188 J-5.5196 F480
G01 X19.3996 Y62.6733 F480
G03 X13.3657 Y57.1854 I-0.1628 J-5.8820 F480
G03 X8.0965 Y51.4773 I0.6345 J-5.8717 F480
G01 Y51.1599 F480
G03 X8.1809 Y50.3088 I5.7766 J0.1434 F480
G01 X8.1656 Y50.2894 F480
G01 X8.0710 Y50.2444 F480
G03 X4.8333 Y45.1455 I2.6344 J-5.2502 F480
G01 X4.8332 Y44.8281 F480
G03 X5.8493 Y41.6011 I6.3035 J0.2112 F480
G01 X5.7848 Y41.5530 F480
G03 X3.6462 Y38.1649 I3.7053 J-4.7078 F480
G03 X-1.3969 Y35.6260 I-1.8585 J-2.5866 F480
G01 X-1.3853 Y35.3089 F480
G03 X-0.5234 Y33.3473 I3.5458 J0.3879 F480
G00 Z0.0000 F480
G02 X4.7819 Y25.4397 I-93.4159 J-68.4066 F480
G00 Z-8.5000 F480
G01 Z-10.0000 F180
G01 X4.7951 Y25.4185 F480
G02 X10.5436 Y14.2158 I-64.1497 J-39.9933 F480
G02 X13.2437 Y4.9219 I-38.7597 J-16.2999 F480
G03 X14.8186 Y1.5400 I5.1901 J0.3593 F480
G03 X16.3353 Y0.3378 I4.5753 J4.2147 F480
G03 X20.9938 Y-1.4156 I8.8244 J16.3794 F480
G03 X28.7735 Y-2.8329 I16.1566 J66.6248 F480
G03 X43.7436 Y-4.0679 I22.9027 J186.2643 F480
G03 X79.2261 Y-3.6778 I14.3271 J310.7182 F480
G03 X90.2480 Y-2.4611 I-8.4056 J126.6802 F480
G03 X93.5141 Y-1.8658 I-10.0712 J64.5084 F480
G01 X93.5960 Y-1.8483 F480
G03 X96.3681 Y-1.1656 I-7.7908 J37.6047 F480
G01 X96.4828 Y-1.1319 F480
G01 X97.2143 Y-0.9064 F480
G01 X97.3449 Y-0.8631 F480
G01 X98.0093 Y-0.6309 F480
G01 X98.1615 Y-0.5734 F480
G01 X98.7570 Y-0.3348 F480
G03 X101.0156 Y0.9516 I-3.6197 J8.9806 F480
G03 X102.6411 Y2.9170 I-4.2320 J5.1549 F480
G03 X103.2007 Y4.9219 I-4.4957 J2.3356 F480
G02 X105.9008 Y14.2158 I43.2121 J-7.5151 F480
G02 X112.0203 Y26.0127 I72.2397 J-29.9876 F480
G00 Z0.0000 F480
G02 X117.3547 Y33.9009 I120.4180 J-75.6841 F480
G00 Z-8.5000 F480
G01 Z-10.0000 F180
G03 X112.7982 Y38.1649 I-2.6971 J1.6843 F480
G01 X112.7632 Y38.2589 F480
G03 X110.5952 Y41.6011 I-5.7039 J-1.3258 F480
G03 X111.5971 Y45.4248 I-5.1713 J3.3981 F480
G03 X108.2635 Y50.3082 I-5.8968 J-0.4459 F480
G03 X103.0788 Y57.1849 I-5.8192 J1.0055 F480
G01 X103.0778 Y57.2054 F480
G03 X96.9845 Y62.6703 I-5.8680 J-0.4133 F480
G01 X96.9670 Y62.6868 F480
G03 X89.2376 Y66.2075 I-5.5682 J-1.9794 F480
G01 X89.2113 Y66.2482 F480
G03 X80.7395 Y67.7807 I-4.9825 J-3.3612 F480
G01 X80.7102 Y67.7859 F480
G03 X71.8677 Y66.8695 I-4.0090 J-4.4365 F480
G01 X71.5933 Y66.7323 F480
G03 X64.5200 Y65.4569 I-2.6809 J-5.3837 F480
G01 X64.4225 Y65.5436 F480
G03 X63.1301 Y66.4813 I-6.7767 J-7.9810 F480
G01 X62.8925 Y66.7973 F480
G01 X62.9044 Y66.6185 F480
G01 X62.8411 Y67.5687 F480
G01 X62.7425 Y69.3569 F480
G02 X66.3533 Y69.0159 I-3.2470 J-53.6546 F480
G03 X69.9168 Y72.1870 I0.3885 J3.1512 F480
G01 Y76.2063 F480
G03 X66.4135 Y79.3644 I-3.1751 J0.0000 F480
G01 X65.8687 Y79.3112 F480
G01 X64.4014 Y79.1879 F480
G01 X62.6830 Y79.0788 F480
G01 X62.6791 Y79.0963 F480
G02 X63.0373 Y83.5861 I72.4330 J-3.5201 F480
G03 X59.8427 Y86.8073 I-3.1748 J0.0462 F480
G01 X56.5818 F480
G03 X53.4147 Y83.8569 I0.0000 J-3.1750 F480
G01 X53.4081 Y83.5396 F480
G01 X53.4299 Y83.2493 F480
G02 X53.7615 Y79.0788 I-35.9226 J-4.9546 F480
G01 X52.0430 Y79.1879 F480
G01 X50.5732 Y79.3114 F480
G03 X49.0634 Y79.3163 I-0.7681 J-4.0989 F480
G03 X46.5350 Y76.4222 I0.6393 J-3.1100 F480
G01 X46.5277 Y76.1863 F480
G01 Y72.1670 F480
G01 X46.5435 Y71.8500 F480
G03 X50.1110 Y69.0183 I3.1592 J0.3170 F480
G02 X53.7019 Y69.3569 I4.9826 J-33.6269 F480
G01 X53.6036 Y67.5724 F480
G01 X53.5401 Y66.6185 F480
G01 X53.5520 Y66.7973 F480
G01 X53.5238 Y66.6067 F480
G03 X51.9244 Y65.4569 I4.9195 J-8.5302 F480
G03 X44.8331 Y66.7236 I-4.3918 J-4.1037 F480
G01 X44.5645 Y66.8859 F480
G03 X35.7191 Y67.7729 I-4.8224 J-3.5425 F480
G01 X35.7052 Y67.7805 F480
G01 X35.6711 Y67.8060 F480
G03 X27.2069 Y66.2075 I-3.4528 J-4.9260 F480
G01 X27.1531 Y66.2195 F480
G03 X19.4600 Y62.6703 I-2.1188 J-5.5196 F480
G01 X19.3996 Y62.6733 F480
G03 X13.3657 Y57.1854 I-0.1628 J-5.8820 F480
G03 X8.0965 Y51.4773 I0.6345 J-5.8717 F480
G01 Y51.1599 F480
G03 X8.1809 Y50.3088 I5.7766 J0.1434 F480
G01 X8.1656 Y50.2894 F480
G01 X8.0710 Y50.2444 F480
G03 X4.8333 Y45.1455 I2.6344 J-5.2502 F480
G01 X4.8332 Y44.8281 F480
G03 X5.8493 Y41.6011 I6.3035 J0.2112 F480
G01 X5.7848 Y41.5530 F480
G03 X3.6462 Y38.1649 I3.7053 J-4.7078 F480
G03 X-1.3969 Y35.6260 I-1.8585 J-2.5866 F480
G01 X-1.3853 Y35.3089 F480
G03 X-0.5234 Y33.3473 I3.5458 J0.3879 F480
G00 Z0.0000 F480
G02 X4.7819 Y25.4397 I-93.4159 J-68.4066 F480
G00 Z-9.5000 F480
G01 Z-11.0000 F180
G01 X4.7951 Y25.4185 F480
G02 X10.5436 Y14.2158 I-64.1497 J-39.9933 F480
G02 X13.2437 Y4.9219 I-38.7597 J-16.2999 F480
G03 X14.8186 Y1.5400 I5.1901 J0.3593 F480
G03 X16.3353 Y0.3378 I4.5753 J4.2147 F480
G03 X20.9938 Y-1.4156 I8.8244 J16.3794 F480
G03 X28.7735 Y-2.8329 I16.1566 J66.6248 F480
G03 X43.7436 Y-4.0679 I22.9027 J186.2643 F480
G03 X79.2261 Y-3.6778 I14.3271 J310.7182 F480
G03 X90.2480 Y-2.4611 I-8.4056 J126.6802 F480
G03 X93.5141 Y-1.8658 I-10.0712 J64.5084 F480
G01 X93.5960 Y-1.8483 F480
G03 X96.3681 Y-1.1656 I-7.7908 J37.6047 F480
G01 X96.4828 Y-1.1319 F480
G01 X97.2143 Y-0.9064 F480
G01 X97.3449 Y-0.8631 F480
G01 X98.0093 Y-0.6309 F480
G01 X98.1615 Y-0.5734 F480
G01 X98.7570 Y-0.3348 F480
G03 X101.0156 Y0.9516 I-3.6197 J8.9806 F480
G03 X102.6411 Y2.9170 I-4.2320 J5.1549 F480
G03 X103.2007 Y4.9219 I-4.4957 J2.3356 F480
G02 X105.9008 Y14.2158 I43.2121 J-7.5151 F480
G02 X112.0203 Y26.0127 I72.2397 J-29.9876 F480
G00 Z0.0000 F480
G02 X117.3547 Y33.9009 I120.4180 J-75.6841 F480
G00 Z-9.5000 F480
G01 Z-11.0000 F180
G03 X112.7982 Y38.1649 I-2.6971 J1.6843 F480
G01 X112.7632 Y38.2589 F480
G03 X110.5952 Y41.6011 I-5.7039 J-1.3258 F480
G03 X111.5971 Y45.4248 I-5.1713 J3.3981 F480
G03 X108.2635 Y50.3082 I-5.8968 J-0.4459 F480
G03 X103.0788 Y57.1849 I-5.8192 J1.0055 F480
G01 X103.0778 Y57.2054 F480
G03 X96.9845 Y62.6703 I-5.8680 J-0.4133 F480
G01 X96.9670 Y62.6868 F480
G03 X89.2376 Y66.2075 I-5.5682 J-1.9794 F480
G01 X89.2113 Y66.2482 F480
G03 X80.7395 Y67.7807 I-4.9825 J-3.3612 F480
G01 X80.7102 Y67.7859 F480
G03 X71.8677 Y66.8695 I-4.0090 J-4.4365 F480
G01 X71.5933 Y66.7323 F480
G03 X64.5200 Y65.4569 I-2.6809 J-5.3837 F480
G01 X64.4225 Y65.5436 F480
G03 X63.1301 Y66.4813 I-6.7767 J-7.9810 F480
G01 X62.8925 Y66.7973 F480
G01 X62.9044 Y66.6185 F480
G01 X62.8411 Y67.5687 F480
G01 X62.7425 Y69.3569 F480
G02 X66.3533 Y69.0159 I-3.2470 J-53.6546 F480
G03 X69.9168 Y72.1870 I0.3885 J3.1512 F480
G01 Y76.2063 F480
G03 X66.4135 Y79.3644 I-3.1751 J0.0000 F480
G01 X65.8687 Y79.3112 F480
G01 X64.4014 Y79.1879 F480
G01 X62.6830 Y79.0788 F480
G01 X62.6791 Y79.0963 F480
G02 X63.0373 Y83.5861 I72.4330 J-3.5201 F480
G03 X59.8427 Y86.8073 I-3.1748 J0.0462 F480
G01 X56.5818 F480
G03 X53.4147 Y83.8569 I0.0000 J-3.1750 F480
G01 X53.4081 Y83.5396 F480
G01 X53.4299 Y83.2493 F480
G02 X53.7615 Y79.0788 I-35.9226 J-4.9546 F480
G01 X52.0430 Y79.1879 F480
G01 X50.5732 Y79.3114 F480
G03 X49.0634 Y79.3163 I-0.7681 J-4.0989 F480
G03 X46.5350 Y76.4222 I0.6393 J-3.1100 F480
G01 X46.5277 Y76.1863 F480
G01 Y72.1670 F480
G01 X46.5435 Y71.8500 F480
G03 X50.1110 Y69.0183 I3.1592 J0.3170 F480
G02 X53.7019 Y69.3569 I4.9826 J-33.6269 F480
G01 X53.6036 Y67.5724 F480
G01 X53.5401 Y66.6185 F480
G01 X53.5520 Y66.7973 F480
G01 X53.5238 Y66.6067 F480
G03 X51.9244 Y65.4569 I4.9195 J-8.5302 F480
G03 X44.8331 Y66.7236 I-4.3918 J-4.1037 F480
G01 X44.5645 Y66.8859 F480
G03 X35.7191 Y67.7729 I-4.8224 J-3.5425 F480
G01 X35.7052 Y67.7805 F480
G01 X35.6711 Y67.8060 F480
G03 X27.2069 Y66.2075 I-3.4528 J-4.9260 F480
G01 X27.1531 Y66.2195 F480
G03 X19.4600 Y62.6703 I-2.1188 J-5.5196 F480
G01 X19.3996 Y62.6733 F480
G03 X13.3657 Y57.1854 I-0.1628 J-5.8820 F480
G03 X8.0965 Y51.4773 I0.6345 J-5.8717 F480
G01 Y51.1599 F480
G03 X8.1809 Y50.3088 I5.7766 J0.1434 F480
G01 X8.1656 Y50.2894 F480
G01 X8.0710 Y50.2444 F480
G03 X4.8333 Y45.1455 I2.6344 J-5.2502 F480
G01 X4.8332 Y44.8281 F480
G03 X5.8493 Y41.6011 I6.3035 J0.2112 F480
G01 X5.7848 Y41.5530 F480
G03 X3.6462 Y38.1649 I3.7053 J-4.7078 F480
G03 X-1.3969 Y35.6260 I-1.8585 J-2.5866 F480
G01 X-1.3853 Y35.3089 F480
G03 X-0.5234 Y33.3473 I3.5458 J0.3879 F480
G00 Z0.0000 F480
G02 X4.7819 Y25.4397 I-93.4159 J-68.4066 F480
G00 Z-10.5000 F480
G01 Z-12.0000 F180
G01 X4.7951 Y25.4185 F480
G02 X10.5436 Y14.2158 I-64.1497 J-39.9933 F480
G02 X13.2437 Y4.9219 I-38.7597 J-16.2999 F480
G03 X14.8186 Y1.5400 I5.1901 J0.3593 F480
G03 X16.3353 Y0.3378 I4.5753 J4.2147 F480
G03 X20.9938 Y-1.4156 I8.8244 J16.3794 F480
G03 X28.7735 Y-2.8329 I16.1566 J66.6248 F480
G03 X43.7436 Y-4.0679 I22.9027 J186.2643 F480
G03 X79.2261 Y-3.6778 I14.3271 J310.7182 F480
G03 X90.2480 Y-2.4611 I-8.4056 J126.6802 F480
G03 X93.5141 Y-1.8658 I-10.0712 J64.5084 F480
G01 X93.5960 Y-1.8483 F480
G03 X96.3681 Y-1.1656 I-7.7908 J37.6047 F480
G01 X96.4828 Y-1.1319 F480
G01 X97.2143 Y-0.9064 F480
G01 X97.3449 Y-0.8631 F480
G01 X98.0093 Y-0.6309 F480
G01 X98.1615 Y-0.5734 F480
G01 X98.7570 Y-0.3348 F480
G03 X101.0156 Y0.9516 I-3.6197 J8.9806 F480
G03 X102.6411 Y2.9170 I-4.2320 J5.1549 F480
G03 X103.2007 Y4.9219 I-4.4957 J2.3356 F480
G02 X105.9008 Y14.2158 I43.2121 J-7.5151 F480
G02 X112.0203 Y26.0127 I72.2397 J-29.9876 F480
G00 Z0.0000 F480
G02 X117.3547 Y33.9009 I120.4180 J-75.6841 F480
G00 Z-10.5000 F480
G01 Z-12.0000 F180
G03 X112.7982 Y38.1649 I-2.6971 J1.6843 F480
G01 X112.7632 Y38.2589 F480
G03 X110.5952 Y41.6011 I-5.7039 J-1.3258 F480
G03 X111.5971 Y45.4248 I-5.1713 J3.3981 F480
G03 X108.2635 Y50.3082 I-5.8968 J-0.4459 F480
G03 X103.0788 Y57.1849 I-5.8192 J1.0055 F480
G01 X103.0778 Y57.2054 F480
G03 X96.9845 Y62.6703 I-5.8680 J-0.4133 F480
G01 X96.9670 Y62.6868 F480
G03 X89.2376 Y66.2075 I-5.5682 J-1.9794 F480
G01 X89.2113 Y66.2482 F480
G03 X80.7395 Y67.7807 I-4.9825 J-3.3612 F480
G01 X80.7102 Y67.7859 F480
G03 X71.8677 Y66.8695 I-4.0090 J-4.4365 F480
G01 X71.5933 Y66.7323 F480
G03 X64.5200 Y65.4569 I-2.6809 J-5.3837 F480
G01 X64.4225 Y65.5436 F480
G03 X63.1301 Y66.4813 I-6.7767 J-7.9810 F480
G01 X62.8925 Y66.7973 F480
G01 X62.9044 Y66.6185 F480
G01 X62.8411 Y67.5687 F480
G01 X62.7425 Y69.3569 F480
G02 X66.3533 Y69.0159 I-3.2470 J-53.6546 F480
G03 X69.9168 Y72.1870 I0.3885 J3.1512 F480
G01 Y76.2063 F480
G03 X66.4135 Y79.3644 I-3.1751 J0.0000 F480
G01 X65.8687 Y79.3112 F480
G01 X64.4014 Y79.1879 F480
G01 X62.6830 Y79.0788 F480
G01 X62.6791 Y79.0963 F480
G02 X63.0373 Y83.5861 I72.4330 J-3.5201 F480
G03 X59.8427 Y86.8073 I-3.1748 J0.0462 F480
G01 X56.5818 F480
G03 X53.4147 Y83.8569 I0.0000 J-3.1750 F480
G01 X53.4081 Y83.5396 F480
G01 X53.4299 Y83.2493 F480
G02 X53.7615 Y79.0788 I-35.9226 J-4.9546 F480
G01 X52.0430 Y79.1879 F480
G01 X50.5732 Y79.3114 F480
G03 X49.0634 Y79.3163 I-0.7681 J-4.0989 F480
G03 X46.5350 Y76.4222 I0.6393 J-3.1100 F480
G01 X46.5277 Y76.1863 F480
G01 Y72.1670 F480
G01 X46.5435 Y71.8500 F480
G03 X50.1110 Y69.0183 I3.1592 J0.3170 F480
G02 X53.7019 Y69.3569 I4.9826 J-33.6269 F480
G01 X53.6036 Y67.5724 F480
G01 X53.5401 Y66.6185 F480
G01 X53.5520 Y66.7973 F480
G01 X53.5238 Y66.6067 F480
G03 X51.9244 Y65.4569 I4.9195 J-8.5302 F480
G03 X44.8331 Y66.7236 I-4.3918 J-4.1037 F480
G01 X44.5645 Y66.8859 F480
G03 X35.7191 Y67.7729 I-4.8224 J-3.5425 F480
G01 X35.7052 Y67.7805 F480
G01 X35.6711 Y67.8060 F480
G03 X27.2069 Y66.2075 I-3.4528 J-4.9260 F480
G01 X27.1531 Y66.2195 F480
G03 X19.4600 Y62.6703 I-2.1188 J-5.5196 F480
G01 X19.3996 Y62.6733 F480
G03 X13.3657 Y57.1854 I-0.1628 J-5.8820 F480
G03 X8.0965 Y51.4773 I0.6345 J-5.8717 F480
G01 Y51.1599 F480
G03 X8.1809 Y50.3088 I5.7766 J0.1434 F480
G01 X8.1656 Y50.2894 F480
G01 X8.0710 Y50.2444 F480
G03 X4.8333 Y45.1455 I2.6344 J-5.2502 F480
G01 X4.8332 Y44.8281 F480
G03 X5.8493 Y41.6011 I6.3035 J0.2112 F480
G01 X5.7848 Y41.5530 F480
G03 X3.6462 Y38.1649 I3.7053 J-4.7078 F480
G03 X-1.3969 Y35.6260 I-1.8585 J-2.5866 F480
G01 X-1.3853 Y35.3089 F480
G03 X-0.5234 Y33.3473 I3.5458 J0.3879 F480
G00 Z0.0000 F480
G02 X4.7819 Y25.4397 I-93.4159 J-68.4066 F480
G00 Z2.0000 F480
G00 X0.0000 Y0.0000 F2100

M05
