;FLAVOR:Marlin
;TIME:5629
;Filament used: 4.24095m
;Layer height: 0.1
;Generated with Cura_SteamEngine 4.0.0
M140 S60
M105
M190 S60
M104 S220
M105
M109 S220
M82 ;absolute extrusion mode
G28 ;Home
G1 Z15.0 F6000 ;Move the platform down 5mm
;Prime the extruder
G92 E0
G1 F200 E3
G92 E0
G92 E0
G1 F1500 E-6.5
;LAYER_COUNT:256
;LAYER:0
M107
G0 F3000 X114.396 Y66.964 Z0.3
;TYPE:SKIRT
G1 F1500 E0
G1 F2400 X114.579 Y66.749 E0.01409
G1 X114.815 Y66.595 E0.02814
G1 X115.085 Y66.512 E0.04224
G1 X115.24 Y66.5 E0.04999
G1 X160.422 Y66.5 E2.30413
G1 X160.701 Y66.54 E2.31819
G1 X160.958 Y66.656 E2.33226
G1 X161.173 Y66.839 E2.34635
G1 X161.327 Y67.075 E2.36041
G1 X161.41 Y67.345 E2.3745
G1 X161.422 Y67.5 E2.38226
G1 X161.422 Y112.5 E4.62731
G1 X161.382 Y112.779 E4.64138
G1 X161.266 Y113.036 E4.65544
G1 X161.083 Y113.251 E4.66953
G1 X160.847 Y113.405 E4.68359
G1 X160.577 Y113.488 E4.69768
G1 X160.422 Y113.5 E4.70544
G1 X115.241 Y113.5 E6.95953
G1 X114.962 Y113.46 E6.97359
G1 X114.705 Y113.344 E6.98766
G1 X114.49 Y113.161 E7.00174
G1 X114.336 Y112.925 E7.0158
G1 X114.253 Y112.655 E7.02989
G1 X114.241 Y112.5 E7.03765
G1 X114.24 Y67.5 E9.28271
G1 X114.28 Y67.221 E9.29677
G1 X114.396 Y66.964 E9.31084
G0 F3000 X114.793 Y67.099
G1 F2400 X114.966 Y66.966 E9.32172
G1 X115.24 Y66.9 E9.33578
G1 X160.422 Y66.9 E11.58992
G1 X160.637 Y66.94 E11.60083
G1 X160.823 Y67.053 E11.61169
G1 X160.956 Y67.226 E11.62258
G1 X161.022 Y67.5 E11.63664
G1 X161.022 Y112.5 E13.8817
G1 X160.982 Y112.715 E13.89261
G1 X160.869 Y112.901 E13.90347
G1 X160.696 Y113.034 E13.91435
G1 X160.422 Y113.1 E13.92841
G1 X115.241 Y113.1 E16.1825
G1 X115.026 Y113.06 E16.19341
G1 X114.84 Y112.947 E16.20427
G1 X114.707 Y112.774 E16.21516
G1 X114.641 Y112.5 E16.22922
G1 X114.64 Y67.5 E18.47428
G1 X114.68 Y67.285 E18.48519
G1 X114.793 Y67.099 E18.49605
G0 F3000 X115.079 Y67.381
G1 F2400 X115.24 Y67.3 E18.50504
G1 X160.422 Y67.3 E20.75918
G1 X160.541 Y67.339 E20.76543
G1 X160.622 Y67.5 E20.77442
G1 X160.622 Y112.5 E23.01948
G1 X160.583 Y112.619 E23.02572
G1 X160.422 Y112.7 E23.03472
G1 X115.241 Y112.7 E25.28881
G1 X115.122 Y112.661 E25.29505
G1 X115.041 Y112.5 E25.30404
G1 X115.04 Y67.5 E27.5491
G1 X115.079 Y67.381 E27.55535
G1 F1500 E21.05535
G1 F300 Z0.7
G0 F3000 X119.182 Y70.141 Z0.7
G1 F300 Z0.3
G1 F1500 E27.55535
G1 F2400 X119.058 Y70.545 E27.57643
G1 X119.081 Y109.636 E29.52669
G1 X119.116 Y109.744 E29.53236
G1 X119.26 Y109.97 E29.54573
G1 X119.373 Y110.079 E29.55356
G1 X120.157 Y110.445 E29.59673
G1 X120.654 Y110.5 E29.62167
G1 X154.47 Y110.489 E31.30876
G1 X154.937 Y110.337 E31.33326
G1 X155.161 Y110.156 E31.34763
G1 X155.331 Y109.891 E31.36334
G1 X155.399 Y109.661 E31.3753
G1 X155.417 Y108.207 E31.44785
G1 X155.169 Y107.948 E31.46574
G1 X155.012 Y107.734 E31.47898
G1 X154.55 Y106.884 E31.52725
G1 X154.459 Y106.65 E31.53977
G1 X154.302 Y106.026 E31.57187
G1 X154.273 Y105.832 E31.58166
G1 X154.241 Y105.19 E31.61373
G1 X154.251 Y104.99 E31.62372
G1 X154.348 Y104.351 E31.65596
G1 X154.415 Y104.115 E31.6682
G1 X154.787 Y103.226 E31.71628
G1 X154.954 Y102.956 E31.73212
G1 X155.423 Y102.416 E31.7678
G1 X155.422 Y77.612 E33.00528
G1 X155.169 Y77.348 E33.02352
G1 X155.012 Y77.134 E33.03677
G1 X154.55 Y76.284 E33.08503
G1 X154.459 Y76.05 E33.09756
G1 X154.302 Y75.426 E33.12966
G1 X154.273 Y75.232 E33.13945
G1 X154.241 Y74.59 E33.17151
G1 X154.251 Y74.39 E33.18151
G1 X154.348 Y73.751 E33.21375
G1 X154.415 Y73.515 E33.22599
G1 X154.787 Y72.626 E33.27407
G1 X154.954 Y72.356 E33.28991
G1 X155.415 Y71.825 E33.32499
G1 X155.383 Y70.279 E33.40214
G1 X155.278 Y70.007 E33.41668
G1 X155.077 Y69.761 E33.43253
G1 X154.849 Y69.614 E33.44607
G1 X154.315 Y69.5 E33.47331
G1 X120.46 Y69.511 E35.16234
G1 X119.752 Y69.692 E35.1988
G1 X119.251 Y70.046 E35.2294
G1 X119.182 Y70.141 E35.23526
G0 F3000 X118.82 Y69.959
G1 F2400 X118.658 Y70.487 E35.26282
G1 X118.681 Y109.701 E37.21921
G1 X118.75 Y109.914 E37.23038
G1 X118.951 Y110.228 E37.24898
G1 X119.142 Y110.411 E37.26218
G1 X120.051 Y110.836 E37.31224
G1 X120.628 Y110.9 E37.3412
G1 X154.532 Y110.889 E39.03268
G1 X155.132 Y110.694 E39.06416
G1 X155.464 Y110.425 E39.08547
G1 X155.699 Y110.059 E39.10717
G1 X155.798 Y109.722 E39.1247
G1 X155.819 Y108.048 E39.20822
G1 X155.458 Y107.671 E39.23426
G1 X155.364 Y107.543 E39.24218
G1 X154.902 Y106.693 E39.29045
G1 X154.847 Y106.552 E39.298
G1 X154.69 Y105.928 E39.3301
G1 X154.673 Y105.812 E39.33595
G1 X154.641 Y105.17 E39.36802
G1 X154.647 Y105.05 E39.37402
G1 X154.744 Y104.411 E39.40626
G1 X154.784 Y104.269 E39.41362
G1 X155.156 Y103.38 E39.4617
G1 X155.256 Y103.219 E39.47115
G1 X155.823 Y102.566 E39.5143
G1 X155.822 Y77.451 E40.76729
G1 X155.458 Y77.071 E40.79355
G1 X155.364 Y76.943 E40.80147
G1 X154.902 Y76.093 E40.84973
G1 X154.847 Y75.952 E40.85729
G1 X154.69 Y75.328 E40.88939
G1 X154.673 Y75.212 E40.89524
G1 X154.641 Y74.57 E40.92731
G1 X154.647 Y74.45 E40.9333
G1 X154.744 Y73.811 E40.96554
G1 X154.784 Y73.669 E40.9729
G1 X155.156 Y72.78 E41.02098
G1 X155.256 Y72.619 E41.03044
G1 X155.818 Y71.972 E41.0732
G1 X155.781 Y70.201 E41.16157
G1 X155.628 Y69.803 E41.18284
G1 X155.348 Y69.458 E41.20501
G1 X155.004 Y69.238 E41.22538
G1 X154.357 Y69.1 E41.25839
G1 X120.408 Y69.111 E42.95211
G1 X119.581 Y69.323 E42.9947
G1 X118.967 Y69.757 E43.03222
G1 X118.82 Y69.959 E43.04468
G0 F3000 X118.456 Y69.78
G1 F2400 X118.258 Y70.426 E43.07839
G1 X118.281 Y109.765 E45.04102
G1 X118.385 Y110.086 E45.05785
G1 X118.637 Y110.481 E45.08123
G1 X118.914 Y110.747 E45.10039
G1 X119.938 Y111.226 E45.15679
G1 X120.611 Y111.3 E45.19057
G1 X154.598 Y111.289 E46.88619
G1 X155.325 Y111.052 E46.92434
G1 X155.766 Y110.695 E46.95264
G1 X156.064 Y110.23 E46.9802
G1 X156.197 Y109.78 E47.00361
G1 X156.221 Y107.889 E47.09796
G1 X155.747 Y107.394 E47.13215
G1 X155.715 Y107.352 E47.13478
G1 X155.253 Y106.502 E47.18305
G1 X155.235 Y106.455 E47.18556
G1 X155.078 Y105.831 E47.21766
G1 X155.072 Y105.792 E47.21963
G1 X155.04 Y105.15 E47.2517
G1 X155.042 Y105.11 E47.2537
G1 X155.139 Y104.471 E47.28594
G1 X155.153 Y104.424 E47.28839
G1 X155.525 Y103.535 E47.33647
G1 X155.558 Y103.481 E47.33963
G1 X156.223 Y102.715 E47.39023
G1 X156.222 Y77.29 E48.65869
G1 X155.747 Y76.794 E48.69295
G1 X155.715 Y76.752 E48.69559
G1 X155.253 Y75.902 E48.74385
G1 X155.235 Y75.855 E48.74637
G1 X155.078 Y75.231 E48.77847
G1 X155.072 Y75.192 E48.78044
G1 X155.04 Y74.55 E48.81251
G1 X155.042 Y74.51 E48.8145
G1 X155.139 Y73.871 E48.84675
G1 X155.153 Y73.824 E48.8492
G1 X155.525 Y72.935 E48.89727
G1 X155.558 Y72.881 E48.90043
G1 X156.221 Y72.117 E48.9509
G1 X156.18 Y70.123 E49.0504
G1 X155.978 Y69.599 E49.07842
G1 X155.617 Y69.156 E49.10693
G1 X155.16 Y68.863 E49.13401
G1 X154.398 Y68.7 E49.17289
G1 X120.36 Y68.711 E50.87105
G1 X119.408 Y68.955 E50.92008
G1 X118.684 Y69.466 E50.96429
G1 X118.456 Y69.78 E50.98365
G1 F1500 E44.48365
G1 F300 Z0.7
;MESH:pen_holder.STL
G0 F3000 X156.622 Y107.716 Z0.7
;TYPE:WALL-OUTER
G1 F300 Z0.3
G1 F1500 E50.98365
G1 F2400 X156.454 Y107.576 E50.99456
G1 X156.25 Y107.375 E51.00885
G1 X156.048 Y107.132 E51.02462
G1 X155.88 Y106.885 E51.03952
G1 X155.735 Y106.616 E51.05477
G1 X155.617 Y106.337 E51.06988
G1 X155.531 Y106.053 E51.08468
G1 X155.47 Y105.753 E51.09996
G1 X155.44 Y105.451 E51.1151
G1 X155.44 Y105.149 E51.13016
G1 X155.47 Y104.847 E51.1453
G1 X155.532 Y104.542 E51.16083
G1 X155.617 Y104.263 E51.17538
G1 X155.735 Y103.984 E51.1905
G1 X155.88 Y103.715 E51.20574
G1 X156.048 Y103.468 E51.22065
G1 X156.245 Y103.231 E51.23602
G1 X156.462 Y103.019 E51.25116
G1 X156.623 Y102.883 E51.26167
G1 X156.622 Y77.116 E52.54719
G1 X156.454 Y76.976 E52.5581
G1 X156.25 Y76.775 E52.57239
G1 X156.048 Y76.532 E52.58816
G1 X155.88 Y76.285 E52.60306
G1 X155.735 Y76.016 E52.6183
G1 X155.617 Y75.737 E52.63342
G1 X155.531 Y75.453 E52.64822
G1 X155.47 Y75.153 E52.66349
G1 X155.44 Y74.851 E52.67864
G1 X155.44 Y74.549 E52.6937
G1 X155.47 Y74.247 E52.70884
G1 X155.532 Y73.942 E52.72437
G1 X155.617 Y73.663 E52.73892
G1 X155.735 Y73.384 E52.75404
G1 X155.88 Y73.115 E52.76928
G1 X156.048 Y72.868 E52.78418
G1 X156.245 Y72.631 E52.79956
G1 X156.462 Y72.419 E52.8147
G1 X156.623 Y72.283 E52.82521
G1 X156.619 Y70.378 E52.92025
G1 X156.576 Y70.045 E52.937
G1 X156.514 Y69.82 E52.94865
G1 X156.433 Y69.606 E52.96006
G1 X156.328 Y69.4 E52.9716
G1 X156.202 Y69.206 E52.98314
G1 X156.058 Y69.028 E52.99456
G1 X155.894 Y68.865 E53.0061
G1 X155.715 Y68.72 E53.01759
G1 X155.521 Y68.595 E53.0291
G1 X155.316 Y68.49 E53.04059
G1 X155.101 Y68.407 E53.05209
G1 X154.879 Y68.348 E53.06355
G1 X154.651 Y68.312 E53.07507
G1 X154.426 Y68.3 E53.08631
G1 X120.594 Y68.3 E54.77419
G1 X120.315 Y68.312 E54.78813
G1 X120.036 Y68.347 E54.80216
G1 X119.763 Y68.404 E54.81607
G1 X119.497 Y68.484 E54.82993
G1 X119.243 Y68.586 E54.84358
G1 X119.003 Y68.708 E54.85701
G1 X118.78 Y68.851 E54.87023
G1 X118.575 Y69.011 E54.8832
G1 X118.394 Y69.188 E54.89584
G1 X118.234 Y69.382 E54.90838
G1 X118.101 Y69.588 E54.92061
G1 X117.994 Y69.805 E54.93268
G1 X117.916 Y70.032 E54.94466
G1 X117.871 Y70.261 E54.9563
G1 X117.858 Y70.384 E54.96247
G1 X117.857 Y109.61 E56.91947
G1 X117.884 Y109.83 E56.93053
G1 X117.939 Y110.047 E56.94169
G1 X118.021 Y110.257 E56.95294
G1 X118.126 Y110.458 E56.96425
G1 X118.255 Y110.647 E56.97567
G1 X118.332 Y110.742 E56.98177
G1 X118.492 Y110.913 E56.99346
G1 X118.675 Y111.071 E57.00552
G1 X118.875 Y111.214 E57.01778
G1 X119.092 Y111.34 E57.0303
G1 X119.321 Y111.449 E57.04296
G1 X119.563 Y111.538 E57.05582
G1 X119.813 Y111.609 E57.06879
G1 X120.071 Y111.66 E57.08191
G1 X120.334 Y111.69 E57.09511
G1 X120.594 Y111.7 E57.10809
G1 X154.426 Y111.7 E58.79598
G1 X154.651 Y111.688 E58.80722
G1 X154.879 Y111.652 E58.81874
G1 X155.101 Y111.593 E58.8302
G1 X155.316 Y111.51 E58.84169
G1 X155.521 Y111.405 E58.85318
G1 X155.715 Y111.28 E58.8647
G1 X155.894 Y111.135 E58.87619
G1 X156.057 Y110.972 E58.88769
G1 X156.201 Y110.794 E58.89911
G1 X156.327 Y110.6 E58.91066
G1 X156.432 Y110.394 E58.92219
G1 X156.514 Y110.18 E58.93362
G1 X156.575 Y109.959 E58.94506
G1 X156.595 Y109.838 E58.95118
G1 X156.619 Y109.62 E58.96212
G1 X156.622 Y107.716 E59.05711
G0 F3000 X156.468 Y107.588
G0 X156.8 Y107.214
G0 X156.945 Y107.384
G0 X159.752 Y111.83
G0 X160.222 Y112.3
G1 F2400 X115.441 Y112.3 E61.29125
G1 X115.44 Y67.9 E63.50637
G1 X115.44 Y67.7 E63.51635
G1 X115.64 Y67.7 E63.52281
G1 X160.222 Y67.7 E65.74702
G1 X160.222 Y112.3 E67.97212
G0 F3000 X160.022 Y112.3
G0 X159.752 Y111.83
G0 X157.112 Y107.488
G0 X157.022 Y107.529
;TYPE:WALL-INNER
G1 F2400 X156.727 Y107.283 E67.99128
G1 X156.547 Y107.106 E68.00388
G1 X156.367 Y106.889 E68.01794
G1 X156.221 Y106.675 E68.03087
G1 X156.095 Y106.44 E68.04417
G1 X155.995 Y106.205 E68.05691
G1 X155.919 Y105.954 E68.07
G1 X155.866 Y105.692 E68.08333
G1 X155.84 Y105.431 E68.09642
G1 X155.84 Y105.169 E68.10949
G1 X155.866 Y104.908 E68.12257
G1 X155.919 Y104.644 E68.13601
G1 X155.996 Y104.393 E68.14911
G1 X156.095 Y104.16 E68.16174
G1 X156.221 Y103.925 E68.17504
G1 X156.367 Y103.711 E68.18796
G1 X156.541 Y103.501 E68.20157
G1 X156.731 Y103.315 E68.21484
G1 X157.023 Y103.069 E68.23388
G1 X157.022 Y76.929 E69.53801
G1 X156.727 Y76.683 E69.55718
G1 X156.547 Y76.506 E69.56977
G1 X156.367 Y76.289 E69.58384
G1 X156.221 Y76.075 E69.59676
G1 X156.095 Y75.84 E69.61007
G1 X155.995 Y75.605 E69.62281
G1 X155.919 Y75.354 E69.63589
G1 X155.866 Y75.092 E69.64923
G1 X155.84 Y74.831 E69.66231
G1 X155.84 Y74.569 E69.67538
G1 X155.866 Y74.308 E69.68847
G1 X155.919 Y74.044 E69.7019
G1 X155.996 Y73.793 E69.715
G1 X156.095 Y73.56 E69.72763
G1 X156.221 Y73.325 E69.74094
G1 X156.367 Y73.111 E69.75386
G1 X156.541 Y72.901 E69.76747
G1 X156.732 Y72.715 E69.78077
G1 X157.023 Y72.468 E69.79981
G1 X157.019 Y70.352 E69.90538
G1 X156.969 Y69.966 E69.9248
G1 X156.895 Y69.696 E69.93876
G1 X156.799 Y69.444 E69.95222
G1 X156.675 Y69.2 E69.96587
G1 X156.526 Y68.971 E69.9795
G1 X156.355 Y68.76 E69.99305
G1 X156.162 Y68.567 E70.00667
G1 X156.064 Y68.488 E70.01295
G1 X155.95 Y68.396 E70.02026
G1 X155.721 Y68.248 E70.03386
G1 X155.48 Y68.124 E70.04738
G1 X155.418 Y68.1 E70.0507
G1 X155.48 Y68.1
G1 X155.721 Y68.1 E70.05299
G1 X155.95 Y68.1 E70.05908
G1 X156.097 Y68.1 E70.06552
G1 X159.822 Y68.1 E70.25136
G1 X159.822 Y111.9 E72.43655
G1 X156.097 Y111.9 E72.62239
G1 X155.95 Y111.9 E72.62972
G1 X155.721 Y111.9 E72.64115
G1 X155.48 Y111.9 E72.65317
G1 X155.418 Y111.9 E72.65626
G1 X155.48 Y111.876
G1 X155.721 Y111.752 E72.66005
G1 X155.95 Y111.604 E72.6683
G1 X156.064 Y111.512 E72.67471
G1 X156.162 Y111.433 E72.68099
G1 X156.355 Y111.24 E72.69461
G1 X156.525 Y111.029 E72.70813
G1 X156.674 Y110.8 E72.72176
G1 X156.798 Y110.557 E72.73537
G1 X156.894 Y110.305 E72.74882
G1 X156.966 Y110.045 E72.76228
G1 X156.991 Y109.893 E72.76997
G1 X157.019 Y109.642 E72.78257
G1 X157.022 Y107.529 E72.88799
G0 F3000 X157.112 Y107.488
G0 X156.658 Y70.376
G0 X156.469 Y69.59
G0 X156.087 Y69.002
G0 X155.54 Y68.561
G0 X154.961 Y67.957
G0 X154.436 Y67.901
G0 X120.282 Y67.914
G0 X119.484 Y68.447
G0 X118.896 Y68.747
G0 X117.432 Y69.902
G0 X117.529 Y69.928
G1 F2400 X117.475 Y70.201 E72.90187
G1 X117.458 Y70.363 E72.91
G1 X117.457 Y109.634 E74.86924
G1 X117.49 Y109.904 E74.88281
G1 X117.557 Y110.169 E74.89644
G1 X117.656 Y110.423 E74.91004
G1 X117.782 Y110.664 E74.92361
G1 X117.934 Y110.886 E74.93703
G1 X118.03 Y111.005 E74.94466
G1 X118.214 Y111.202 E74.95811
G1 X118.427 Y111.386 E74.97215
G1 X118.595 Y111.505 E74.98242
G1 X118.658 Y111.55 E74.98629
G1 X118.905 Y111.694 E75.00055
G1 X119.166 Y111.818 E75.01497
G1 X119.388 Y111.9 E75.02677
G1 X119.166 Y111.9 E75.02775
G1 X118.905 Y111.9 E75.03222
G1 X118.658 Y111.9 E75.04063
G1 X118.58 Y111.9 E75.04429
G1 X115.841 Y111.9 E75.18094
G1 X115.84 Y68.3 E77.35615
G1 X115.84 Y68.1 E77.36613
G1 X116.04 Y68.1 E77.37259
G1 X118.565 Y68.1 E77.49856
G1 X118.804 Y68.1 E77.51049
G1 X119.078 Y68.1 E77.52416
G1 X119.385 Y68.1 E77.53947
G1 X119.078 Y68.221 E77.54266
G1 X118.804 Y68.36 E77.55061
G1 X118.603 Y68.488 E77.56049
G1 X118.548 Y68.524 E77.56377
G1 X118.311 Y68.709 E77.57877
G1 X118.099 Y68.917 E77.59359
G1 X117.911 Y69.145 E77.60833
G1 X117.752 Y69.39 E77.6229
G1 X117.624 Y69.651 E77.63741
G1 X117.529 Y69.928 E77.65202
G0 F3000 X117.142 Y69.824
G1 F2400 X117.079 Y70.141 E77.66814
G1 X117.058 Y70.342 E77.67822
G1 X117.057 Y109.658 E79.63971
G1 X117.096 Y109.978 E79.65579
G1 X117.175 Y110.291 E79.67189
G1 X117.291 Y110.589 E79.68785
G1 X117.439 Y110.87 E79.70369
G1 X117.601 Y111.106 E79.71797
G1 X117.613 Y111.125 E79.7191
G1 X117.728 Y111.267 E79.72821
G1 X117.946 Y111.5 E79.74413
G1 X117.728 Y111.5 E79.74627
G1 X117.613 Y111.5 E79.74792
G1 X117.59 Y111.5 E79.74904
G1 X116.241 Y111.5 E79.81634
G1 X116.24 Y68.7 E81.95164
G1 X116.24 Y68.5 E81.96162
G1 X116.44 Y68.5 E81.96808
G1 X117.535 Y68.5 E82.02271
G1 X117.804 Y68.5 E82.03613
G1 X117.953 Y68.5 E82.04356
G1 X117.804 Y68.646 E82.0472
G1 X117.633 Y68.853 E82.05674
G1 X117.588 Y68.908 E82.06029
G1 X117.403 Y69.192 E82.0772
G1 X117.254 Y69.497 E82.09413
G1 X117.142 Y69.824 E82.11138
G0 F3000 X119.227 Y68.55
G0 X119.971 Y67.953
G0 X120.586 Y67.901
G0 X154.692 Y67.915
G0 X155.332 Y68.454
G0 X155.92 Y68.836
G0 X156.362 Y69.38
G0 X156.615 Y70.038
G0 X157.422 Y107.342
G1 F2400 X156.994 Y106.985 E82.13918
G1 X156.844 Y106.838 E82.14966
G1 X156.684 Y106.644 E82.16221
G1 X156.568 Y106.475 E82.17243
G1 X156.455 Y106.263 E82.18442
G1 X156.372 Y106.069 E82.19495
G1 X156.307 Y105.853 E82.2062
G1 X156.262 Y105.634 E82.21735
G1 X156.24 Y105.411 E82.22853
G1 X156.24 Y105.189 E82.23961
G1 X156.262 Y104.966 E82.25079
G1 X156.308 Y104.739 E82.26234
G1 X156.371 Y104.532 E82.27314
G1 X156.453 Y104.34 E82.28355
G1 X156.568 Y104.125 E82.29572
G1 X156.684 Y103.956 E82.30594
G1 X156.833 Y103.775 E82.31764
G1 X157 Y103.611 E82.32932
G1 X157.423 Y103.255 E82.3569
G1 X157.422 Y76.742 E83.67964
G1 X156.994 Y76.385 E83.70745
G1 X156.844 Y76.238 E83.71792
G1 X156.684 Y76.044 E83.73047
G1 X156.568 Y75.875 E83.7407
G1 X156.455 Y75.663 E83.75268
G1 X156.372 Y75.469 E83.76321
G1 X156.307 Y75.253 E83.77446
G1 X156.262 Y75.034 E83.78562
G1 X156.24 Y74.811 E83.7968
G1 X156.24 Y74.589 E83.80787
